/* XPM */
static char * fanta_xpm[] = {
"600 600 152 2",
"  	c #FF8100",
". 	c #FF8300",
"+ 	c #FD8300",
"@ 	c #FB8200",
"# 	c #F58400",
"$ 	c #FF7E00",
"% 	c #FF8500",
"& 	c #FF7B00",
"* 	c #FC7D00",
"= 	c #F57E00",
"- 	c #FB8500",
"; 	c #EA8001",
"> 	c #E98B02",
", 	c #F48A00",
"' 	c #E78E1A",
") 	c #F38A25",
"! 	c #F09930",
"~ 	c #F1AA51",
"{ 	c #F6B86B",
"] 	c #F8C67F",
"^ 	c #F69009",
"/ 	c #E3904A",
"( 	c #FEE2AC",
"_ 	c #FFE9BF",
": 	c #FFF2CB",
"< 	c #FFFBD8",
"[ 	c #FFF7E0",
"} 	c #FFFEF1",
"| 	c #FEFDE8",
"1 	c #FBD296",
"2 	c #E59136",
"3 	c #FAFDF2",
"4 	c #FFFFF7",
"5 	c #FFFFFD",
"6 	c #FEFCFF",
"7 	c #FBFCFF",
"8 	c #F8FDFF",
"9 	c #FBFFFF",
"0 	c #FDFFFF",
"a 	c #FFFFFF",
"b 	c #FCFDFA",
"c 	c #F9F7FC",
"d 	c #FFFFFB",
"e 	c #F8FDF9",
"f 	c #FFFFFA",
"g 	c #FFFDFF",
"h 	c #FF8900",
"i 	c #F3FDFF",
"j 	c #F98A00",
"k 	c #DE812A",
"l 	c #F0F2FC",
"m 	c #C9CBE4",
"n 	c #D3D5E8",
"o 	c #CBCEF7",
"p 	c #C2C4E2",
"q 	c #BBBDE7",
"r 	c #BABDDF",
"s 	c #E3E5F5",
"t 	c #CC794B",
"u 	c #7B7BB2",
"v 	c #6466B0",
"w 	c #414297",
"x 	c #2F318B",
"y 	c #1F1E8B",
"z 	c #0D058C",
"A 	c #2A299A",
"B 	c #060285",
"C 	c #8C8FCA",
"D 	c #A0A3D6",
"E 	c #B1B3DC",
"F 	c #915453",
"G 	c #564F7C",
"H 	c #191777",
"I 	c #180264",
"J 	c #0E0273",
"K 	c #08017C",
"L 	c #000074",
"M 	c #010082",
"N 	c #000086",
"O 	c #00007B",
"P 	c #01016E",
"Q 	c #080C66",
"R 	c #0E0353",
"S 	c #25074D",
"T 	c #3E1756",
"U 	c #774047",
"V 	c #BA723A",
"W 	c #8F4E3A",
"X 	c #552747",
"Y 	c #070092",
"Z 	c #0100A2",
"` 	c #010098",
" .	c #05008F",
"..	c #00008D",
"+.	c #00008B",
"@.	c #00008F",
"#.	c #010095",
"$.	c #01048C",
"%.	c #1E1D81",
"&.	c #AD6237",
"*.	c #05009D",
"=.	c #000091",
"-.	c #000093",
";.	c #0B0978",
">.	c #AD664F",
",.	c #CC7733",
"'.	c #3F163B",
").	c #000089",
"!.	c #01009C",
"~.	c #673244",
"{.	c #020165",
"].	c #0B2362",
"^.	c #0C2B4F",
"/.	c #25524F",
"(.	c #407A4E",
"_.	c #63984D",
":.	c #63B31D",
"<.	c #7DBC3E",
"[.	c #74C020",
"}.	c #418C33",
"|.	c #3B6351",
"1.	c #79C301",
"2.	c #77BE01",
"3.	c #76BF10",
"4.	c #7DB359",
"5.	c #274C62",
"6.	c #70BC01",
"7.	c #72A65D",
"8.	c #5C8764",
"9.	c #73C200",
"0.	c #74BF00",
"a.	c #54A70F",
"b.	c #6DBE12",
"c.	c #348F20",
"d.	c #449806",
"e.	c #E9ECFB",
"f.	c #339011",
"g.	c #348E03",
"h.	c #338F19",
"i.	c #7B7ECB",
"j.	c #E7E6E8",
"k.	c #AEB2EF",
"l.	c #5355A9",
"m.	c #4244A7",
"n.	c #6A6CC1",
"o.	c #9194E0",
"p.	c #A1A4EC",
"q.	c #BABEFB",
"r.	c #BBBFEF",
"s.	c #C2C6F7",
"t.	c #B9BCD6",
"u.	c #DADCF3",
"                                                                                                                                                                                                                                                                                                                                                                                                                                                                                                                                                                                                                                                                                                                                                                                                                                                                                                                                                                                                                                                                                                                                                                                                                                                ",
"                                                                                                                                                                                                                                                                                                                                                                                                                                                                                                                                                                                                                                                                                                                                                                                                                                                                                                                                                                                                                                                                                                                                                                                                                                                ",
"                                                                                                                                                                                                                                                                                                                                                                                                                                                                                                                                                                                                                                                                                                                                                                                                                                                                                                                                                                                                                                                                                                                                                                                                                                                ",
"                                                                                                                                                                                                                                                                                                                                                                                                                                                                                                                                                                                                                                                                                                                                                                                                                                                                                                                                                                                                                                                                                                                                                                                                                                                ",
"                                                                                                                                                                                                                                                                                                                                                                                                                                                                                                                                                                                                                                                                                                                                                                                                                                                                                                                                                                                                                                                                                                                                                                                                                                                ",
"                                                                                                                                                                                                                                                                                                                                                                                                                                                                                                                                                                                                                                                                                                                                                                                                                                                                                                                                                                                                                                                                                                                                                                                                                                                ",
"                                                                                                                                                                                                                                                                                                                                                                                                                                                                                                                                                                                                                                                                                                                                                                                                                                                                                                                                                                                                                                                                                                                                                                                                                                                ",
"                                                                                                                                                                                                                                                                                                                                                                                                                                                                                                                                                                                                                                                                                                                                                                                                                                                                                                                                                                                                                                                                                                                                                                                                                                                ",
"                                                                                                                                                                                                                                                                                                                                                                                                                                                                                                                                                                                                                                                                                                                                                                                                                                                                                                                                                                                                                                                                                                                                                                                                                                                ",
"                                                                                                                                                                                                                                                                                                                                                                                                                                                                                                                                                                                                                                                                                                                                                                                                                                                                                                                                                                                                                                                                                                                                                                                                                                                ",
"                                                                                                                                                                                                                                                                                                                                                                                                                                                                                                                                                                                                                                                                                                                                                                                                                                                                                                                                                                                                                                                                                                                                                                                                                                                ",
"                                                                                                                                                                                                                                                                                                                                                                                                                                                                                                                                                                                                                                                                                                                                                                                                                                                                                                                                                                                                                                                                                                                                                                                                                                                ",
"                                                                                                                                                                                                                                                                                                                                                                                                                                                                                                                                                                                                                                                                                                                                                                                                                                                                                                                                                                                                                                                                                                                                                                                                                                                ",
"                                                                                                                                                                                                                                                                                                                                                                                                                                                                                                                                                                                                                                                                                                                                                                                                                                                                                                                                                                                                                                                                                                                                                                                                                                                ",
"                                                                                                                                                                                                                                                                                                                                                                                                                                                                                                                                                                                                                                                                                                                                                                                                                                                                                                                                                                                                                                                                                                                                                                                                                                                ",
"                                                                                                                                                                                                                                                                                                                                                                                                                                                                                                                                                                                                                                                                                                                                                                                                                                                                                                                                                                                                                                                                                                                                                                                                                                                ",
"                                                                                                                                                                                                                                                                                                                                                                                                                                                                                                                                                                                                                                                                                                                                                                                                                                                                                                                                                                                                                                                                                                                                                                                                                                                ",
"                                                                                                                                                                                                                                                                                                                                                                                                                                                                                                                                                                                                                                                                                                                                                                                                                                                                                                                                                                                                                                                                                                                                                                                                                                                ",
"                                                                                                                                                                                                                                                                                                                                                                                                                                                                                                                                                                                                                                                                                                                                                                                                                                                                                                                                                                                                                                                                                                                                                                                                                                                ",
"                                                                                                                                                                                                                                                                                                                                                                                                                                                                                                                                                                                                                                                                                                                                                                                                                                                                                                                                                                                                                                                                                                                                                                                                                                                ",
"                                                                                                                                                                                                                                                                                                                                                                                                                                                                                                                                                                                                                                                                                                                                                                                                                                                                                                                                                                                                                                                                                                                                                                                                                                                ",
"                                                                                                                                                                                                                                                                                                                                                                                                                                                                                                                                                                                                                                                                                                                                                                                                                                                                                                                                                                                                                                                                                                                                                                                                                                                ",
"                                                                                                                                                                                                                                                                                                                                                                                                                                                                                                                                                                                                                                                                                                                                                                                                                                                                                                                                                                                                                                                                                                                                                                                                                                                ",
"                                                                                                                                                                                                                                                                                                                                                                                                                                                                                                                                                                                                                                                                                                                                                                                                                                                                                                                                                                                                                                                                                                                                                                                                                                                ",
"                                                                                                                                                                                                                                                                                                                                                                                                                                                                                                                                                                                                                                                                                                                                                                                                                                                                                                                                                                                                                                                                                                                                                                                                                                                ",
"                                                                                                                                                                                                                                                                                                                                                                                                                                                                                                                                                                                                                                                                                                                                                                                                                                                                                                                                                                                                                                                                                                                                                                                                                                                ",
"                                                                                                                                                                                                                                                                                                                                                                                                                                                                                                                                                                                                                                                                                                                                                                                                                                                                                                                                                                                                                                                                                                                                                                                                                                                ",
"                                                                                                                                                                                                                                                                                                                                                                                                                                                                                                                                                                                                                                                                                                                                                                                                                                                                                                                                                                                                                                                                                                                                                                                                                                                ",
"                                                                                                                                                                                                                                                                                                                                                                                                                                                                                                                                                                                                                                                                                                                                                                                                                                                                                                                                                                                                                                                                                                                                                                                                                                                ",
"                                                                                                                                                                                                                                                                                                                                                                                                                                                                                                                                                                                                                                                                                                                                                                                                                                                                                                                                                                                                                                                                                                                                                                                                                                                ",
"                                                                                                                                                                                                                                                                                                                                                                                                                                                                                                                                                                                                                                                                                                                                                                                                                                                                                                                                                                                                                                                                                                                                                                                                                                                ",
"                                                                                                                                                                                                                                                                                                                                                                                                                                                                                                                                                                                                                                                                                                                                                                                                                                                                                                                                                                                                                                                                                                                                                                                                                                                ",
"                                                                                                                                                                                                                                                                                                                                                                                                                                                                                                                                                                                                                                                                                                                                                                                                                                                                                                                                                                                                                                                                                                                                                                                                                                                ",
"                                                                                                                                                                                                                                                                                                                                                                                                                                                                                                                                                                                                                                                                                                                                                                                                                                                                                                                                                                                                                                                                                                                                                                                                                                                ",
"                                                                                                                                                                                                                                                                                                                                                                                                                                                                                                                                                                                                                                                                                                                                                                                                                                                                                                                                                                                                                                                                                                                                                                                                                                                ",
"                                                                                                                                                                                                                                                                                                                                                                                                                                                                                                                                                                                                                                                                                                                                                                                                                                                                                                                                                                                                                                                                                                                                                                                                                                                ",
"                                                                                                                                                                                                                                                                                                                                                                                                                                                                                                                                                                                                                                                                                                                                                                                                                                                                                                                                                                                                                                                                                                                                                                                                                                                ",
"                                                                                                                                                                                                                                                                                                                                                                                                                                                                                                                                                                                                                                                                                                                                                                                                                                                                                                                                                                                                                                                                                                                                                                                                                                                ",
"                                                                                                                                                                                                                                                                                                                                                                                                                                                                                                                                                                                                                                                                                                                                                                                                                                                                                                                                                                                                                                                                                                                                                                                                                                                ",
"                                                                                                                                                                                                                                                                                                                                                                                                                                                                                                                                                                                                                                                                                                                                                                                                                                                                                                                                                                                                                                                                                                                                                                                                                                                ",
"                                                                                                                                                                                                                                                                                                                                                                                                                                                                                                                                                                                                                                                                                                                                                                                                                                                                                                                                                                                                                                                                                                                                                                                                                                                ",
"                                                                                                                                                                                                                                                                                                                                                                                                                                                                                                                                                                                                                                                                                                                                                                                                                                                                                                                                                                                                                                                                                                                                                                                                                                                ",
"                                                                                                                                                                                                                                                                                                                                                                                                                                                                                                                                                                                                                                                                                                                                                                                                                                                                                                                                                                                                                                                                                                                                                                                                                                                ",
"                                                                                                                                                                                                                                                                                                                                                                                                                                                                                                                                                                                                                                                                                                                                                                                                                                                                                                                                                                                                                                                                                                                                                                                                                                                ",
"                                                                                                                                                                                                                                                                                                                                                                                                                                                                                                                                                                                                                                                                                                                                                                                                                                                                                                                                                                                                                                                                                                                                                                                                                                                ",
"                                                                                                                                                                                                                                                                                                                                                                                                                                                                                                                                                                                                                                                                                                                                                                                                                                                                                                                                                                                                                                                                                                                                                                                                                                                ",
"                                                                                                                                                                                                                                                                                                                                                                                                                                                                                                                                                                                                                                                                                                                                                                                                                                                                                                                                                                                                                                                                                                                                                                                                                                                ",
"                                                                                                                                                                                                                                                                                                                                                                                                                                                                                                                                                                                                                                                                                                                                                                                                                                                                                                                                                                                                                                                                                                                                                                                                                                                ",
"                                                                                                                                                                                                                                                                                                                                                                                                                                                                                                                                                                                                                                                                                                                                                                                                                                                                                                                                                                                                                                                                                                                                                                                                                                                ",
"                                                                                                                                                                                                                                                                                                                                                                                                                                                                                                                                                                                                                                                                                                                                                                                                                                                                                                                                                                                                                                                                                                                                                                                                                                                ",
"                                                                                                                                                                                                                                                                                                                                                                                                                                                                                                                                                                                                                                                                                                                                                                                                                                                                                                                                                                                                                                                                                                                                                                                                                                                ",
"                                                                                                                                                                                                                                                                                                                                                                                                                                                                                                                                                                                                                                                                                                                                                                                                                                                                                                                                                                                                                                                                                                                                                                                                                                                ",
"                                                                                                                                                                                                                                                                                                                                                                                                                                                                                                                                                                                                                                                                                                                                                                                                                                                                                                                                                                                                                                                                                                                                                                                                                                                ",
"                                                                                                                                                                                                                                                                                                                                                                                                                                                                                                                                                                                                                                                                                                                                                                                                                                                                                                                                                                                                                                                                                                                                                                                                                                                ",
"                                                                                                                                                                                                                                                                                                                                                                                                                                                                                                                                                                                                                                                                                                                                                                                                                                                                                                                                                                                                                                                                                                                                                                                                                                                ",
"                                                                                                                                                                                                                                                                                                                                                                                                                                                                                                                                                                                                                                                                                                                                                                                                                                                                                                                                                                                                                                                                                                                                                                                                                                                ",
"                                                                                                                                                                                                                                                                                                                                                                                                                                                                                                                                                                                                                                                                                                                                                                                                                                                                                                                                                                                                                                                                                                                                                                                                                                                ",
"                                                                                                                                                                                                                                                                                                                                                                                                                                                                                                                                                                                                                                                                                                                                                                                                                                                                                                                                                                                                                                                                                                                                                                                                                                                ",
"                                                                                                                                                                                                                                                                                                                                                                                                                                                                                                                                                                                                                                                                                                                                                                                                                                                                                                                                                                                                                                                                                                                                                                                                                                                ",
"                                                                                                                                                                                                                                                                                                                                                                                                                                                                                                                                                                                                                                                                                                                                                                                                                                                                                                                                                                                                                                                                                                                                                                                                                                                ",
"                                                                                                                                                                                                                                                                                                                                                                                                                                                                                                                                                                                                                                                                                                                                                                                                                                                                                                                                                                                                                                                                                                                                                                                                                                                ",
"                                                                                                                                                                                                                                                                                                                                                                                                                                                                                                                                                                                                                                                                                                                                                                                                                                                                                                                                                                                                                                                                                                                                                                                                                                                ",
"                                                                                                                                                                                                                                                                                                                                                                                                                                                                                                                                                                                                                                                                                                                                                                                                                                                                                                                                                                                                                                                                                                                                                                                                                                                ",
"                                                                                                                                                                                                                                                                                                                                                                                                                                                                                                                                                                                                                                                                                                                                                                                                                                                                                                                                                                                                                                                                                                                                                                                                                                                ",
"                                                                                                                                                                                                                                                                                                                                                                                                                                                                                                                                                                                                                                                                                                                                                                                                                                                                                                                                                                                                                                                                                                                                                                                                                                                ",
"                                                                                                                                                                                                                                                                                                                                                                                                                                                                                                                                                                                                                                                                                                                                                                                                                                                                                                                                                                                                                                                                                                                                                                                                                                                ",
"                                                                                                                                                                                                                                                                                                                                                                                                                                                                                                                                                                                                                                                                                                                                                                                                                                                                                                                                                                                                                                                                                                                                                                                                                                                ",
"                                                                                                                                                                                                                                                                                                                                                                                                                                                                                                                                                                                                                                                                                                                                                                                                                                                                                                                                                                                                                                                                                                                                                                                                                                                ",
"                                                                                                                                                                                                                                                                                                                                                                                                                                                                                                                                                                                                                                                                                                                                                                                                                                                                                                                                                                                                                                                                                                                                                                                                                                                ",
"                                                                                                                                                                                                                                                                                                                                                                                                                                                                                                                                                                                                                                                                                                                                                                                                                                                                                                                                                                                                                                                                                                                                                                                                                                                ",
"                                                                                                                                                                                                                                                                                                                                                                                                                                                                                                                                                                                                                                                                                                                                                                                                                                                                                                                                                                                                                                                                                                                                                                                                                                                ",
"                                                                                                                                                                                                                                                                                                                                                                                                                                                                                                                                                                                                                                                                                                                                                                                                                                                                                                                                                                                                                                                                                                                                                                                                                                                ",
"                                                                                                                                                                                                                                                                                                                                                                                                                                                                                                                                                                                                                                                                                                                                                                                                                                                                                                                                                                                                                                                                                                                                                                                                                                                ",
"                                                                                                                                                                                                                                                                                                                                                                                                                                                                                                                                                                                                                                                                                                                                                                                                                                                                                                                                                                                                                                                                                                                                                                                                                                                ",
"                                                                                                                                                                                                                                                                                                                                                                                                                                                                                                                                                                                                                                                                                                                                                                                                                                                                                                                                                                                                                                                                                                                                                                                                                                                ",
"                                                                                                                                                                                                                                                                                                                                                                                                                                                                                                                                                                                                                                                                                                                                                                                                                                                                                                                                                                                                                                                                                                                                                                                                                                                ",
"                                                                                                                                                                                                                                                                                                                                                                                                                                                                                                                                                                                                                                                                                                                                                                                                                                                                                                                                                                                                                                                                                                                                                                                                                                                ",
"                                                                                                                                                                                                                                                                                                                                                                                                                                                                                                                                                                                                                                                                                                                                                                                                                                                                                                                                                                                                                                                                                                                                                                                                                                                ",
"                                                                                                                                                                                                                                                                                                                                                                                                                                                                                                                                                                                                                                                                                                                                                                                                                                                                                                                                                                                                                                                                                                                                                                                                                                                ",
"                                                                                                                                                                                                                                                                                                                                                                                                                                                                                                                                                                                                                                                                                                                                                                                                                                                                                                                                                                                                                                                                                                                                                                                                                                                ",
"                                                                                                                                                                                                                                                                                                                                                                                                                                                                                                                                                                                                                                                                                                                                                                                                                                                                                                                                                                                                                                                                                                                                                                                                                                                ",
"                                                                                                                                                                                                                                                                                                                                                                                                                                                                                                                                                                                                                                                                                                                                                                                                                                                                                                                                                                                                                                                                                                                                                                                                                                                ",
"                                                                                                                                                                                                                                                                                                                                                                                                                                                                                                                                                                                                                                                                                                                                                                                                                                                                                                                                                                                                                                                                                                                                                                                                                                                ",
"                                                                                                                                                                                                                                                                                                                                                                                                                                                                                                                                                                                                                                                                                                                                                                                                                                                                                                                                                                                                                                                                                                                                                                                                                                                ",
"                                                                                                                                                                                                                                                                                                                                                                                                                                                                                                                                                                                                                                                                                                                                                                                                                                                                                                                                                                                                                                                                                                                                                                                                                                                ",
"                                                                                                                                                                                                                                                                                                                                                                                                                                                                                                                                                                                                                                                                                                                                                                                                                                                                                                                                                                                                                                                                                                                                                                                                                                                ",
"                                                                                                                                                                                                                                                                                                                                                                                                                                                                                                                                                                                                                                                                                                                                                                                                                                                                                                                                                                                                                                                                                                                                                                                                                                                ",
"                                                                                                                                                                                                                                                                                                                                                                                                                                                                                                                                                                                                                                                                                                                                                                                                                                                                                                                                                                                                                                                                                                                                                                                                                                                ",
"                                                                                                                                                                                                                                                                                                                                                                                                                                                                                                                                                                                                                                                                                                                                                                                                                                                                                                                                                                                                                                                                                                                                                                                                                                                ",
"                                                                                                                                                                                                                                                                                                                                                                                                                                                                                                                                                                                                                                                                                                                                                                                                                                                                                                                                                                                                                                                                                                                                                                                                                                                ",
"                                                                                                                                                                                                                                                                                                                                                                                                                                                                                                                                                                                                                                                                                                                                                                                                                                                                                                                                                                                                                                                                                                                                                                                                                                                ",
"                                                                                                                                                                                                                                                                                                                                                                                                                                                                                                                                                                                                                                                                                                                                                                                                                                                                                                                                                                                                                                                                                                                                                                                                                                                ",
"                                                                                                                                                                                                                                                                                                                                                                                                                                                                                                                                                                                                                                                                                                                                                                                                                                                                                                                                                                                                                                                                                                                                                                                                                                                ",
"                                                                                                                                                                                                                                                                                                                                                                                                                                                                                                                                                                                                                                                                                                                                                                                                                                                                                                                                                                                                                                                                                                                                                                                                                                                ",
"                                                                                                                                                                                                                                                                                                                                                                                                                                                                                                                                                                                                                                                                                                                                                                                                                                                                                                                                                                                                                                                                                                                                                                                                                                                ",
"                                                                                                                                                                                                                                                                                                                                                                                                                                                                                                                                                                                                                                                                                                                                                                                                                                                                                                                                                                                                                                                                                                                                                                                                                                                ",
"                                                                                                                                                                                                                                                                                                                                                                                                                                                                                                                                                                                                                                                                                                                                                                                                                                                                                                                                                                                                                                                                                                                                                                                                                                                ",
"                                                                                                                                                                                                                                                                                                                                                                                                                                                                                                                                                                                                                                                                                                                                                                                                                                                                                                                                                                                                                                                                                                                                                                                                                                                ",
"                                                                                                                                                                                                                                                                                                                                                                                                                                                                                                                                                                                                                                                                                                                                                                                                                                                                                                                                                                                                                                                                                                                                                                                                                                                ",
"                                                                                                                                                                                                                                                                                                                                                                                                                                                                                                                                                                                                                                                                                                                                                                                                                                                                                                                                                                                                                                                                                                                                                                                                                                                ",
"                                                                                                                                                                                                                                                                                                                                                                                                                                                                                                                                                                                                                                                                                                                                                                                                                                                                                                                                                                                                                                                                                                                                                                                                                                                ",
"                                                                                                                                                                                                                                                                                                                                                                                                                                                                                                                                                                                                                                                                                                                                                                                                                                                                                                                                                                                                                                                                                                                                                                                                                                                ",
"                                                                                                                                                                                                                                                                                                                                                                                                                                                                                                                                                                                                                                                                                                                                                                                                                                                                                                                                                                                                                                                                                                                                                                                                                                                ",
"                                                                                                                                                                                                                                                                                                                                                                                                                                                                                                                                                                                                                                                                                                                                                                                                                                                                                                                                                                                                                                                                                                                                                                                                                                                ",
"                                                                                                                                                                                                                                                                                                                                                                                                                                                                                                                                                                                                                                                                                                                                                                                                                                                                                                                                                                                                                                                                                                                                                                                                                                                ",
"                                                                                                                                                                                                                                                                                                                                                                                                                                                                                                                                                                                                                                                                                                                                                                                                                                                                                                                                                                                                                                                                                                                                                                                                                                                ",
"                                                                                                                                                                                                                                                                                                                                                                                                                                                                                                                                                                                                                                                                                                                                                                                                                                                                                                                                                                                                                                                                                                                                                                                                                                                ",
"                                                                                                                                                                                                                                                                                                                                                                                                                                                                                                                                                                                                                                                                                                                                                                                                                                                                                                                                                                                                                                                                                                                                                                                                                                                ",
"                                                                                                                                                                                                                                                                                                                                                                                                                                                                                                                                              . .               . . . .   . . .             .                           . . . . .                                                                                                                                                                                                                                                                                                                                                                                                                                                                                                                                                                                                               ",
"                                                                                                                                                                                                                                                                                                                                                                                                                                                    + + + @ @ @ # @       $ $ $ $ $ $       . .     + +   . % % + + @ @ @         $   . % % . . + . $ & $ & $ * = = = # # # # = = # @ @ @ @ # * @ *   $                   * * * @ + + - = @ - % @ @ @ @ % % % % $ $           $ $ $ $ $   $ $ $   . . .       $ $ $   @ - +     $ $ $ $ $     .                                                                                                                                                                                                                                                                                                                                                                                                                                                                                                 ",
"                                                                                                                                                                                                                                                                                                                                                                                                                                                    .       + @ @ @                             @ + % % + @ . . . % % % % + . .         @ # # ; > ; ; ; , ' ) ! ! ~ ~ { { { ] { { { { { { ~ { ~ { ~ ~ ~ ! ~ ! ! ! ! ! ! ! ! ! ' ! ' ! ' ' ' ^ ' > , , > # ; ; ; = # = = = = *     $ $ $ $ . %   $ $ $ $ $   . . . . . + +       $ $ $                                                                                                                                                                                                                                                                                                                                                                                                                                                                                                           ",
"                                                                                                                                                                                                                                                                                                                                                                                                                                                            $ $ $ $ $   @ # # # # - +     $ $ . - # @ @ @       $ $ $ $   # = * = = = = # > ! / ~ ~ ] ] ] ( ( _ : < [ [ } } } } } } } | | | | | [ | [ [ < | | | [ [ < [ : : : _ _ _ _ : _ _ _ _ ( 1 1 ] ] { { { / ~ 2 ! ' ' > > > # # = = = ; = @ . .   $ $   + # # -     $       . % + +   @ *                                                                                                                                                                                                                                                                                                                                                                                                                                                                                                 ",
"                                                                                                                                                                                                                                                                                                                                                                                                                                                          $ $ $ & $ $ $   + - # , # # -       $ $   + +     + @ @ = = = ; ; ' ! ~ ~ { ] 1 ( ( : < | | 3 3 | | } } 4 4 5 5 6 6 7 8 8 9 9 9 0 0 a a 5 5 a a a 5 0 9 9 6 6 6 6 6 b 6 b 6 6 c 6 c c c c c [ c [ [ : : : : _ ( ( 1 1 ] ] { ~ ~ / 2 ' > ; # + % %   + - - - $ $     + - - - - +   $ $ $                                                                                                                                                                                                                                                                                                                                                                                                                                                                                               ",
"                                                                                                                                                                                                                                                                                                                                                                                                                                        $ $ $                 $ $ $               + + - - - -       * @ = # ; > ! ! ~ { ] 1 ( _ : | 4 0 7 b d b e e e 9 9 0 0 9 5 0 d f f 4 f g 6 6 6 6 6 6 g g g g 6 6 6 7 8 8 8 9 6 g 6 6 b 6 } c 6 6 6 6 6 6 c } | 3 | | | 3 3 3 3 4 3 } | } } | | | < : ( 1 { / 2 ; ; = @ . h %   $ $   - - - # - @ $ $ $ $ $                                                                                                                                                                                                                                                                                                                                                                                                                                                                                               ",
"                                                                                                                                                                                                                                                                                                                                                                                                                                        $ $ $     + @ - - - @ +   + - - .   $ & & $ $     + # # # ; ; ' / ~ 1 1 _ : [ [ | | | } } 4 5 0 7 6 g 6 6 6 b e 3 e 4 e 4 b 4 4 4 } b } b b b b b 6 b b 6 6 6 6 7 8 i 9 8 8 8 9 8 d b f b 4 4 6 6 4 c } 3 c e c e i i e 3 4 4 4 f 9 f 9 f 0 9 9 8 3 < | < _ 1 ] ~ 2 > # +     . .     + @ +                                                                                                                                                                                                                                                                                                                                                                                                                                                                                                             ",
"                                                                                                                                                                                                                                                                                                                                                                                                                                        $ $ $     @ # # # # # @ # # , # -     $ & & & $ * # , ' / ~ ] ( _ : [ } 6 g 6 8 9 9 9 d 7 e 8 8 9 9 6 b 6 b 4 e e 3 e 3 e 4 f b d b f b 4 4 b 4 b d d 0 0 9 9 9 9 e f e e b 9 e e e e 8 e c c 4 f f f g b 9 e 8 i i i 8 9 d f f 9 d d 5 b b 7 6 5 3 3 | | 3 | [ : ( { ! ' ; = # @     $ $ $ $                                                                                                                                                                                                                                                                                                                                                                                                                                                                                                           ",
"                                                                                                                                                                                                                                                                                                                                                                                                                                                  + + - - # @ - - - j # - . . . @ = = > ! ~ ] ( [ [ | [ | } } 3 } b 4 4 b d d b 7 9 8 b 8 e 7 b b e 9 9 9 9 0 0 0 5 a 5 g g g f } } } 4 4 4 4 4 f f 5 5 5 } } } } 4 4 4 b 9 9 8 8 8 9 7 6 6 6 6 6 6 g 6 g 5 5 g i i i 9 i 9 9 d f 4 4 4 } } } 3 4 4 e b 3 | [ : 1 { ~ > = # % $ & $ & $   + - # +                                                                                                                                                                                                                                                                                                                                                                                                                                                                                               ",
"                                                                                                                                                                                                                                                                                                                                                                                                                                                      =   % . $   % * * @ - ; ; > ~ { 1 _ [ | } } } } 4 d b 7 b b b 4 3 3 g 6 6 6 6 g 7 9 f } } | | < < : : _ _ ( ( ( 1 1 1 ] ] ] ] { ] ] { ] ] ] ] ] 1 1 1 ( 1 ( ( ( _ : : < < | | } } f f b 3 b b c 6 6 6 6 a e 9 e 9 e e b d b 4 4 c 3 b b 7 9 9 9 7 6 6 } } | [ : ] ~ ' ; ; @     $ $   % + .                                                                                                                                                                                                                                                                                                                                                                                                                                                                                               ",
"                                                                                                                                                                                                                                                                                                                                                                                                                                          + .           $ & $   $ & $ = = ' ~ ] ( : | 4 6 e i e 3 4 3 b 9 8 9 8 c c b b c } c 4 6 4 4 } [ : _ 1 ] ] { ~ ~ ! ! ! ) > > > > ; ; ; = = = = = ; = ; ; = ; = ; = ; ) ) ) ! / ~ ~ ~ { { ] 1 ( _ _ : [ [ | } } } 4 4 4 | | } } 3 3 b b g 6 b c c 7 8 8 9 9 7 7 7 7 b c b e b 4 [ ( { ! > ; = . . $ $ $                                                                                                                                                                                                                                                                                                                                                                                                                                                                                                 ",
"                                                                                                                                                                                                                                                                                                                                                                                                                                          + .         $ . %   = ; # ' ~ ] ( : | 9 c 8 8 i e e 8 8 8 i i i i i e 4 | } | [ : _ ( 1 { { ~ ! ) ' , > > ; # # # @ # - * $ * * @ @ @ $ $ $ * $ $ $ &   . . .       $ $ & & & = = = ; = ; ; k ' ! ! ~ ~ { ] ] 1 ( ( _ : : < [ [ [ | f 5 6 7 8 i i i i i 8 8 6 6 g g 0 0 b 8 8 5 f [ _ 1 ~ ' ; = . % $ $                                                                                                                                                                                                                                                                                                                                                                                                                                                                                               ",
"                                                                                                                                                                                                                                                                                                                                                                                                                                          . . .         # ; ; 2 ~ ] ( : [ } c 6 7 8 8 8 e 3 } e 8 8 i i 9 f } | < _ ( ] { ~ 2 ' > > # = - @ * @ = @ - h + *   $ $               . .         $ $   $   $   $ $ $   $   * * *   * @     & & & & & . * = ; # ' 2 2 ~ ~ { ] ] 1 ( _ : [ [ [ } | } } } b 3 l c 8 8 b b f b i 8 i c 3 | : 1 { ^ > ; * *                                                                                                                                                                                                                                                                                                                                                                                                                                                                                               ",
"                                                                                                                                                                                                                                                                                                                                                                                                                                          .         = , ) ~ 1 ( < } a a g 5 g g a d d d g b b 4 4 } } [ : ( 1 { ~ ' # # # > > > # - % .     . % % + - # j - % % %   +   @ @ # @ % . +   @ @ + % % % .   + h h h - - - # @ @ - @ @ + .           + - - # , j , # ; = ; = ) ; ; ' ) ! ~ ~ { ] 1 ( : | 4 9 9 8 8 9 b f 4 | } b b 9 e | | : ( ] 2 > =                                                                                                                                                                                                                                                                                                                                                                                                                                                                                               ",
"                                                                                                                                                                                                                                                                                                                                                          $ $               + + -   $ $ $ $                 % + + + * $ $ $ $ $ $ $   % % . - # > ! ~ ] 1 m n n o o p q r p n n s c 6 g a g g < ( 1 ] { ! 2 > ; # @   $ *   . h % @ +             = @ + + - + - .       + @ - - % . . . % % . + + . .   + = # # - - - % h h % % + + +     % . . + + + % - - - +         * $ $ * + % * * = ; ' 2 { ] ( : | } f b 9 8 e } } 4 f 9 8 8 9 4 | < _ ] / > ; @       @ @ @ + + .                                                                                                                                                                                                                                                                                                                                                                                                                                                                       ",
"                                                                                                                                                                                                                                                                                                                                                        $ $ $             + - # #   $ & $ $ $       . . +   + - h % +   $ $     . @ @ # # j ' / { t u v w x y z A A z B B y y A w w v u C D E ] ~ ! > > > ; ; j - * * $ $ * = % - @ +   $ $ $   % %   $   . % . .   $ $   + - -                           .         .           .                               .   .   . . . .   . . + + @ # # ; > ! ~ ] ( < | } e 7 b b b 3 3 f e 9 9 9 d 3 | : ] ~ ; = * % % - # # - .                                                                                                                                                                                                                                                                                                                                                                                                                                                                       ",
"                                                                                                                                                                                                                                                                                                                                                        + +         $ $     + + - - - - + +   $       . % + @ @ .       . + j # , , ^ 2 t t F G G H I I J K K J J L B M B N O L L P Q R Q I Q S T U F t t ) ^ # # @ % % h ^ # +   $ & $   . . . .         + + +     $ $   . + +                                                                                   .   .   .   . .         $ $     @ = ; ' / { 1 : < | e 7 4 3 } } c 5 9 9 9 9 0 } | _ 1 ~ > ; - - j - = +         . . .                                                                                                                                                                                                                                                                                                                                                                                                                                                         ",
"                                                                                                                                                                                                                                                                                                                                                        # - - - +     $ $         - , j # # @ @ + % % + % %     $ $   j , > > ' k V W U X I H I J Y Y Z Z `  .M J L  ...+...@.#.#.@.Y Y $.z B B B %.I T X U &.V k ) , # # # =     .     . % % % .         @ @ @ @           .                                                                                   .   .   .   .               $     + h # # > ' 2 ~ ] ( [ } } } 3 b g d f 4 f a 0 9 9 5 } _ ] ~ > > # # + $ $       . . . +                                                                                                                                                                                                                                                                                                                                                                                                                                                       ",
"                                                                                                                                                                                                                                                                                                                                                        - - - - - + +               % - - - # # # j h @ *   $   $ . j ' k t F U T T I I J z K z Y #.*.Z ` Y +.N B M ..=.#.` #.-.#.` #.#.=.=.@.$.$.N B ;.J I I T X U >./ ) ) $ + - j # @ % .     % + % . + + - - - - +                                                                                                                     $ $   $ & $ % $ * = = ; , ' { 1 [ f 7 8 5 4 b b 6 g 9 8 i c f } < : ] ~ ; # . $ *     . . + + + +                                                                                                                                                                                                                                                                                                                                                                                                                                                     ",
"                                                                                                                                                                                                                                                                                                                                                          .   . + - + % + +         + + + + - - @ - % + % % % ) k ,.>.W X '.S R ;.B #.*.Y ).Y Y =. ...+...+. .=. .).M N +.+...@.-.-.#.!.!.` !.*.` *.Y *.Y Y z K J S '.T U >./ ! , , , h % .     + % . . . . + - - - - % .   $ $                                                                                                               .   $ $       * + % . = = ) ~ ( : } b d 6 6 6 6 7 8 7 d b e f } | ( { ! = * %   .       + + + . .     $                                                                                                                                                                                                                                                                                                                                                                                                                                           ",
"                                                                                                                                                                                                                                                                                                                                                        & & & $ $   . + - - % + + @ @ +               @ h ^ k >.~.T R I P O O M B ).=.` ` Y Y N M K B M M ..=.=.#.-.O O M M M )...+...-.` -.` ` !.Y  .z B z N B B +.M K J S T W V ' h j - - - + .         $ $   + - - - + $ & $                                                                                                           % - @ @ . .   . . . $ *   % $ = = ; ~ 1 : 6 8 i 8 9 6 } | 3 3 c 9 9 b 4 < 1 ~ = # %           . % % % .   $                                                                                                                                                                                                                                                                                                                                                                                                                                           ",
"                                                                                                                                                                                                                                                                                                                                                        $ & $ $ $ $       +         .   & & $     - ^ / >.U X R Q {.P O N $.=.=.=. .+.B z B B B  . ... .#.#.` #.!.` @.+.+.).N N )...N N ).+...+.+...B M N N ).+. .N N N B K {.I S ~.F t ) @           & & & $     + - - +   $ $                                                                                                           - @ # = @     $ $ $   % . @ @ %   & * # / 1 < 4 b 4 } 3 } b b b b b c d 4 < ( { > =     $       . % % . .                                                                                                                                                                                                                                                                                                                                                                                                                                             ",
"                                                                                                                                                                                                                                                                                                                                                        . .   $ $ $ $       $ $ & $     $   % @ ) ,.W '.S J M L O O O N ).N $.@.@.@.+.+.B ). .Y *.*.*.*.` *.*.!.#.-.-.#.-.=.=.Y ..N ).N N M M )...+.).)... . .#.=.+.N K O M N  .N L I X U t )   $   *     & & & &   + - -                                                                                                                 + @ @ + +                 + - .   * $   # ' / ( : | | } 8 7 6 6 f c 4 f } } | : ] ' = @ % * + .     . + - -                                                                                                                                                                                                                                                                                                                                                                                                                                           ",
"                                                                                                                                                                                                                                                                                                                                                      . j j j +   $ $ &   %     . . % h - ) ,.>.~.S I ;. .-.@.M z Y ` ` ` =.$.).$.=.#.!.*.`  . .+.B M ).N N M M M N @.=.@...).N N ..=.@.+.+.=.` ` #.@.....@.#.` #.Y Y z B Y Y ..Y Y Y B J T U V ) h , , - $ $ $ & $ @ - @ +                                                                                                                                           . % - - - + + @ ; ; ~ 1 : 3 9 a b l i i c f | | 6 i c ] ! ; ; j =     $   . - - +                                                                                                                                                                                                                                                                                                                                                                                                                                         ",
"                                                                                                                                                                                                                                                                                                                                                      + , ^ , -   $     . @ # j j ^ 2 ,.&.U X R P z ` *.` #.#.z Y Y *.*.Z *...).N N N ).L {.Q Q ].^.].^.^.^.^.^.^.^.^.^.^.^.].^.R R {.{.{.{.L N ...... ...@.#.!.` #.Y Y Y Y Y -.@.#.Z *.*.K S '.U V ' ' > j @ & +   + @ + .                                                                                                                 $ $ $ $                     . - # , - +     # ; ' ~ ( [ | b i i i i 3 4 b c i 6 [ 1 2 > > j % $ $ $   % - %                                                                                                                                                                                                                                                                                                                                                                                                                                         ",
"                                                                                                                                                                                                                                                                                                                                                        j # -         = , ^ ^ ' ' V U '.S {.M ` ` =.+.B K z z =.@.-.!.*.*.` -.M L {.R ].^././.(.(._.:._.:.<.<.<.<.<.[._.:._.}._.(.(.|.|./.^.^.^.Q {.{.P K K  .#.!.`  .).+.B B Y Y N +.+.z K K J I ].U V ' > j h * . + @ +                                                                                                                   $ $ $                     . . . % . - - # # = @ - = , { ( [ e i i e e b 7 7 6 c | [ ( ~ > ; - $ $ $   % % .                                                                                                                                                                                                                                                                                                                                                                                                                                         ",
"                                                                                                                                                                                                                                                                                                                                                            $ $ $   . j , k V F X ^.R Q O =.` -.` @.N N z B B  ...=.=.).M L Q ^.^./.|.(._.<.<.<.<.<.[.[.[.1.2.2.2.2.2.3.3.[.<.<.<.<.<.4.4.4._._.(.|./.^.S {.L N @.#.=.).+. .M N +... . . . .+.+.M K R '.F t ^ # h . + +     $ $                                                                                                                                       . .         . + # + +   % = ; ! ] : | 3 4 9 7 c 4 b b l e | _ { k ; . .                                                                                                                                                                                                                                                                                                                                                                                                                                                   ",
"                                                                                                                                                                                                                                                                                                            $ $       + + + .                           $ $ $   . j , k V ~.'.I K z !.-.-.=.+. . .......).+.$.N O O L {.].5./.(.}.}.:.[.[.2.2.3.3.6.3.3.3.2.2.2.2.2.2.2.2.2.2.2.1.3.3.3.3.[.[.[.[.<.<.7.8.5.5.].{.L O M N @.=.N M ..Y Y ` Y -.Y N $.#.y I X >.2 , - +     $ $   .       $                                                                                                   + + + @ @ @ @ @             .             + + %   * % h ; > ~ 1 : | f 6 4 4 3 e i i e 3 : { ' - . . .   +                                                                                                                                                                                                                                                                                                                                                                                                                                           ",
"                                                                                                                                                                                                                                                                                                  $ $ $ $ & & $ $   + - j j +   . . .   . . .   * @ - @ $   % , > V W X S R ;.z z *.*.!.#.-.#.#.Y +.). . .@.+.L Q ]././.(.(.}.:.<.3.3.9.1.2.2.2.2.2.0.0.0.0.2.2.2.2.2.2.2.2.2.2.2.2.2.2.2.2.2.1.9.3.[.<.<.<.7.7.(.5.Q Q M ..@.).M @.*.!.` Y M M $.M ).).K J S U t , . & $   * @ - -   $ $ $ $ $ $ $   + -                                                                                                                                         + . + = > ~ _ [ b 6 7 e e e 3 3 b 7 c 1 ) &     + , - . * * # - -     $ $   # #                                                                                                                                                                                                                                                                                                                                                                                                               ",
"                                                                                                                                                                                                                                                                                                          $           + + + % %   $     @ = = - % % . * h ^ k V U '.S P K ` *.Y $.=.-.=.-.#.#.=.*.` ..N O L ].^./.|.(.}.a.:.3.2.1.9.9.0.1.2.2.2.2.0.0.0.2.0.2.6.2.2.2.2.2.2.2.2.2.2.2.2.2.2.2.2.2.6.2.6.2.1.6.[.<.4.8.|.^.].{.L  .*.#.#.Y ..+.O M ).M M !.*.).I '.&.! % $ .   - % . .     $ $ & $ $   + -                                                                                                                                       % + $   * # , 2 1 < | 5 8 e e 3 3 8 6 6 c 1 ) = @ j # .   % - j j =   $ $ $   - -                                                                                                                                                                                                                                                                                                                                                                                                               ",
"                                                                                                                                                                                                                                                                                                  % - - - , , , j @ $ & & &   - # @ + + @ j j , = @   % ,.F ~.S I B  .#.Z Z ` +.O O O O M ).=.` #.-...L ^./.|.(.}.}.:.:.3.1.1.1.0.0.0.9.2.2.2.2.0.0.0.0.0.0.2.0.2.0.2.2.2.2.2.0.2.0.2.0.2.0.2.0.0.0.2.6.6.2.9.0.b.3.<.<.7.(.^.].L M M K O N *.` -.$.B B !.!. .K I S U t ) = +   $   % % - %   $ $ $ $   +                                                                                                                                       % @ * . .   @ ; ' ~ _ | 4 i f 5 a 6 c b } [ _ ~ ; # - & & * j j h . $ $ $ @ + . .                                                                                                                                                                                                                                                                                                                                                                                                               ",
"                                                                                                                                                                                                                                                                                                  @ - # j - - - - +   $ & & * # , # @     + @ = ^ / >.W T S I J z *.Z Z Z ` ).).).).).).B M O M O Q ]./.|.}.c.a.:.9.1.1.9.6.0.0.0.1.1.0.2.0.0.0.0.0.0.0.0.0.0.0.0.2.0.0.0.0.0.0.0.2.0.0.0.0.0.1.9.2.6.3.[.6.0.1.9.9.9.9.1.<.7.(.^.R P N +.+.` !.*.#.Y #.` ` Y z B K %.X >.! - $ & $   j j j - $ $ $ $                                                                                                                                           % .       $ + % ; > ~ 1 < | 4 c g 0 e 3 3 3 | : { ; @   $   % -   . $   = # @                                                                                                                                                                                                                                                                                                                                                                                                                   ",
"                                                                                                                                                                                                                                                                                                  $ $     .       . . .   $ @ # # =   % h % % k >.~.S R ).#.B K $.#.` Z ` ..)...@.-.#...O P Q ].^./.(.c.d.a.:.1.9.9.9.9.9.1.1.9.3.[.3.[.6.2.0.0.0.0.0.0.0.0.0.2.0.0.0.2.0.2.0.2.0.0.0.2.0.0.0.0.9.2.3.[.[.[.6.0.9.9.1.1.1.3.3.<.7.|.].L N -.#.=.#.` ` !.*.Y  .O K Y Z K T >.k h $ $   - j j j . $ $ $                                                                                                                                           .     + * *   * h # ; 2 ] : | 6 6 7 8 3 3 e.i 8 [ 1 ' = * + %   &     @ # @   $ $                                                                                                                                                                                                                                                                                                                                                                                                               ",
"                                                                                                                                                                                                                                                                                                  $ $ $ $ $ $ $         @ @ @ + %   h h ; V F X S {.O ).@.$.N $.L O z ..@.-.=.N M M N O L ].5./.}.}.a.a.b.9.9.6.9.1.1.9.9.9.3.[.b.[.b.3.3.0.0.0.0.0.0.0.0.0.0.0.2.0.2.0.0.0.0.0.0.0.2.0.0.0.0.0.0.2.3.3.[.3.2.2.0.1.9.9.6.0.1.1.3.4.8.^.{.M  .).+.=.#.#.#.Y B M B B ). .I '.F 2 -   +   . h % +                                                                                                                                                 $ $   . % % %   * - > > ^ { : } 0 i i 3 3 3 e 7 c [ 1 2 > =   $ &     + .     $ $                                                                                                                                                                                                                                                                                                                                                                                                               ",
"                                                                                                                                                                                                                                                                                                    $ & $       $   $ $   .   % h ) k >.U '.R {.M @.-.-.=.).M M M ;.O B ..` =.M L P Q ].5./.(.}.a.6.6.3.9.9.6.3.b.6.6.1.3.6.3.[.[.3.6.2.2.0.0.0.0.0.0.0.0.0.0.0.0.0.0.0.2.0.2.0.2.0.0.0.2.0.0.0.0.2.3.2.2.6.2.2.1.0.b.[.[.1.0.2.2.3.<.7./.^.{.L +.` @.N +.Y  .B M O O M z P S U k ^ # % $ &   + - - +                                                                                                                                           $     % h - @ + %     - # > { : } i i 3 3 3 e i 8 b | ( ~ ' = * $ $ $       $ $                                                                                                                                                                                                                                                                                                                                                                                                                 ",
"                                                                                                                                                                                                                                                                                                        . + + . =         h h j ,.>.X S J B M M N +.#.` ` #.Y  .B B B ).+...M L Q ]./.(.}.d.a.:.[.[.6.9.6.9.9.0.3.0.0.0.0.0.2.6.2.2.2.9.9.0.0.0.0.0.0.0.0.0.0.0.0.0.2.0.0.2.0.0.0.0.2.0.0.0.0.2.3.3.6.2.2.2.9.9.0.2.2.3.3.0.0.2.3.2.2.2.[._.^.{.).).N M M N  .*.` $.N M ).B {.R U t > h & & $ % j j -                                                                                                                                           + +   . . . . @ @ @ $ $ . = ' { : | d b c b 0 8 i 7 c 3 _ { > = . $ * &     &   %                                                                                                                                                                                                                                                                                                                                                                                                               ",
"                                                                                                                                                                                                                                                                                                  + - - @ * + h + - # , ) ' V U '.S R B ` *.!.#.-.@...@.!.*.` $.$.` Z #.O {.].5.5.(.}.}.:.b.9.9.6.0.0.3.0.2.2.0.2.2.2.2.0.0.0.0.0.0.9.9.0.2.0.0.0.0.0.0.0.0.0.0.0.0.0.0.2.0.0.2.0.2.0.0.0.0.0.2.6.2.2.0.0.9.1.9.9.2.0.2.2.0.0.3.3.2.2.2.2.<.7.|.R {.z M N -.@.=.` ` !.*.-.).B J R X k >   & &   j , j   $                                                                                                                                       # , # %         @ @   $ $   # > ~ _ | c c 6 7 8 e 4 f 3 3 : ] ' ; . . $ & $ $                                                                                                                                                                                                                                                                                                                                                                                                                   ",
"                                                                                                                                                                                                                                                                                                . # # - % .   * h ^ ' ,.W X S Q {.K z Y #.!.Z *.` =.N N =.=. .=.#.=.M O ].5.(.(.}.}.:.:.b.9.9.9.9.0.2.3.3.2.2.2.2.2.2.2.0.0.2.0.0.0.0.9.0.0.0.0.0.0.0.0.0.0.0.0.0.0.2.0.0.0.2.0.0.0.0.0.0.0.0.0.0.0.0.0.0.0.0.0.0.0.0.0.0.0.2.b.3.0.2.2.2.2.3.4.8.5.{.;.)...=.$.N !.Z Z ` N ).=.O S X k , @ $ $ + - - +                                                                                                                                       @ , > #   $ $ $     + +   $ * @ > ' ~ ( } 6 7 i 8 b } | 3 3 3 [ 1 2 ; = + h h   & $                                                                                                                                                                                                                                                                                                                                                                                                               ",
"                                                                                                                                                                                                                                                                                                . j j j # # h j 2 t U T ].I L Y ` Y Y  .` !.#.` #.@.).M M N ).M L ].^./.}.c.c.}.:.[.[.[.b.9.9.9.9.9.9.2.2.2.2.2.2.2.2.2.2.2.3.[.3.3.0.0.2.0.0.0.0.0.0.0.0.0.0.0.0.0.0.2.0.0.0.1.0.2.0.2.0.0.0.0.0.0.1.0.0.3.3.[.3.3.2.0.0.0.0.2.0.3.3.3.2.2.3.<.4._./.S P =.` $.M N =.#.` ` ` -.#.K S X k ^ # $ $   . + +                                                                                                                                       # , # . $ $ $     . + @   $ * + # > ~ _ } c i i 4 } [ } 3 8 7 } ( ~ ; ; , j % $ $                                                                                                                                                                                                                                                                                                                                                                                                               ",
"                                                                                                                                                                                                                                                                                                  % h - j ! k &.~.T I z Y $.@.Y #.` ` #.#...).N N +.@.$.O Q Q ].^.|.}.c.f.a.:.[.b.b.b.b.6.9.9.9.0.0.2.9.2.2.2.3.2.2.2.2.2.2.3.b.[.3.3.0.0.0.0.0.0.0.0.0.0.0.0.0.0.0.0.0.2.0.2.0.0.0.0.0.0.0.0.1.0.0.0.0.2.3.3.3.[.3.0.0.0.2.1.0.0.6.0.6.2.3.3.3.2.3.<.(.^.L M ).M M O M -.!.` #. .#.;.S ~.,.^ $ & $   % -                                                                                                                                       + +                     @ @ *   * = > ~ _ } 4 c b 6 c } 3 7 c c c _ ~ > ; = h   $                                                                                                                                                                                                                                                                                                                                                                                                               ",
"                                                                                                                                                                                                                                                                                      .           $ % ) t F X I I B z B z Y Y z  .@.@...N M O L O M N M Q ].5.(.}.}.d.a.[.[.9.1.9.1.1.1.0.1.1.1.[.[.[.[.3.9.0.2.3.2.2.2.2.2.2.6.2.6.0.9.0.0.0.0.0.0.0.0.0.0.0.0.0.0.0.0.0.0.0.2.0.2.0.0.0.0.0.0.0.0.0.0.0.0.6.2.6.2.2.0.0.2.2.2.9.9.9.1.0.2.2.2.2.2.3.4._.5.{.).+.M O O +.@.#.#.=.@. .;.S ~.2 + & & $ . h .                                                                                                                                     & & $   # # # @         . + +   & & # ' ~ _ < } c g 8 c b 6 g c c [ _ { > = + . .                                                                                                                                                                                                                                                                                                                                                                                                               ",
"                                                                                                                                                                                                                                                                      . -   $ & + j # @ $ & & + ) / >.U '.S J  .=...+...B Y z B M M ..#.-.@.).L R R ^.5.|.(.}.}.d.a.:.[.[.2.2.2.1.1.2.1.2.2.2.2.3.[.[.[.6.9.0.2.2.2.2.2.2.2.2.2.0.0.0.0.0.0.0.0.0.0.0.0.0.0.0.0.0.0.0.2.0.2.0.0.0.0.0.0.0.0.0.0.0.0.0.0.0.2.2.2.2.0.0.0.0.2.2.2.2.9.9.9.1.6.2.1.2.1.2.2.[.4./.R O M M M ).-.@.).=.@.+.` K S U 2 . & & % j . $ $     . .   $ $     + +                                                                                                           $ $ $   - # # @         . . . $ $   # > > ~ ( < } e i 8 g 3 3 } f e | _ ] ^ ; = h $   % %         @ @   $ $                                                                                                                                                                                                                                                                                                                                                                                     ",
"                                                                                                                                                                                                                                                                      + j @ & & + , > j $ & ) / W X S I J Y ` #...).M N N ).B K ). .+.+.@.M P ].^./.(.c.d.d.d.6.6.0.1.2.2.2.2.2.2.2.2.2.2.2.2.2.2.6.2.2.6.0.0.0.2.2.0.0.0.0.0.0.0.0.0.0.0.0.0.0.0.0.0.0.0.0.0.0.0.0.0.0.0.0.2.0.0.0.0.0.0.0.0.0.0.0.0.0.0.0.0.0.0.0.0.0.0.0.0.0.0.0.0.0.0.2.2.2.2.2.2.2.1.1.<.(.^.P ).@...=.).N +.=.` !.` O S F ) = . @ + .   $   . % %   $ $ $   + +                                                                                                                                           + + # # ; ; ! 1 < 3 i i 7 4 | < 3 8 i e < ] ! ; @ % - - - .     . # -   $ $                                                                                                                                                                                                                                                                                                                                                                                     ",
"                                                                                                                                                                                                                                                                      % j * & & $ + , ; , t F X S R {.B Y *.Z Z *.=.).).+.).@.` #. .M O ].^./.(.(.}.}.c.d.a.b.b.9.9.9.0.0.2.2.2.2.2.2.0.0.0.2.6.2.2.2.0.2.0.0.0.0.0.0.0.0.0.0.0.0.0.0.0.0.0.0.0.0.0.0.0.0.0.0.0.0.0.0.2.0.2.0.0.0.0.0.0.0.0.0.0.0.0.0.0.0.0.0.0.0.0.0.0.0.0.0.0.0.0.0.0.0.0.0.2.2.2.6.2.3.2.[.<.(.^.M ` -.N M M N ..=.+...$.Q '.&.' j         . + + + +                                                                                                                                                         + @ + + % - ; ~ 1 < 3 i i 6 b e e i i 3 4 < ( ~ ; - - @ @ . .                                                                                                                                                                                                                                                                                                                                                                                                   ",
"                                                                                                                                                                                                                                                                      % j * & & &   j 2 &.'.S J K B B B Y ` ` *.!.` =.#.#.-.-.=.N L ].5./.(.}.c.g.d.a.:.[.[.b.b.9.6.6.9.0.0.2.2.2.2.0.0.0.0.0.0.0.0.0.2.0.0.0.0.0.0.0.0.0.0.0.0.0.0.0.0.0.0.0.0.0.0.0.0.0.0.0.0.0.0.0.0.0.0.0.0.0.0.0.0.0.0.0.0.0.0.0.0.0.0.0.0.0.0.0.0.0.0.0.0.0.0.0.0.0.0.0.0.0.2.2.3.[.[.2.2.<.8.].;.....).).M N ).).+.+.K I '.t ; #   $ . % - - @ @   .                                                                                                                                                     + @ @     % # ; 2 1 : f c c 6 6 i i 3 9 5 6 [ ( ~ ; > - %               . +                                                                                                                                                                                                                                                                                                                                                                                     ",
"                                                                                                                                                                                                                                                                      . -   & & . % t U S I  .).Y ` #.#.-.@...).+.=.#.#.=.=.$.;.].5.(.}.}.h.g.h.a.:.b.9.3.b.6.6.9.9.9.0.0.0.0.2.2.0.0.0.0.0.0.0.0.0.0.0.0.0.0.0.0.0.0.0.0.0.0.0.0.0.0.0.0.0.0.0.0.0.0.0.0.0.0.0.0.0.0.0.0.0.0.0.0.0.0.0.0.0.0.0.0.0.0.0.0.0.0.0.0.0.0.0.0.0.0.0.0.0.0.0.0.0.0.0.0.2.3.[.3.3.3.2.2.<.8.^.L @.@.N M O M *.` N O B Q ~.,.- & $ + h - - @ @ + . .   $ $ $                                                                                                                                         + - @ +   .   * j ; ' ] : } b 6 8 9 i i 5 6 c c } _ { > ;   $ $           + #                                                                                                                                                                                                                                                                                                                                                                                     ",
"                                                                                                                                                                                                                                                                      + - +   + - t ~.I M #.Z *...*.Z *.N L O M -.-.).L P ].5./.(.}.c.g.g.d.a.3.[.b.6.b.9.9.6.9.9.9.9.9.9.0.0.0.0.0.0.0.0.0.0.0.0.0.0.0.0.0.0.0.0.0.0.0.0.0.0.0.0.0.0.0.0.0.0.0.0.0.0.0.0.0.0.0.0.0.0.0.0.0.0.0.0.0.0.0.0.0.0.0.0.0.0.0.0.0.0.0.0.0.0.0.0.0.0.0.0.0.0.0.0.0.0.0.0.2.2.2.6.3.[.2.2.2.<._.5.P +.+.M M  .Z *.N N ).$.Q U / . . - % + +   + + + .     $ $                                                                                                                                           @ @ @     $ & $ @ # ' { ( [ g c i 9 8 9 b 4 6 i e _ { ; =   $   . .     + -                                                                                                                                                                                                                                                                                                                                                                                     ",
"                                                                                                                                                                                                                                                                      . - h - , t U I B *.Z !.#.N Z Z =.O P L L M O O 5.5.(.c.d.f.f.f.d.a.6.6.6.9.9.9.b.9.9.9.9.0.0.9.9.0.0.0.0.0.0.0.0.0.0.0.0.0.0.0.0.0.0.0.0.0.0.0.0.0.0.0.0.0.0.0.0.0.0.0.0.0.0.0.0.0.0.0.0.0.0.0.0.0.0.0.0.0.0.0.0.0.0.0.0.0.0.0.0.0.0.0.0.0.0.0.0.0.0.0.0.0.0.0.0.0.0.0.0.0.0.2.2.2.[.:.2.1.1.1.[.8.^.P ..).=.!.Z *.=.+.$.` K S F ) j +       .       + .   $ $                                                                                                                                       $ $   + +         $ + * = > ! ( | e e 3 3 } c 4 i i i 3 _ { ; @     .   .                                                                                                                                                                                                                                                                                                                                                                                           ",
"                                                                                                                                                                                                                                                                        + @ # ' F H +.M M ).).+. .=.` #.@.M L Q ^.5.|.(.}.c.f.g.g.d.a.6.9.9.9.9.6.9.9.2.2.2.2.0.0.0.0.0.0.0.0.9.9.0.0.0.0.0.0.0.0.0.0.0.0.0.0.0.0.0.0.0.0.0.0.0.0.0.0.0.0.0.0.0.0.0.0.0.0.0.0.0.0.0.0.0.0.0.0.0.0.0.0.0.0.0.0.0.0.0.0.0.0.0.0.0.0.0.0.0.0.0.0.0.0.0.0.0.0.0.0.0.0.0.0.2.2.3.2.2.2.1.2.1.<._.^.P ..*.!.!.!.=.=.+...$.J '.>.# - *   % & %   . + % .                                                                                                                                           $                       + j > ! ( < | 3 3 } } c i i i 3 | : { ' ; $     . . . $                                                                                                                                                                                                                                                                                                                                                                                     ",
"                                                                                                                                                                                                                                                                            - > F I  .L L K B z Y +.+.N O ;.].5.(.}.c.g.g.g.d.d.a.b.9.9.6.6.9.3.2.2.2.2.2.2.2.2.0.0.2.9.0.9.6.9.0.0.0.0.0.0.0.0.0.0.0.0.0.0.0.0.0.0.0.0.0.0.0.0.0.0.0.0.0.0.0.0.0.0.0.0.0.0.0.0.0.0.0.0.0.0.0.0.0.0.0.0.0.0.0.0.0.0.0.0.0.0.0.0.0.0.0.0.0.0.0.0.0.0.0.0.0.0.0.0.0.0.9.0.2.2.2.2.2.2.1.2.2.<.(.^.L ` Z =.Y Y B ).).).B I X t , @ & $ $ $   . - - +                                                                                                                                           $         +               = , , ' ] < b 4 b e i i e e e e 3 : ] ' =     .     %                                                                                                                                                                                                                                                                                                                                                                                     ",
"                                                                                                                                                                                                                                                                      $ $ % + , &.I K ;.M B z B +.` +.P ].|.(.}.}.c.g.g.g.d.a.[.[.[.9.9.9.9.0.2.2.2.2.2.2.2.2.2.0.0.0.0.0.0.0.0.0.0.0.0.0.0.0.0.0.0.0.0.0.0.0.0.0.0.0.0.0.0.0.0.0.0.0.0.0.0.0.0.0.0.0.0.0.0.0.0.0.0.0.0.0.0.0.0.0.0.0.0.0.0.0.0.0.0.0.0.0.0.0.0.0.0.0.0.0.0.0.0.0.0.0.0.0.0.0.0.0.0.0.0.0.2.2.3.3.2.2.2.3.<.<.(.^.L Z #.@.K O K  .).Y M I U / ; h % $ & $ . % h +                                                                                                                                           $             + + +       * + @ , ' ] [ 6 c i i e b 3 } e i i [ ] ; *   & * % +                                                                                                                                                                                                                                                                                                                                                                                     ",
"                                                                                                                                                                                                                                                                          . % ^ k X I M B B ).).N $.;.H |.(.c.c.g.g.f.d.a.b.[.b.b.9.6.6.9.3.3.3.3.2.2.2.2.2.2.2.0.0.0.0.0.0.2.0.2.0.0.0.0.0.0.0.0.0.0.0.0.0.0.0.0.0.0.0.0.0.0.0.0.0.0.0.0.0.0.0.0.0.0.0.0.0.0.0.0.0.0.0.0.0.0.0.0.0.0.0.0.0.0.0.0.0.0.0.0.0.0.0.0.0.0.0.0.0.0.0.0.0.0.0.0.0.0.0.0.0.0.0.0.2.3.3.3.2.2.1.3.2.1.<.(.R O -.N O K B ).@.*.Y K S F / > h & & $ . h % +                                                                                                                                                       + + + +       @ *   + & ) { [ 6 i e f c [ | i i i i : ] ; = % h = @                                                                                                                                                                                                                                                                                                                                                                                     ",
"                                                                                                                                                                                                                                                                      + h $ . * ) F S B B ).#.-.M O Q 5.8.(.h.g.h.c.c.:.<.b.9.9.6.9.9.3.3.b.[.[.3.3.2.2.2.0.0.0.0.0.0.0.2.2.2.2.2.2.0.0.0.0.0.0.0.0.0.0.0.0.0.0.0.0.0.0.0.0.0.0.0.0.0.0.0.0.0.0.0.0.0.0.0.0.0.0.0.0.0.0.0.0.0.0.0.0.0.0.0.0.0.0.0.0.0.0.0.0.0.0.0.0.0.0.0.0.0.0.0.0.0.0.0.0.0.0.0.0.0.0.0.3.6.2.2.2.6.2.2.2.2.2.<./.Q L M N N B  .#.!.+.M K T >.' > . & &   % % .                                                                                                                                                       .   + +       * . * & & & ; ] : 6 c } c } c e i i i | : { ' ; - - -                                                                                                                                                                                                                                                                                                                                                                                     ",
"                                                                                                                                                                                                                                                                      + - * $ & ^ ,.X K +...Z ` ..-.O ]./.}.c.f.f.c.}.<.[.6.9.9.9.6.9.0.2.3.3.3.3.2.2.2.0.0.0.2.0.2.0.2.2.2.2.2.2.2.0.0.0.0.0.0.0.0.0.0.0.0.0.0.0.0.0.0.0.0.0.0.0.0.0.0.0.0.0.0.0.0.0.0.0.0.0.0.0.0.0.0.0.0.0.0.0.0.0.0.0.0.0.0.0.0.0.0.0.0.0.0.0.0.0.0.0.0.0.0.0.0.0.0.0.0.0.0.0.0.3.3.3.0.2.0.2.2.6.3.[.2.2.2.3.4./.{...-.#.).*.*.Y N  .+.I '.t > - $ $ $ . % %                                                                                                                                           @ +                     $ % $ & &     ; ; { _ | b 7 7 b e 3 e 3 | | < ] ' ; h * $                                                                                                                                                                                                                                                                                                                                                                                   ",
"                                                                                                                                                                                                                                                                        @ - * . - > F H B ).` #.Y #.-.P ^.(.}.c.c.f.f.:.9.1.1.2.9.9.9.6.0.6.2.6.2.6.2.0.0.0.0.0.0.0.0.0.2.2.2.2.2.2.2.2.2.2.2.2.2.2.2.2.2.2.2.2.2.2.2.2.2.2.2.0.2.2.0.0.0.0.0.0.0.0.0.0.0.0.0.0.0.0.0.0.0.0.0.0.0.0.0.0.0.0.0.0.0.0.0.0.0.0.0.0.0.0.0.0.0.0.0.0.0.0.0.0.0.0.0.0.0.0.[.[.6.9.9.9.1.6.2.3.2.6.2.2.2.[._.'.L !.!.=.!.Y B  .).*.B R ~.' > % $ $ $ . . .                                                                                                                                         @ +                           & + . @ j ; ; { _ } 3 i i 3 } | 3 3 3 } < ] ! ;                                                                                                                                                                                                                                                                                                                                                                                       ",
"                                                                                                                                                                                                                                                                        $ @ , j %   t T J )... .B +.@.$.P ^.(.}.c.c.f.d.a.2.1.2.1.2.2.2.0.0.0.0.2.2.3.3.0.9.0.0.0.0.0.0.0.0.0.0.2.2.2.2.2.2.2.2.2.2.2.2.2.2.2.2.2.2.2.2.2.2.6.2.2.1.2.2.0.0.0.0.0.0.0.2.2.2.2.2.2.2.0.0.0.0.0.0.0.0.0.0.0.0.0.0.0.0.0.0.0.0.0.0.0.0.0.0.0.0.0.0.0.0.0.0.0.0.0.0.0.2.6.2.2.0.2.9.0.2.2.2.2.2.2.0.2.2.<.}.^.O ` -.@.Y B +.` Z #.O ^.W ' % $   & %   + %                                                                                                                                                                         .     - ; > { _ < < 3 b } c } 3 e i 7 | 1 ^ = %   $ . + - + +   $ $                                                                                                                                                                                                                                                                                                                                                               ",
"                                                                                                                                                                                                                                                                      $ $ + , # % $ ) W S Y +.+.B  .$.-.M ].5.(.}.c.h.g.d.6.2.1.2.2.2.3.1.9.2.0.2.2.3.3.2.0.9.9.9.0.0.0.0.2.2.2.2.1.2.2.2.2.2.2.2.2.2.2.2.2.2.2.2.1.1.1.2.2.2.2.0.0.0.2.2.2.2.2.2.2.2.2.2.2.2.2.2.2.0.0.0.0.0.0.0.0.0.0.0.0.0.0.0.0.0.0.0.0.0.0.0.0.0.0.0.0.0.0.0.0.0.0.0.0.0.0.0.0.2.0.0.0.0.0.0.0.2.2.2.0.0.0.6.6.1.<.|.R N #. .M M #.` *.` !.J S V , +   $ &   - +                                                                                                                                                                         +       h ; > { ( < 3 e 6 6 c | e i i 6 : ] > ; h % $ . % + +                                                                                                                                                                                                                                                                                                                                                                     ",
"                                                                                                                                                                                                                                                                          . + - . $   k X P -.Y ` #.=.N =.).P 5.(.c.c.}.c.d.:.3.6.2.6.6.2.2.2.2.2.2.2.2.2.2.2.2.0.2.2.2.2.2.1.2.1.2.2.2.2.6.2.3.6.2.3.3.1.2.2.2.6.2.2.2.2.2.2.2.9.0.0.6.2.2.2.2.2.2.2.2.2.2.2.2.2.2.0.0.0.0.0.0.0.0.0.0.0.0.0.0.0.0.0.0.0.0.0.0.0.0.0.0.0.0.0.0.0.0.0.0.0.0.0.0.0.0.0.0.0.0.0.0.0.0.0.0.0.0.0.3.6.6.2.3.4.5.P ..N B M +.` +.Y +.B R X ,.j = $ & % @ +                                                                                                                                                                       + +       & # > ,.~ _ 4 6 c c g e 3 e 6 6 c [ ] 2 ; = . $ &   + @ - - +                                                                                                                                                                                                                                                                                                                                                             ",
"                                                                                                                                                                                                                                                                      . % .   . + - # ^ >.'.M Z *.!.-.O $.` O Q /.(.c.c.c.c.h.:.[.[.2.1.0.2.2.2.2.2.2.2.2.2.2.2.2.2.2.1.1.2.6.6.6.6.6.b.3.[.[.[.[.[.[.[.[.b.[.b.b.3.[.9.6.6.6.6.9.0.9.0.2.2.2.2.2.2.2.2.2.2.2.2.2.2.0.0.0.0.0.0.0.0.0.0.0.0.0.0.0.0.0.0.0.0.0.0.0.0.0.0.0.0.0.0.0.0.0.0.0.0.0.0.0.0.0.0.0.0.0.0.0.0.0.0.0.0.0.0.[.0.2.3.<._.].K O M ).#...B K *.Y B R U ' j & . + @ %                                                                                                                                                                     + @ @     &   + # > > ~ : c c c 6 8 e 3 5 c c 6 [ 1 2 ; # % &   $ # , # -                                                                                                                                                                                                                                                                                                                                                             ",
"                                                                                                                                                                                                                                                                      + - . $   % # + # ' W I *.` -.=.N M $.@.N ]./.(.c.c.c.c.a.:.[.9.1.2.2.3.3.3.2.2.2.2.2.2.2.2.2.2.2.6.6.6.3.3.[.[.[.[.:.:.:.a.a.a.d.a.a.a.a.a.:.:.b.b.[.[.3.9.6.0.1.2.2.2.2.2.2.2.2.2.2.2.2.0.0.0.0.0.0.0.0.0.0.0.0.0.0.0.0.0.0.0.0.0.0.0.0.0.0.0.0.0.0.0.0.0.0.0.0.0.0.0.0.0.0.0.0.0.0.0.0.0.0.0.0.0.0.0.2.3.1.1.2.3.<.(.].L N ..#.+.K B ` Z ..$.S W ^ @ * * % .                                                                                                                                                                     + @ @ +   & .   $ - , ,.{ _ [ 4 i i e c } 6 6 c 6 < 1 2 ; + . &   - # # -                                                                                                                                                                                                                                                                                                                                                             ",
"                                                                                                                                                                                                                                                                      + - . $   % - . . # 2 ~.I Y Y ).$.M O +.-.@.Q /.c.f.f.c.f.d.:.9.9.2.2.2.3.3.2.2.1.2.2.2.2.2.2.3.3.[.[.[.[.:.:.a.a.a.d.d.g.g.g.g.g.g.g.g.g.g.g.g.d.a.a.b.b.b.[.b.9.0.2.2.2.2.2.2.2.2.0.0.0.0.2.0.0.0.0.0.0.0.0.0.0.0.0.0.0.0.0.0.0.0.0.0.0.0.0.0.0.0.0.0.0.0.0.0.0.0.0.0.0.0.0.0.0.0.0.0.0.0.0.0.0.0.0.0.0.6.1.1.6.1.3.4./.P #.).M -.O z $.*.Z ` O T V ^ - $                                                                                                                                                                         + @ @ +   . & $ . $   # ; ~ ( < } i 9 b 3 b b i i | : ] ! > + $ $   - - +                                                                                                                                                                                                                                                                                                                                                             ",
"                                                                                                                                                                                                                                                                        - .     . % . . * = V '.J ..).-.$.N $.@.` M ^./.c.f.g.g.g.a.b.0.2.2.2.2.2.2.2.2.2.2.2.2.2.2.a.a.a.a.d.d.d.d.f.g.g.g.g.f.h.f.h.h.f.f.f.g.g.g.g.g.g.g.g.d.a.:.[.[.3.2.6.6.0.2.1.2.0.0.0.0.0.0.0.0.0.0.0.0.0.0.0.0.0.0.0.0.0.0.0.0.0.0.0.0.0.0.0.0.0.0.0.0.0.0.0.0.0.0.0.0.0.0.0.0.0.0.0.0.0.0.0.0.0.0.0.0.1.6.2.1.2.2.[._.].M M ..=.$.O z =.Z !.N J ~.' h $ &                                                                                                                                                                         + @ @           %   @ , > ~ ( < } i 8 e e 3 e e 3 < < 1 2 ; -   $   .   @                                                                                                                                                                                                                                                                                                                                                           ",
"                                                                                                                                                                                                                                                                        +           $ % & $ , W S L #.!.` ` =.N N ).L ].(.}.f.g.g.g.d.[.3.2.2.2.2.2.2.0.0.1.6.6.1.6.d.g.g.g.g.c.h.f.g.f.f.f.f.h.h.h.c.h.c.h.h.c.h.h.f.f.f.g.d.g.g.d.a.:.:.9.1.1.0.0.0.9.0.0.0.6.0.1.0.0.0.0.0.0.0.0.0.0.0.0.0.0.0.0.0.0.0.0.0.0.0.0.0.0.0.0.0.0.0.0.0.0.0.0.0.0.0.0.0.0.0.0.0.0.0.0.0.0.0.0.0.0.9.0.3.2.2.2.2.<.8.{.O ..=.-.).L  .*.=.$.=.R W ' % &                                                                                                                                                                           @ @ @ +             + # > ~ ( [ 3 i i 8 e 3 3 3 3 | < ( / > #   $   . - +                                                                                                                                                                                                                                                                                                                                                         ",
"                                                                                                                                                                                                                                                                          + +   $ $ .   & & ^ k ~.R -.!.Z Z $.N L M $.O ]./.}.h.f.g.d.d.b.3.2.6.2.1.3.3.0.9.9.6.9.b.6.d.d.g.f.c.h.h.f.f.f.h.h.h.c.c.c.c.h.c.h.c.c.c.c.h.h.h.h.f.g.g.g.g.d.a.6.[.b.6.9.6.9.1.9.0.2.1.0.0.0.0.0.0.0.0.0.0.0.0.0.0.0.0.0.0.0.0.0.0.0.0.0.0.0.0.0.0.0.0.0.0.0.0.0.0.0.0.0.0.0.0.0.0.0.0.0.0.0.0.2.0.0.2.2.2.2.2.[.[.4./.P N +.-...M B z Y $.$.L T V - %                                                                                                                                                                             + @ @ + @ +       $   ; ; ~ ( < } 9 8 7 3 } 4 e i 9 [ 1 2 > h   $ . % +                                                                                                                                                                                                                                                                                                                                                         ",
"                                                                                                                                                                                                                                                                        $ + -   $   h @ $     > V '.O #.Z Z Z ).O L #.#.O ].|.(.}.c.g.g.a.b.3.6.6.2.6.2.0.9.9.9.6.6.b.[.:.a.g.g.h.c.f.f.h.h.c.c.c.c.c.c.c.h.c.c.c.c.c.h.c.h.h.h.h.h.h.f.g.g.d.a.b.b.[.9.6.6.0.1.1.6.2.0.0.0.0.0.0.0.0.0.0.0.0.0.0.0.0.0.0.0.0.0.0.0.0.0.0.0.0.0.0.0.0.0.0.0.0.0.0.0.0.0.0.0.0.0.0.0.0.0.0.0.0.0.2.0.0.9.2.3.[.<.2.}.].L N +.@.@.B B  ...M $.J X / = - .                                                                                                                                                                           @ @ @ @ @ + + $ $   $ = ; ~ ( < 4 c c 6 c } 9 i i 9 < 1 ! ; = . $ + %                                                                                                                                                                                                                                                                                                                                                         ",
"                                                                                                                                                                                                                                                                            +     + - + . $ % > > F S J *.Z ` N M N -.` $.$.].(.(.(.c.g.g.a.:.[.3.6.2.1.2.6.0.1.9.6.9.6.[.[.a.d.g.g.f.c.h.h.h.h.c.h.h.h.h.h.h.h.h.h.h.h.h.h.h.h.h.h.h.h.f.g.g.d.d.a.:.[.[.6.6.0.1.2.0.0.0.0.0.0.0.0.0.0.0.0.0.0.0.0.0.0.0.0.0.0.0.0.0.0.0.0.0.0.0.0.0.0.0.0.0.0.0.0.0.0.0.0.0.0.0.0.0.0.0.0.2.2.3.2.2.9.2.[.[.3.2.<.|.R O M +.` -.z B N N =.z S F k ,                                                                                                                                                                               - @ - + +     * $ % * ; > ! ( | c c 6 c 4 d 8 i i | < 1 2 ; # . % %                                                                                                                                                                                                                                                                                                                                                         ",
"                                                                                                                                                                                                                                                                              + - # = + % * % h > / X S ;.@.@.).M =.!.` -.M ].^.(.(.}.h.g.g.d.[.[.6.2.2.2.2.6.2.0.9.9.6.9.3.3.3.a.d.g.h.h.h.h.c.h.c.h.h.f.f.f.f.f.f.f.h.h.h.h.h.h.h.h.h.h.h.f.f.g.g.d.a.b.[.3.2.6.2.0.0.0.0.0.0.0.0.0.0.0.0.0.0.0.0.0.0.0.0.0.0.0.0.0.0.0.0.0.0.0.0.0.0.0.0.0.0.0.0.0.0.0.0.0.0.0.0.0.0.0.0.0.3.3.2.9.9.0.[.6.2.2.<._.^.P O ).!.!.-.N N @... .K S t ' . .                                                                                                                                                             + +                       @ - % & &   , > ~ _ c 6 c } b b b 8 i e | < 1 ' ; # . $                                                                                                                                                                                                                                                                                                                                                         ",
"                                                                                                                                                                                                                                                                              + , , # . * @ h h - ' V '.R z M M M #.Z Z -.L {.].^.(.}.c.g.g.f.a.:.[.2.2.2.2.2.6.2.1.2.1.0.6.2.2.2.:.a.h.g.h.h.h.h.h.h.f.h.f.f.f.f.g.f.f.f.f.f.h.h.h.c.c.c.c.c.h.h.g.g.d.d.a.[.3.3.6.0.0.0.0.0.0.2.2.2.0.0.0.0.0.0.0.0.0.0.0.0.0.0.0.0.0.0.0.0.0.0.0.0.0.0.0.0.0.0.0.0.0.0.0.0.0.0.0.0.0.0.0.2.3.3.2.9.0.0.6.6.2.6.1.<.(.Q L +.` Z !.+.N Y #.Y K R ~.t %         .                                                                                                                                                     + @                   $   @ , # *   & + > ' / _ 4 3 | 4 c } 4 e i e | : ] ' ;                                                                                                                                                                                                                                                                                                                                                             ",
"                                                                                                                                                                                                                                                                        +     % - - - + @ % j . . # ! &.'.J O M O N #.Z ` #.M L L ].|.}.f.g.g.f.d.:.3.2.2.2.2.2.2.6.3.3.3.6.6.2.2.3.[.:.d.g.g.f.h.h.c.c.h.h.c.h.h.h.f.f.g.f.g.f.h.h.h.c.c.c.c.c.c.h.g.g.g.d.d.:.[.[.3.6.0.9.1.2.2.2.2.0.2.2.3.2.0.0.0.0.0.0.0.0.0.0.0.0.0.0.0.0.0.0.0.0.0.0.0.0.0.0.0.0.0.0.0.0.0.0.0.0.0.0.0.2.3.2.0.0.0.0.9.0.3.6.<.4./.R ..-.#.!.N M =.*. .K J R W ) h   . h   $ $ $   +   $ $                   + + + $ & & & $ $ $ $ $ $ $ $ $   @ - - - - + + .         $ @ - % .   & & $ . . . . + %                             +                       % - @ h $     h # k ~ ( [ [ b b 4 } 4 f i i e | 1 2 #     + # , # +       . - - - +       + @ + + - - - - -   $ $ $ $ $                 % % .                 + + .                                                                                                                                                                                                                                             ",
"                                                                                                                                                                                                                                                                        +           . % + + . .   $ & / U R O ).;.L ` Z !.!.-.-.$.M ].(.}.g.g.f.f.a.<.3.2.2.2.2.3.3.[.[.b.3.0.0.0.3.0.0.6.a.d.g.g.h.c.c.c.c.}.c.c.c.h.f.f.g.f.f.f.h.h.c.c.c.c.c.h.h.h.f.g.g.g.g.c.:.[.3.9.0.0.1.1.2.2.2.6.6.3.3.0.0.0.0.0.0.0.0.0.0.0.0.0.0.0.0.2.0.2.0.2.0.2.0.2.0.0.0.0.0.0.0.0.0.0.0.0.0.0.2.6.2.0.0.0.0.2.6.3.6.3.[.}.^.M M -.` ).M #.` =.M M O T V ^ @ % - = $ & $   -   $ $                       +   $ $ $ $ $                 + - - - - % % .       $   = # + $ & & & . h h % * @ %                                                       +   + + +   $ @ = ' ~ ( < 3 8 6 c | 3 3 i i b [ 1 ! = . j , > , %       . - - - +       + + @ @ - - - # -   $ $ $ $ $               . - + +                 + % .                                                                                                                                                                                                                                             ",
"                                                                                                                                                                                                                                                                                    . . .         h = > / G J O O B =.!.Z $.O M M N N ].(.}.g.f.c.h.d.:.3.2.2.2.2.2.6.2.2.0.0.0.0.9.0.0.3.3.:.a.d.g.g.h.c.c.h.c.c.c.h.f.f.f.f.f.f.h.h.h.c.c.h.c.h.h.f.f.h.f.g.g.g.g.a.a.[.b.9.0.0.2.1.1.2.2.0.0.0.0.0.0.0.0.0.0.2.2.2.2.2.0.0.0.0.0.0.0.0.0.0.0.0.0.0.0.0.0.0.0.0.0.0.0.0.0.0.0.2.0.0.0.0.0.1.2.3.3.3.[.<.^.;.O ` @.Y ).#.` -.N M N R ~.2 + % @ j + $ $ $ . .                 $ $ $ $ $ $ + , , , # - - # @ - - - - .   $ $                   + j , -   $ $ $ $ %   $ & & $                                                           + @ +   $   - ; k ~ ( < 3 6 6 6 } 3 i i e } : ] ' # # h + *                 $ $ $ $           $         +   + +       @ + + +   @   * * $ $ $             .                                                                                                                                                                                                                                               ",
"                                                                                                                                                                                                                                                                                      .             , k { c u Q O -.!.Z $.M L L N ` Z $.].(.c.h.h.c.f.d.:.[.3.6.6.2.2.9.2.0.0.0.9.0.0.0.3.3.3.<.:.d.g.g.g.f.h.h.h.h.h.h.h.h.h.f.h.h.h.h.h.h.c.h.h.h.h.f.f.f.g.f.f.g.g.d.a.:.[.b.3.2.6.6.1.1.0.0.9.0.0.0.0.0.2.2.2.2.3.3.3.0.2.0.2.0.2.0.2.0.2.0.2.0.0.0.0.0.0.0.0.0.0.0.0.0.0.0.0.0.0.0.0.0.2.6.2.3.3.6.<.8.^.M @.#...-.-.-...M M =.I S &.) @ @ h # @ $ &   + # - # - - - +     $ $ $ & $ % # j # j # - - - - - - - .           $ $         . + @ = + . .   + j - = + . & &                                                         . @ - +       . # ; ' ~ ( < c 6 7 3 3 3 d 6 c } : ] 2 ; *   & &       $ $ $ $ $   $ $ $ $ $ $ $ $ $ $ $   + + + + + + + + @ @ @ + @ *   *                                                                                                                                                                                                                                                                   ",
"                                                                                                                                                                                                                                                                        $ $                   $   % ; / : 3 l u z *.*.M P L ;.O =.Z Z ` O ^.(.c.h.c.c.h.d.:.[.9.6.9.1.1.1.2.1.2.0.0.2.2.1.3.6.6.[.[.a.d.g.g.g.h.h.h.h.c.c.h.h.c.h.h.f.f.h.h.h.h.h.f.f.h.f.f.f.g.f.f.f.g.g.g.a.:.[.[.3.0.6.6.9.9.0.0.0.2.2.2.2.2.3.3.3.3.3.2.2.0.2.0.2.0.2.0.2.0.2.0.0.0.0.0.0.0.0.0.0.0.0.0.0.0.0.2.0.0.0.0.0.2.2.6.3.6.[.7./.O +.).-.!.-.+.N O N #.` I '.t # - # , , $ & $ + , , j , - - - - +         $ $ & & $ $       .           + + + + +           . . . % %   $   + # > , > , - $                                                           + @ # @ . $     + # ; ; ~ ( } 6 c e 3 3 3 6 c 6 4 [ 1 / = & & $   @     $ $ $   +             $ $ $ $ $                           $       . . . . .       $ $ $                                                                                                                                                                                                                                             ",
"                                                                                                                                                                                                                                                                        $ $ $                     # / _ 3 3 6 6 i.P *.$.O M O $.$.=.` ` O {.^.|.}.c.f.h.f.c.:.[.9.9.0.2.2.2.2.2.0.3.2.6.6.0.1.6.6.3.3.:.a.d.g.g.f.f.h.h.c.c.c.c.h.h.h.f.f.f.h.h.f.h.h.h.h.f.h.h.f.h.f.h.h.h.g.c.d.:.[.[.[.6.6.0.0.0.2.2.2.2.2.2.2.2.3.2.2.2.6.2.0.2.0.0.2.0.0.2.0.0.0.0.0.0.0.0.0.0.0.0.0.0.0.2.0.0.0.0.0.0.2.1.6.6.2.2.2.<.8.].O M *.!.=.N N M ).` !.B I F k h = , ,   & & + , +               . . + + +   $ $                       . . .                       $ $ $ . h ^ ) / k > j     $                                                         @ - @   $ $   $ $ @ ; k ~ ( [ d i e 3 3 c g i i 7 [ ] ) * $   - # j +         + +           $ $ $ $ $               $ $ $ $ $ $ $ $ $             . .     $ $                                                                                                                                                                                                                                             ",
"                                                                                                                                                                                                                                                                        $ $                   + @ 2 ( c c c c g c i.J $.` $.=.=.$.$.$.N $.M Q ^.|.c.h.f.f.g.f.:.[.[.6.2.2.2.2.3.[.3.2.2.2.0.0.0.9.0.6.[.3.a.d.g.g.g.f.h.c.c.c.c.h.h.f.f.f.h.f.h.f.h.f.f.h.f.h.h.h.h.h.h.h.h.h.h.h.h.d.:.b.[.b.9.0.0.0.2.2.2.2.2.2.2.2.2.2.2.2.2.6.2.0.2.6.2.0.2.0.2.0.0.0.0.0.0.0.0.0.0.0.0.0.0.0.2.0.0.0.0.0.0.1.1.6.2.6.2.<.5.R =.!.`  .M N N @.-.=.*.z S ,.j * - , + & & $ + $ & & & $ $     . . % % + - + + + +     $ $ $ $ $ $ $           . . . + + +   @ - j ' k t &.&.W ~.~.&.; . &                                                           + @ - @ .   $       @ # ; / _ | } e e 7 7 8 i i i e : { > # j , , , - .                             $                   $ $ $ $ $ $ $ $ $   $ $     . .                                                                                                                                                                                                                                                   ",
"                                                                                                                                                                                                                                                                        $           % *   % - = ) ] [ | e e 6 g 7 c u ;.Y Z Z -.$.N =.$.$.-.!.N ^.|.}.g.g.g.g.c.a.[.[.6.2.1.2.3.[.[.2.2.2.2.0.0.0.0.9.0.3.3.3.a.d.g.g.f.f.c.h.h.h.h.g.h.f.f.f.h.f.h.h.h.h.h.h.h.h.h.f.h.h.c.c.c.h.c.g.g.d.a.b.[.[.3.6.6.6.2.2.2.2.2.2.2.2.2.6.2.1.2.2.6.2.0.2.0.2.0.0.0.0.0.0.0.0.0.0.0.0.0.0.0.0.0.0.0.0.2.0.0.2.2.2.2.2.2.[.(.R N #.#.N M N @.-.-.+...*.J U 2 $ % h -   $ &   $ $ $ & $   .     + % % - - j - - - .   $ $     $ & $ &   h h j ^ > > ' k t V >.F U X T T S S I R '.'.> j .                                                           . - @ -     $       $ * = > / ( | } 8 8 8 i 8 i i 3 | : { > > j - # + .   &   + + + % + + @ + % % % .   $ $ $       . . + . . % % . $ & $ *   $       . + +                                                                                                                                                                                                                                               ",
"                                                                                                                                                                                                                                                                        $ $         $ h @ # ; ; ~ : c } 3 e i e e b c v S z #.@.` #.@.$.$.Z Z !.P ^./.}.f.g.f.h.c.a.<.b.9.6.6.3.3.6.2.2.2.2.2.9.0.0.9.0.9.3.b.[.:.a.g.g.f.f.h.h.h.h.h.g.f.f.h.f.h.f.h.h.h.h.c.h.c.h.f.f.f.h.c.c.c.c.c.h.g.g.d.d.a.b.[.[.[.3.1.2.2.2.2.2.2.2.6.6.6.2.0.2.0.2.6.2.0.2.0.0.0.0.0.0.0.0.0.0.0.0.0.0.0.0.0.0.0.0.0.1.0.0.0.2.2.2.3.<./.L )...N M N -.` @.M N *.B '.&.% $ % j @ & & $     .       + .     * + + + % @ @ @ @ @ % % + + % h h ) k k k ,.V &.W ~.'.'.'.S R P +.` Z `  .*.-.{.'.V > + .                                                           . + + + + % . . . . & . + > ~ ( } c 8 e e 3 6 6 b 3 | : ] > # @   . & & .     @ + + @ + % . % % % .               % % % - - - - # = h h *             + - +                                                                                                                                                                                                                                             ",
"                                                                                                                                                                                                                                                                              .       + h ; ' 2 ( [ 3 c b 3 3 i e < 1 / W S O !.` #.N $.` !.` =.$.L ]./.}.c.c.}.c.g.a.b.1.9.6.2.2.2.2.2.2.0.1.0.2.9.2.0.0.0.9.[.b.b.a.d.g.g.g.h.g.g.h.h.h.h.h.h.h.h.h.h.h.h.h.h.h.h.f.g.h.h.h.c.c.h.c.c.h.h.f.g.d.d.a.:.[.[.b.0.0.2.2.1.2.2.2.2.2.2.6.6.2.0.2.0.2.0.0.0.0.0.0.0.0.0.0.0.0.0.0.0.0.0.0.0.0.0.0.0.0.0.0.0.2.2.1.<.(.].O N N N ).#.` +.M O -.` I ~.) * . h - . $ $ + j # # - + % . %     $     $   % h h j ^ ^ > ' ,.,.&.F U ~.T T I J ;.;.H P P {.P O ).` *.` *.Z Z O S >.) &                                                               . - - - - - - + .   $ % # ; ~ _ | e 3 4 c } c 6 7 9 4 _ ~ ; @ % +   . &       . . .         +   @ @ + . . + + + - - - h j j ^ ^ > ^ # j @ .         + - +                                                                                                                                                                                                                                             ",
"                                                                                                                                                                                                                                                                                        # > / 1 < | i c 6 b e 3 < 1 > ; k U T J z z N #.` ).M N -.-.N Q 5.(._.}.h.g.g.d.b.b.9.0.2.2.2.2.0.0.0.0.9.2.0.2.2.2.9.6.b.[.3.b.d.d.g.g.h.f.f.h.c.h.h.h.h.h.h.h.h.h.h.h.h.h.f.f.f.h.h.h.h.c.c.h.h.h.}.g.g.g.g.d.d.a.:.b.[.3.3.9.6.6.6.2.1.2.2.2.0.2.0.2.0.2.0.0.0.0.0.0.0.0.0.0.0.0.0.0.0.0.0.0.0.0.0.0.0.0.0.0.0.1.2.1.4.5.{.O +.....#.-.).M M ).` Y S &.)   + h h & & % + @ @ + . . + + . % % @ - ) ) 2 k t >.&.U U X '.'.'.R R Q H B z ` *.!.Z Z !.#.z B +...+.). .` Z N R >.'   .                                                               . - @ @ - - +   % $   % ; ' ~ _ [ 3 b b } c c c c 7 [ _ ~ ; ; j j j -   $ $       $   + % h h - j , , ^ ^ ) ) ! / / / / t t >.>.>.&.k j - % $ $ $ . % .                                                                                                                                                                                                                                             ",
"                                                                                                                                                                                                                                                                                    $ h ; k ] | | i i b 6 7 e 3 ( 2 > j > ) F S I J #.!.$.O O N @.-.!.$.].5.|.(.c.f.g.g.d.:.[.0.2.2.0.0.0.0.0.0.0.0.0.2.2.2.2.9.9.9.6.3.3.a.d.g.g.f.h.h.c.h.h.h.c.h.h.c.h.h.h.h.h.h.h.h.h.h.f.h.h.h.h.h.h.h.g.h.h.h.f.g.g.g.d.a.a.:.[.[.[.2.2.2.6.6.2.0.2.0.2.6.2.0.0.0.0.0.0.0.0.0.0.0.0.0.0.0.0.0.0.0.0.0.0.0.0.0.0.0.2.1.2.1.<.(.R O =.#.=.=.@.N +.Y M +.` S ~./ % * - j @ . * * $ % h - # ) , ' k ; k &.F U ~.X T T I Q P Q L O M ).-.Y +.z Y Y Y Y -.` *.*.Y z @.).M K B ).@.O R F ' %                                                                     + @ @ +   . - +   $ & ; ; ~ _ } 6 g c } g g 0 8 } | ( ~ > > > > ^ , # j j , ^ ' ) 2 k k k ,.V V &.&.W W W U U ~.~.X X T T I T '.W k ; % $ & &   . .                                                                                                                                                                                                                                             ",
"                                                                                                                                                                                                                                                                                    $   , ~ : 3 i e 3 } c 6 6 : ~ > # h   * ) F '.{.*.*.$.N M $.-.-.$.N M P ^.(.}.h.f.f.f.c.:.[.3.2.9.0.0.0.3.3.3.2.0.2.2.2.2.1.2.6.6.9.9.3.[.d.g.g.h.c.c.h.c.h.c.h.c.h.h.h.h.h.f.h.c.h.h.h.f.h.f.g.h.h.c.h.h.h.c.h.h.f.f.f.g.g.g.d.d.:.:.3.2.0.6.2.6.2.0.0.2.0.2.0.2.0.0.0.0.0.0.0.0.0.0.0.0.0.0.0.0.0.0.0.0.2.0.2.0.0.0.6.2.2.[._.^.;.#.` -.@.).).=.*.).N N O S V h h % j j j j # ) k k t >.F F ~.X T S S R I R {.P L K B $.#.` ` -.@.$.+.+.).+.).).).+.).).+. .Y -.).O M B +...O R F # %                                                       .               . . . . % j j % $   . , > { [ c 6 c b 7 c i i i l e j.{ >.t >.>.>.F F F U U ~.X X T T T T S S S S S I R I I I J I J J B B J S U ) , j   & & $                                                                                                                                                                                                                                                 ",
"                                                                                                                                                                                                                                                                          + + $ $   @ ; / ( < 3 i e 4 4 c 6 [ ] > h $ & & $ , ' F T J -.$.$.$.@.=.@.M M =.` ].^.(.}.c.h.c.c.c.:.9.9.0.0.0.0.9.0.6.0.3.3.2.2.2.6.1.1.0.9.9.6.b.[.:.d.g.h.h.c.c.c.h.h.f.h.f.h.h.h.c.h.h.c.c.h.h.f.f.f.f.f.f.h.h.h.h.h.h.h.f.f.f.f.f.g.g.g.d.d.a.:.b.b.[.3.3.2.0.0.6.0.0.0.2.2.2.2.2.2.0.0.0.2.0.2.0.0.0.0.0.0.0.0.0.0.0.2.0.2.2.3.2.<.|.{.).` ` #...)...!.@.$.O $.I ~.t / ,.,.,.&.W W U ~.'.'.S S {.;.M N $.=. ...=. .).).$.@.=.-.-.` ` @.N N ).).).).+.+.).N M N ..Y =.).M M +. .#.-.I F ; +           . . . . % % % % . . . . % % % % % h - h h j j j j j - j , ) ) ) ) ) ' k k t t ,.k ,.&.>.C E k.D C C u u l.l.m.x x T T S T S R I R I J J ;.B B B ).+.@.Y #.-.-.=... . . .+.+...+.@.Y Y z I X 2 , j   & & $                                                                                                                                                                                                                                                 ",
"                                                                                                                                                                                                                                                                        @ # h & & . ; / ( [ 3 c 9 3 4 c 6 c 1 k # @ & & & $ - , ! &.S P B M $.=.$.N N ).` Z =.P ^./.}.}.c.c.h.g.a.6.1.2.2.0.9.9.9.9.6.3.3.2.2.2.2.2.2.0.9.9.9.b.[.[.d.d.g.c.c.h.h.f.g.f.g.h.h.c.c.}.g.h.f.h.h.h.h.h.h.h.h.h.h.h.f.f.g.f.g.f.g.g.g.g.g.g.g.g.g.g.d.a.a.:.b.[.3.9.0.1.0.2.2.2.6.2.0.1.2.2.2.2.2.2.0.0.0.0.0.0.0.0.0.2.0.0.0.0.2.6.2.[.7.^.{.N !.Z !.).+.@.+.N M M K H x w T I T R R R R R {.{.P L K B N $.@.....@...@.......@.=.=.-.=.-.=.....).+.@.=.-.#.#.-.........+.+.N M M ).Z Z K ~./ > * $   + % - h h j h ^ h ^ h ^ h ^ j ^ ^ > ) k k k k ,.,.V V &.&.>.F W F U U U ~.X G T T T S S ].I J K O L P P P L L L O K K M K J K M B B M M M B ).z +.$.$.....+.).+.+.+.+....... ......... .N  .B T k $ - +   $ $                                                                                                                                                                                                                                                 ",
"                                                                                                                                                                                                                                                                        . # @ . % = > { : d c 6 e 3 } } [ ( 2 > -   & & $ . % @ > ! >.X I M $.N ..@.N @.#.=.$.M Q ].5.(.}.f.g.g.g.d.6.[.[.6.6.9.9.9.1.2.2.3.3.2.2.2.2.9.2.9.0.0.6.[.[.:.d.h.g.f.f.g.f.h.h.h.h.h.c.h.h.f.h.h.f.h.f.h.h.h.h.h.h.h.h.h.h.h.h.f.h.f.f.f.f.f.h.h.h.f.f.f.g.d.d.a.a.b.3.[.3.0.2.0.6.6.0.2.1.1.2.6.6.0.0.0.0.0.0.0.0.0.0.0.0.0.0.2.2.3.2.3.7./.R ).!.!.Z ).N @...).N M M M J K ;.M B Y =.#.#.-.=.Y =.Y -.=.=.=.=...+.+.+.........@.@.@.@.@.@.$.+.N N N +...@.=.=.@.+.).).+...@. .N M B *.Z z T >.2 2 2 2 k / k / t t t t V >.&.>.W W W U U ~.~.~.X X '.'.'.'.S '.S S S S R R R {.P P {.P L ;.B B B ).B  .-.-.$.@.$.$.=.$.@...@. .=.=.=.=. .=.=.=.=.=.=.=.=.=.@.@...+.+.+.+.+...+.........@... . .M ).Y T t   j -                                                                                                                                                                                                                                                       ",
"                                                                                                                                                                                                                                                                        . * * % = ; ~ _ | 7 7 b 3 3 | < ( ~ ; > + . .   . . % h   $ - V X I z M +.Z #.$.).M O ).N M L 5.(.c.g.g.h.g.g.:.[.[.<.[.2.2.1.1.2.3.<.3.2.2.2.2.0.2.9.0.6.6.[.3.:.d.d.g.g.h.h.c.c.h.c.h.h.g.h.h.f.h.f.h.f.h.f.h.h.f.h.h.c.c.c.c.c.c.c.c.c.c.c.c.h.h.f.f.f.g.f.g.g.d.g.d.d.a.a.6.3.3.3.9.9.0.6.6.0.1.1.9.2.0.0.0.0.0.0.0.0.0.0.0.0.0.2.2.3.3.<._.R N -.` !.).).=.@.@.+.).B N M M z z B $.` !.` ` ` ` ` #.#.-.-.-.=...).).).).+.+.+.+.$.$.$.@.$.).N N M M N N ).+.+.).N N )...@.-.-.+.M M  .Z *.I X U U U ~.~.~.X T X T T I T H I J I Q Q {.Q P P L O M B M L L L O O O O O M N ).B M B z B z z ).z  . .+.....).$.$.).$.).$.$.+...+.....@...=.=.=.=.=.=.@.@.@.@.@.@.@.@.@.@.@.@.....+...+.....@... .N +.).I ,.& + -                                                                                                                                                                                                                                                       ",
"                                                                                                                                                                                                                                                                          $   = ; ! ( < | i 8 e e i e < ~ ; = $     - - +   % @ & $ $ $ ,.X I -.Z ` ` !.$.N ).@.!.!.$.P ^.|.}.}.c.c.f.h.a.:.[.3.2.2.2.1.2.6.6.3.2.2.0.0.0.0.0.0.9.2.6.2.1.3.d.d.d.g.c.c.c.c.h.h.f.f.h.d.h.f.h.h.g.h.d.h.g.h.g.c.h.}.c.c.c.c.c.c.c.c.c.c.h.h.f.f.f.f.f.f.g.g.g.g.g.d.g.d.a.a.:.b.b.3.1.0.0.9.0.6.0.0.0.0.0.0.0.0.0.0.0.0.0.2.2.2.3.3.2.<.].L +.-.=.N ..-.-.=.@...+...+... .+.$.=.!.!.!.!.!.` ` #.-.=.=.=.@...+.+.+.+.+.+.+.+...+...+...+.).N N N N ).).).).).N N +...@.#.` @.M O K z *.B R S R S R I {.I J J K z z Y z z B B +... . .Y #.#.-.-.-.` !.!.!.!.` #.-.=.=.....+.+...@.@.@.....+.@.....@.@...+.).).).).+.).............@.=.-.-.-.=.=.=.=.@.@.@.@.@.-.#.#.-.@...+.).).....@... .+.). .B I &.% - +                                                                                                                                                                                                                                                       ",
"                                                                                                                                                                                                                                                                          $ $ = 2 1 < < 3 i 8 e 3 0 b ] k , * & &   # j + $ & &   $ . . ^ t X B =.=.-.!.` ` -.$.` ` $.M {.].5.(.}.c.f.f.h.a.:.[.3.2.3.2.0.9.9.6.2.0.2.2.0.0.6.0.1.1.6.6.9.2.2.6.a.g.h.c.c.c.c.h.f.f.h.h.h.h.f.f.h.f.h.f.h.d.c.h.h.h.h.h.c.h.c.c.c.c.c.c.h.h.h.f.h.h.h.h.h.c.c.c.c.h.g.g.g.g.d.d.a.:.b.[.0.0.2.0.0.0.0.0.0.0.0.0.0.0.0.0.0.0.2.6.2.2.2.<.|.Q $.=.N ).@.-.-.=.=.@.@.+.Y Y +...#.#.` ` !.` #.#.=.=.@.......+.......................@...@.=.=.=.=.=.@.........@.@.@.....@.#.#.Y N M $.$.` Y z M $.=. ... .@.Y ` Y Y Y z  . .)...+.+.+.).+...+...+.@.#.*.*.` ` -.=.=.=.@...).).+.@. .@.=.=.=.=.@.@.@.@.@.=.@.@...............+...+.....=.-.-.-.=.=.=.=.@...@.....-.` #.-.@.....).).+.....@... .+.+. .S &.) $ +   $                                                                                                                                                                                                                                                   ",
"                                                                                                                                                                                                                                                                        . $ & = { < 3 e 8 9 i 8 | 3 ( k >   & & $ % # j . $ $ & $ % = % = ' t U I M =.N ` Z Z ` N O O N =.$.].5.(.c.g.f.f.h.d.:.[.3.[.3.b.9.9.9.0.0.0.0.0.0.0.9.9.9.9.9.6.0.2.3.[.:.d.g.h.h.h.h.f.h.h.h.h.h.h.h.h.h.h.h.h.h.h.h.g.g.g.g.g.h.g.f.f.f.f.f.f.h.h.h.h.c.c.c.c.c.c.c.c.c.c.c.h.g.g.g.g.d.d.d.a.[.[.0.0.0.0.0.0.0.0.0.0.0.0.0.0.2.2.3.2.1.2.<._.].-.+.N @.@.=.@.@.@.@.=...@.#.#.=.=...@.......+.+.).).).N N N ).@.-.-.-.-.-.=.=.=.@.=.=.@.=.` !.` ` ` ` -.=.=.=.#.` ` -.@.@.Y #.=.$.M B ).Y ` Z !.` -.-.@.@.+.N N M M M M M N N N N N N N B B M M M M M M N N N N ).N ).....).N N M M M M M N ).=.#.#.#.#.#.#.=.=.=.=.@.@.@...@.........=.=.@.@.@.@.@.....+...+.+...=.@.@.+.+.+.).).....@.@.@. .+. . .I U ) - +   $                                                                                                                                                                                                                                                   ",
"                                                                                                                                                                                                                                                                . % % + -   = ~ _ 3 i i 8 i c 4 < ( 2 > , + $ $ $ + - +   & & $   % - # - j ^ / U S I L -.!.` @.M O M =.` -.O Q 5.|.}.c.h.g.g.d.a.[.<.3.2.9.9.6.0.1.0.9.0.6.0.0.0.0.1.9.2.1.2.6.6.[.:.d.d.g.g.h.c.h.h.h.c.c.c.h.h.h.h.h.h.h.h.g.f.f.d.h.f.g.h.f.f.f.f.f.f.c.h.c.h.h.c.c.c.c.c.c.c.c.c.c.c.c.g.g.g.g.g.d.a.3.[.2.2.0.0.0.0.0.0.0.0.0.0.0.0.2.3.3.2.2.2.[.<./...M M =.=.............@.@.@.-.-.=.=.N N N N ).N N N ).+.+.+.).@.!.` #.` ` ` -.#.-.@...@.#.` -.#.!.-.=.@.+.).).=.#.` -.@..... .=.=.=.$.=.` !.Z !.@.).).N N N ).N N M M M M +. .+.).)...@.N ).).+.+.).N M M M N N ).....@.@.=.#.#.N M M N N +.@...@.=.#.` !.` -.-.-.=.=.......+.+.+.+.).).+...+.).).).N N N M M M M M M M N $.N ).+.......@.@. .=.+.+.I U / & .   $ $ +                                                                                                                                                                                                                                               ",
"                                                                                                                                                                                                                                                            . . + % % - j = ) 1 [ 3 i i i i 7 } ( ! > ; +   $     + +   & & & $ . - # # # # = = ) W S R N -.@.M M N $.-.-.=.N L L ]./.(.}.g.d.g.g.d.:.[.2.2.2.9.1.0.6.0.0.0.0.0.0.0.0.2.2.2.2.2.2.2.1.3.a.d.g.g.h.h.c.h.h.f.h.h.h.h.c.h.c.c.c.h.f.f.h.f.h.f.h.f.h.f.f.f.h.h.c.c.c.h.h.h.f.f.f.f.g.g.g.h.g.g.d.d.a.a.:.6.3.3.2.0.0.0.0.0.0.0.0.0.0.0.0.0.2.3.3.2.0.2.3.[.[.(.L O N ..@.).).+.+.+.+.............+.+.).M ).).N +...........-.-.` ` -.#.=.@...=.Y ..+.).M M ). . .M O L L P L O N #.#...+.).). .#.` ` -.@.@.` -.M M M B N N +.+. .Y Y Y Y ..=.#.#.-.-.#.-.-.#.#.` ` =.).N ).$.$...=.-.` ` !.!.` ..+...+.).+.@.=.=.@.=.=.=.@...@.......+.+.N M N M M M M M O L L P P L L P L L L L P L K O O ).+...@.@.@...@. .Y Y ).J X / . .   & $ + +                                                                                                                                                                                                                                             ",
"                                                                                                                                                                                                                                                            . % + @ + h ; > 1 : } f 4 3 8 7 6 : ~ j & &     @ % @ @ + . . . . $   % h j - . + - - k F S P O M M M -.#.` =.$.N N $.M ].5.(.}.g.g.g.g.d.:.b.2.2.1.6.6.1.9.0.0.0.0.0.0.2.2.2.2.2.2.2.2.0.9.1.[.a.d.c.h.g.g.g.g.h.h.h.f.h.h.h.h.h.h.c.c.c.c.c.c.h.h.h.h.h.h.h.c.c.c.h.f.g.g.g.g.g.g.g.g.d.d.a.a.:.b.3.3.2.2.2.6.0.6.0.0.0.0.0.0.0.0.0.0.0.0.0.3.3.2.0.0.3.2.1.7.].L ..+.+.N N ).).+.+.+.+.+.+.+.).+.@.....*.#.@.#.=.-.-.` ` #.=.+.). .Y N Y ).M O L O K L {.;.P P y m.l.l.v i.n.A K N @...).N +.-.*.*.` +.B N +.@.=.Y Y -.Y =.=.-.-.#.-.=...+.....+.+.+...@.@.@.=.#.#.=.=.-.-.=.=.=.=.-.=.=...+.#.#.-.-.-.=...).N M M M M M M M O O O O O L P P P L L J P ;.x m.m.l.m.l.v n.o.o.o.p.p.o.m.O M ).@.=.=.@.@...@.#.Y Y {.T t   .   & $ - .                                                                                                                                                                                                                                             ",
"                                                                                                                                                                                                                                                          + + + % % + , > ~ : 6 c 4 | } c 6 [ ] > * & $   @ - j j - - - - - + $ $ = @ + $ $ & + j ) / >.H O L O N ` Z ` =.N N $.` !.-.P ]./.(.c.h.g.g.g.a.6.1.9.9.9.1.9.0.0.0.2.2.0.2.3.3.3.2.2.2.2.9.6.6.b.[.<.:.a.g.g.g.g.g.g.g.f.f.h.f.h.h.h.c.c.c.c.h.c.h.h.c.h.h.c.h.g.g.g.g.g.g.d.d.d.a.a.a.:.6.6.3.3.3.6.6.6.6.0.0.9.9.9.0.0.0.0.0.0.0.0.0.0.0.2.2.3.2.0.0.3.3.0.1.<./.Q +.=.@.N N ).).+.+...+.+.).).).+.=.` #.#.=...-.#.#.-.#.-.).M K L P P P L ;.;.;.%.m.l.m.u o.p.p.k.q.q.r.q.s.q.o.%.O +.=...N N @.*.Z ` ).K M ).-.-.=.=.-.#.#.#.#.=. .#.Y @.).N N )... .+. .Y Y +.+.=.` #.@...+. .).M M O O O M N +.+.).N M O L L J ;.;.J H ;.%.y x w m.m.m.l.n.i.o.o.p.p.p.p.k.q.q.s.q.q.q.q.q.r.E q.q.i.L O ).=.-.=.=.....=.Y Y Y P T t %     & $ - +                                                                                                                                                                                                                                             ",
"                                                                                                                                                                                                                                                          % @ @ h % @ ; 2 _ } 8 8 b | } | [ 1 2 = h . $   + # # j , , , ^ ^ j % % ^ ^ h h h h j , ! k t w K B N =.#.=.=.-.=...=.-.-.=.).M ].^.(.}.c.f.g.g.d.:.[.[.1.6.6.9.1.0.0.0.2.2.2.3.2.2.2.2.2.2.1.9.6.b.b.:.:.:.a.d.d.g.g.g.g.g.g.g.f.f.h.c.h.h.h.f.g.f.g.g.g.g.g.g.d.d.d.a.a.:.b.b.6.b.1.3.1.9.9.9.6.9.9.9.9.9.1.1.9.1.0.0.0.0.0.0.0.0.0.0.0.0.0.2.3.2.2.3.b.6.9.9.<._.^.L #.=.).).+...@...@.....+.).).+.#.!...@.`  .).N O L P L O P H %.%.m.l.v i.o.p.k.q.q.q.s.r.r.q.k.r.r r r q s.k.x P ).` ` ..N N ` *.Y B O N ).+.........@.+.+.Y ..@.......=.-.=.@.).N N M M M O O M O M M O O L O K B %.%.%.%.y A m.m.m.l.l.l.v n.i.o.o.p.p.p.p.k.q.q.s.q.q.r.q.k.r.q k.q q r.q q r q q q p p m n m s o.;.O +.=.#.#.=.@...-.-.Y Y L I >.h .   & $ - +                                                                                                                                                                                                                                             ",
"                                                                                                                                                                                                                                                          % @ @ % @ j > 1 | c c 9 7 c } : 1 ) ; , j % . h h h j h j ^ ) ! ! ) 2 k ,.t V &.&.&.F U ~.U ~.H M ).#.#.-.N M ).$.=.-.-.@.=.` Z $.O ]./.(.}.h.g.f.g.a.[.[.b.0.0.0.0.0.0.2.2.2.6.0.6.0.2.2.2.6.2.0.9.9.9.1.[.3.b.6.a.a.d.d.d.g.g.g.g.g.g.g.g.g.g.d.d.d.d.d.a.a.:.:.b.3.[.3.3.b.6.3.1.1.9.0.9.9.9.9.0.6.6.2.2.2.1.1.2.2.0.0.0.0.0.0.0.0.0.0.0.0.2.2.2.0.3.[.9.9.1.6.<.^.P =.#.@.@.@.=.-.-.=.=.@...+.+.+.=.#...+.B L P P H y w l.l.n.o.p.k.q.o o q.s.s.q.q.r.r.q E r.r.r.E t.t.t.r q.q.w {.N !.!.-.M O ..-.=.).M ..@.+.+...+.N M O O O O L L L L L L L L K ;.y y %.y y x w m.l.l.v v l.i.i.o.o.p.p.p.p.k.q.q.q.q.o q.s.s.s.q r.q r.r.q q E r E r t.r p p p m n n u.n u.j.s e.l c c c 3 3 0 0 p H L ..#.` #.-.....-.=.Y @.K I >.h     & $ - +                                                                                                                                                                                                                                             ",
"                                                                                                                                                                                                                                            $             . + + - # j ~ < } b 6 c 8 i c _ ~ = ^ > > ^ ^ ^ ; ; k ,.,.&.&.W U U ~.X T T H I I R I %.M O L B B #.!.-...N O M O N -.` -.=.-.-.!.` O ].^.(.}.}.c.h.g.d.:.[.9.0.9.9.0.0.2.2.2.0.9.0.0.2.3.3.3.2.2.2.0.9.9.0.3.3.3.3.3.3.:.:.:.:.a.a.a.a.a.a.6.:.6.:.6.3.2.0.0.0.2.0.9.0.0.0.0.1.0.2.2.2.2.2.6.2.2.3.2.6.2.3.3.3.3.3.2.0.0.0.0.0.0.0.0.0.0.0.0.0.2.2.2.3.b.9.9.9.0.[.(.Q ..#.=.-.#.#.-.-.-.-.-.@...+.+.).).).O L y n.n.o.p.k.s.o s.o s.r.s.r.k.q q r t.t.r t.r E q k.E r t.t.t.t.r.q.n.{.M !.Z ` N O N M O L L M M O L O M B y y y y %.x m.l.v n.n.n.n.i.C p.D k.E D k.q r.o s.s.s.o s.s.s.s.r.r.q p r r r r t.E r r t.r p p p m m n u.u.s j.s e.l 3 l e c 6 6 g g g g g f d d 5 b } | 5 a m %.L $.-.` ` -...@.=.@.` ).B Q F h     & $ + +                                                                                                                                                                                                                                             ",
"                                                                                                                                                              + + + + +   $ $ $ $ $ $ $ $   . .   * . .       $ * % + + . . .   . . . .   $           .   . * # ; > ! ( | d 6 6 g 0 6 [ t.t t V >.F U U ~.X X '.T T I I I I I I J ;.L J ;.;.N  .Y #...N ..@.-.-.@...$.N N N ).=.-.-.=.@.-.` !.` N P Q 5.(.(.(.c.g.g.a.b.9.9.9.1.1.2.2.2.2.9.0.0.2.3.3.3.2.2.2.0.1.9.2.2.3.3.3.3.[.3.[.3.[.[.[.[.3.3.3.3.3.2.0.2.2.0.2.6.0.2.9.9.0.0.0.2.0.2.0.0.2.2.2.3.2.2.2.2.2.2.2.2.2.2.2.2.0.0.1.1.0.0.0.1.2.1.1.1.2.2.2.3.3.3.0.0.6.2.2.7.^.P N ..` ` =.).M ..#.` -.).+.+.N #.).M z p.q.s.o r.r.r r r r r E t.t.t.t.t.t.t.t.p t.p p m n u.n u.j.j.e.e.l u R O !.!.` @.N L J w l.l.v n.n.i.i.i.o.o.p.p.p.p.k.k.q.q.q.s.s.r.s.s.r.r.r.s.q p r t.t.t.t.t.t.t.t.t.t.t.t.m t.m m n n j.j.j.j.e.l l c c c 7 6 g a a 0 5 f f 9 0 5 g g g g g 5 5 d d d f d f 4 } c a e.w O N ).-.` ` ..+.=. .Y ..N J U h .                                                                                                                                                                                                                                                       ",
"                                                                                                                                                            $   + - - +   $ $ $ $                       & $   . %   @ @   % % .   * * *   .     . % h - @ % - ^ / / ( | c l s o r.D u G ~.'.T ^.S H ;.O O M N N  .Y Y *.Y Y #.` =...).).N ).+.@...+.).).+.........@.........@...@.@.=...@.$.-.` Z #.M {.].5.(.(.c.c.g.g.b.9.9.6.6.0.2.2.1.2.1.2.2.2.3.2.2.2.2.2.2.2.2.2.3.2.3.3.2.2.2.2.2.2.2.2.2.2.2.2.2.2.2.2.2.2.2.2.2.0.0.0.0.0.0.0.0.0.0.0.0.2.2.2.2.2.2.2.2.1.2.2.2.2.6.2.0.0.0.0.0.9.9.0.0.6.2.2.2.2.2.2.2.6.2.3.3.2.2.<.|.R M ).` ` #.).M ).-.` =.).+.+.).@.+.).%.p.q.q r t.p p t.p p m m n n n s s e.l c l c 3 3 c c 7 0 9 e 9 0 a g C R O ` ` -.#.N %.i.s.q s.r.r.s.r.r.q r.m s.m p p r r t.r t.t.t.r t.t.t.t.t.p p p p m m m n n n j.s s l l e 3 } } } } f 6 6 a a 5 d g g g a g a a a a a a 0 a 5 5 a a a a a a a a a a a a a a 5 b e a i l.B N M ..` !...).@.+. ...).O U %   + j + $ $                                                                                                                                                                                                                                             ",
"                                                                                                                                                            $ $     . . .     . - j , j + % % % % % .         & &   $ $ $     . h h h h j h h h j ^ , ' k k t >.F F u v w A y B K J J I Q Q J H ;.;.P L K B ).+. . .Y  . . .=.=.@.+.).N ).+.@.@.=.@...+...........@...@.@...@...@.+.N N M M ).$.` -.@.O {.].^./.(.}.c.f.f.d.:.[.[.6.0.1.2.3.2.2.2.2.2.2.2.2.3.3.[.[.6.2.2.6.2.2.2.2.2.2.2.2.2.2.3.2.3.2.2.2.2.2.2.2.2.2.2.0.3.3.0.3.3.0.3.3.0.3.3.3.2.6.6.2.2.3.3.6.3.3.3.3.3.3.9.9.9.9.9.1.9.1.9.9.1.9.1.2.2.2.2.2.0.2.2.2.3.<.8.].+.#.@.+.#.-.....@.=...N +.@...)...Y O o.r.r t.r s e.j.3 c 4 c 6 6 6 6 6 6 6 6 f g g g g g 6 5 0 0 0 6 6 } t.Q M ` ` =.=...l.s.s.E r.r p r r r t.t.t.E t.t.t.t.p t.p m m m n n n s s s e.e.l l c c f g 5 a a 5 5 5 5 0 6 6 5 g g 5 5 a a a g a a 5 5 a a a a a a a a a a a a a a a a a a a a a a a a a a 7 5 b a g n.M N M ..` ` ..).@... ...+.O ~.)   % - + $ $                                                                                                                                                                                                                                             ",
"                                                                                                                                                            $ $     .         . % - j - + % % %   @ + + @ @   . + @ @ + - - j j ^ ) ! 2 k k ,.V >.W F ~.~.X '.'.S H J {.K B ..*.*.*.=.N N +.Y ` *.z M B ).+.+. .=.@. ...).N +.@.=...@...@.=.-.#.#.#.#.-.@...........@...@...@...@.+.).M O O O N =.-.#.!.$.L {.^.^./.(.(.}.c.d.:.:.b.9.9.6.0.0.0.0.0.0.2.0.2.2.3.[.3.2.0.2.2.2.0.2.0.0.0.0.0.2.2.2.2.2.2.2.2.2.2.2.2.2.2.0.0.0.0.6.0.0.6.0.0.6.3.6.0.0.9.0.0.6.6.3.b.3.3.6.0.0.1.9.b.b.b.a.a.d.a.a.a.6.:.b.3.0.6.9.1.9.0.2.2.2.<.7.5.L *.).M @.` !.=.+.+.).N ..=...+.@. .P o.q.r r r l g 6 g g g g g 6 c g 6 6 6 6 6 6 b 6 6 6 6 a 5 d b 6 c g t.H ;.` !.=...M o.q.r q r.E r p m m n n n n s s s e.e.l e c b g g g g 7 6 0 0 0 0 0 0 6 g 6 5 g a 5 a 5 0 b 7 b 6 b 5 6 a a 6 5 6 a a a a a a a a a a a a a a a a a a a a a a a a a a a a a a 5 b 5 g a C O M N ..` ` ..)...@. ...).O X ) & % - + $ $                                                                                                                                                                                                                                             ",
"                                                                                                                                                                  .       $ $ $ $     . .     @ - - # # # > , ^ ^ ^ ^ ^ > ' k V &.>.W U ~.X T H H J L J {.I I J K M =.Y B N @.` !.#.-.@.N ). .` *.#...Y -.#.!.*.` #.=.....).+.=.=.=.=.=.#.#.#.` ` ` ` #.@.............@...@...@...=.@.N M O O O $.#.!.` !.!.-.$.O ;.]./.(.}.}.f.a.:.:.[.9.0.0.9.0.0.9.0.0.0.0.2.6.2.0.9.9.9.9.0.0.0.0.0.0.9.0.9.9.1.0.0.0.0.0.0.0.3.6.3.3.0.0.0.0.0.0.2.0.0.0.0.0.0.9.9.9.0.0.6.6.3.9.2.0.9.9.6.:.:.a.d.d.h.h.h.h.g.c.c.d.:.b.b.9.6.9.1.6.2.2.3.4.8.R @.M K -.!.Z #.N N N ).@.=.).@.=.+.O i.s.r t.t.e.7 9 c d d d b b d b b f f b f b d 6 5 6 0 6 b f 4 5 6 g s x O ` !.#.).N n.k.r r r q s i l i 8 8 9 5 9 f 9 f f d b 0 g a a 6 7 a 0 0 g 9 g 7 b b b b b b b 4 e f f b d 5 0 0 0 b 6 b 6 5 5 5 a 5 5 a a a a a a a a a a a a a a a a a a a a a a a a a a b e 5 7 5 D M M )...#.` ..).@.@. ...+.K T k - % -                                                                                                                                                                                                                                                   ",
"                                                                                                                                                            $ $ $           $   $     . . . . + - # ) 2 / / t t >.F U U ~.X '.S S S I I I I K K B +.-.#.#.Y M ).Y  .!.` N M ).=.#.-.=.).M N ..-.!.` #.#.#.` ` !.#.#.=.=...).N N ).+.....+...).).).+.....................@...@...@.#.!.-.$.M M M M =.!.` ` ` -.` @.M P Q ].5.5.8.(.c.a.b.b.0.0.0.0.0.0.0.0.0.0.0.2.0.9.9.0.9.9.9.9.0.9.0.0.0.0.0.0.0.0.0.0.0.2.0.2.3.3.3.6.2.0.2.0.0.0.0.2.0.2.0.0.3.[.[.[.3.0.0.2.6.3.[.[.:._.}.(.(.|.|.(.(.(.(.}.}.c.h.f.g.d.:.b.b.b.[.2.2.2.2.[.<./.L O N ` Z Z #.N M N @.@...@.#.#.).L l.q.r r t.e.7 b b f b f f f b 4 f 4 b 4 f f b b 5 6 g 5 b 4 3 b b g l w K !.!.=.N L m.q.p r r p l 9 5 0 6 7 9 9 9 f 9 5 9 0 d b b d d d d d 5 d d d d d f d f b 4 b 3 f 4 4 4 b b d 5 5 5 5 5 5 a a a a 5 6 5 a a a a a a a a a a a a a a a a a a a a a a a a a a a e b b a r.%.M +.+.-.` ..)...=. .+.+.M '.,.= h +   $ $                                                                                                                                                                                                                                             ",
"                                                                                                                                                            & & $ @ # - # j - j - ) ) ) ; ' ) ,.,.&.W F ~.X T '.S H H ;.L O O K N ).+...-.Y  .B ).Y ` ` #.-. .Y  ...=...M M N @.=...+.).).+...=.` #.-.-.#.#.#.-.-.=.@...+.).).).+.@.....).N M M M M N ).+.................@...@...` !.!.-.$.N ).$.=...-.-.-.$.).).$.-.=.).M H ]./.(.}.d.:.[.[.[.[.3.2.2.2.2.2.2.2.0.0.0.0.0.0.0.0.0.0.0.0.0.0.3.3.3.3.2.3.3.2.2.6.2.6.2.2.2.0.0.0.2.0.2.0.2.0.2.2.3.[.<.<.<.<.<.<.<._.(.(.|./.^.^.^.^.^.^.^.^././.(.(.(.}.c.f.f.a.[.[.b.3.2.1.2.2.[.(.Q O N =.` Z #.).M ).#...N )...#. .L w q.r t.t.u.c f 4 b b b f d d f b f f f b 4 f d 5 g 5 5 b 4 4 b b g c l.N ` !.@.N L w s.t.r r.r e.0 6 6 6 6 5 b d f f f f f f f 4 b 4 f f f f f f f f f 3 b b 4 f 4 b 4 4 b f 4 f 5 5 6 6 6 7 b 6 6 5 5 5 a a a a a a a a a a a a a a a a a a a a a a a a a a a a d c 5 a 6 u.y M @.+.=.#...)...=.Y +... .S >.; h %   $                                                                                                                                                                                                                                               ",
"                                                                                                                                                            &     j , ^ > > > ,.V V F F G X T S S S I I I J J O M  .Y ` #.Y ` #.#.Y -.-.-.-. . . .#.` ` ` =...N N M M N ).z  .=.#.-.-.#.....-.` #.+.N ).+...+.+.+.+...).).N @.` !.` !.` =.).N B N )...@.@...................@...@.-.` ` -.@.=.=.=.=.=.$.).M M N ).$...=.=...).L ].^.^.5.(.}.<.<.[.3.2.2.2.2.2.2.3.3.3.3.3.0.2.1.0.0.2.3.3.3.[.[.[.[.[.3.6.3.2.2.1.1.2.2.1.2.2.2.2.2.6.2.2.2.1.3.1.3.<.:._._.8.|.5.5.].R R Q R Q M M M M M K P Q Q ^.^.5.|.(.}.h.d.a.:.[.2.6.6.1.1.[.7.^.Q #.@.@.#.-.+.M @.!...M ....` Y L w q.q t.t.u.b e 4 5 d 5 5 5 5 5 5 5 5 5 5 d f d a a a 5 d f 4 4 d 6 a v K *.` +. .L x q.r r r r s 0 g b g g 6 5 5 5 5 5 5 d d d d f f d d d d d d d d d d d d d d d d d d d d d 5 a a a 5 a a a a a a a a a a a a a a a a a a a a a a a a a a a a a a a a a a a a b b 0 d 5 e.w O -.+...=.+.).+.=.Y ).+.@.S >.' % % *                                                                                                                                                                                                                                                 ",
"                                                                                                                                                          + # ) k 2 t V W W ~.X '.S S I K K K B z +.).+.@.=.=.=.Y #.` ` #.#.Y Y  .@.@.+...).B B ). .=.-.-.=.@.+.).M N N  .-.=.=.=.#.-...=.@.@.@.=.+.).).).+.+... ...).+...+.@.` !.` -.+.M O P P L M ` *.-.....................@...........@.-.-.` -.-...N M M +.$...+...@.@.N +.N O L R ^.'./.(._.4.<.<.[.3.2.2.2.2.2.0.2.2.6.6.2.1.2.2.6.2.2.2.2.2.2.2.2.2.2.2.2.1.1.2.2.[.[.<.<.<.<.4.4.7._.8.}.|.|./.'.^.^.R {.L O $.=.@.=.$.-.-.` ` ` ` =.$.M O P ;.]./.|.(.}.h.a.[.9.0.6.9.0.[.4.(.Q @.@.)...-.@.N -.Z @.O N =.` #.O y p.r.E t.n 7 4 f 5 a g a g a a a a a a a 5 f f 5 a a 5 d f 4 4 d a f i.O #.#.).@.O x k.r r q t.u.a g 6 g g 6 g 5 5 0 5 a 5 5 d 5 5 5 5 5 5 5 5 5 d 5 5 5 5 5 a 5 a a a a a a a a a a a a a a a a a a a a a a a a a a a a a a a a a a a a a a a a a a a a a a a a 0 b a b b 7 w O #.+.@.-.+.).+.-.Y +.+.=.{.F ) .   $ .                                                                                                                                                                                                                                               ",
"                                                                                                                                                          - ,.W U X T H ].Q ].Q ;.L O ..` #.#.Y Y +. ...@.........).B N B ).N N N N N N N N M M M M )...=.-.=.-.=.......@.#.` -...).).+.+.N M M $.).).+.+...).).N N ).z B M L L L O O z y x l.n.m.B B #.=.....................@...N O M M +.=.#.` ` #.=.$.)...-.-.=.@.+.@.=.` !.` #.=.@.M P {.R ].|.|._._.<.<.<.3.3.3.1.1.1.1.2.2.2.6.2.2.2.2.1.2.1.1.1.1.3.[.[.[.[.<.[.<._.7._._.(.|.5.5.].].H J Q P L O O O B B ).+.@.` !.!.$.O O O N +.@.=.-.#.=.$.N M P ^./.|.(.}.d.6.1.9.6.3.3.<.4.^.L ).N )...@...` Z +.O N #.#.#.O H o.s.r t.m 6 f d g g g g g g g g g g g g g f d a a a a d f 4 4 f 5 a D K +.-.)...N ;.p.q r q E n 5 a 6 g g 6 g g g g g g g g 5 g a a g a g a a g 5 g g g g g g g g g g g g g g g a a a a a a a a a a a a a a a a a a a a a a a a a a a a a a a a a a a a a a a a 0 e 0 b 3 g v K #.+.@.=...).).=.` ).+.` {.~.2 - $ . % +                                                                                                                                                                                                                                             ",
"                                                                                                                                                      . . ; ~.S R {.L B Y Y Y $.$.=.` @.N M M N ).).+.+.+.......N M M M M M N N +.@.@.=.=.@. .+.+...@...-.#.#.` ` Y Y ` Z ` #.` #.` =.+.....).M M M B M M K O K O P P J K A w l.u C D p o s e.i s n.P O ).....................@...N O O M ).@.=.-.-.-.-.=.-.#.!.!.` -.......@.#.` -.-.=.=.$.N M K P I ].^.T /.|.8.8.8._.7.7.7.7.7.4.4.4.7.4.7.7.7.7.7.8.7.8.8.8.G |.|.5./.^.^.^.^.R R {.{.;.M N @.#.*.Z *.#.=.=.@.Y -.-.` !.Z #.M M M N +.......+.).N N $.).O {.^.5.(.}.d.6.9.9.1.6.6.<.|.Q M  .$.N @.-.` ` ).M ).=.#.` M L C s.q r m c d d g g g g g g g g g g g g g d d 5 g g g 5 f 4 4 f 5 g q H M @...@.$.K o.o E q p m 6 a 6 g g 6 g g g g g g g a 0 a 0 0 a 0 a 0 0 a 0 a 5 5 5 g g g g g g g g g g g a a a a a a a a a a a a a a a a a a a a a a a a a a a a a a a a a a a a a a a a 0 8 0 b 3 a u M ` )...=...).).Y ` ).+.!.P X 2 h $ . -                                                                                                                                                                                                                                               ",
"                                                                                                                                                        . ' X {.O ..#.#. .B M M M @.` =.M M M N M M N ).....@.=...N N N N ).$...=.=.-.#.#.#.#.#.-.=. . .Y #.Y *.Y Y Y *.*.!.` ` @.).....N M O L L L P P P H x x v i.o.q m u.s l 7 g a g 5 f b 8 0 E Q P N ......................@.+.N ).$.@...@.......=.-.` !.!.!.` =.+.+...@.=.#.-.=.....#.` #.` ` ` +.M ;.P {.{.R ^.^.^.^.^./.^.5.5.5.5.^.^.^.^.^.^.].I ].Q P P O M K K J J L O M N N ).).$.@.=.-.-.#.@...@.=.#...@.=.-.` ` #.@.@.@.@.@.@.@.=...+.+.)...!.` N O Q 5.|.c.a.6.[.6.0.1.[.7.^.{.` ..N +.!.` -.).N +...` ` M P i.q.r.q r c g d 5 g g g g g g g g g g g g d d 5 g g g 5 d f f f 5 a o y O +.=.=.=.M i.o k.r.r t.3 5 5 5 5 6 5 5 g g g g a 0 0 0 0 0 0 0 0 0 0 0 0 0 5 d d 5 5 g g g g g g g g g a a a a a a a a a a a a a a a a a a a a a a a a a a a a a a a a a a a a a a a a 0 e g 4 4 a D z ` ).+.=...).).=.` B +.!.L T k ^ & . -                                                                                                                                                                                                                                               ",
"                                                                                                                                                        * ) ~.{.;.N #.!.` =.....-.` !.#. .Y Y Y Y Y =.@.=.@.=.=.-.#.` ` #.#.-.=.@.=.........=.=.@.+.).N N .. . .Y  .z z +.).N M L L L K K H %.w w v i.D s.u.e.l c 6 g g 6 6 g c g a g g } | | 8 8 n A L ).......................@.-.` ` ` -.=.+.N N N ).=.` ` =.@.+.N N N +.@.=.@...@.@.=.-.-.#.=.@.@.=...$.).B B N M M K K L P {.{.{.{.{.J H J J K K J O K N N N N ).+.@.=.@...@.@.@.=.=.-.=.=.=.-...).+.....+.).....$.).M M N -.=.=.=.=.=.=.=.=.=.-.-.-.` $.$.-.N L ^.(.}.a.:.[.2.1.2.<.|.P ` -.N ).!.!.N N ).+...*.-.$.P l.s.k.q t.c d d d 5 5 5 g g g g g g g g g d 5 a g g g g 5 4 f d a a e.x O N =.#.#.M n.s.r.q r p j.f d d d b d d 5 5 5 5 5 5 5 5 5 5 5 5 5 5 5 5 5 5 d f d d d 5 5 5 g g g g g g a a a a a a a a a a a a a a a a a a a a a a a a a a a a a a a a a a a a a a a a 0 9 7 4 4 a E z !.).).=.+.).).Y *.).+.*.;.^.,.h $ . + +                                                                                                                                                                                                                                             ",
"                                                                                                                                                          # F R P ).` Z ` ....@.@.-.` *.*.Y Y  .=.-.-.#.#.=.@.@.=.#.#.#.-.-.-.=.@.@. . . .+.=.-.@.).N M M O O L P P P L J J H x x l.u D E s.u.l g d d a 7 7 6 6 6 g d 4 4 4 f g g g g d } } 3 9 0 e.m.O +.........................-.!.` ` #.@...).N N +...-.-...).).N N N +.@.=.-.-.@.+...-...$...@.@.....@.=.@.@.-.` #.#.=. .@...+.).+.+.+.).=.` Y Y ..@.=.@.@.....+...@.-.-.-.=.-.@.@.@.=.@.......@.+.).+...@...+.).N M M M ).@.=.=.=.=.=.=.=.=.=.-.#.#.` $.O ).=.$.P ^.(.}.}.[.1.6.2.[._.].$.-.).).-.=.).@.=.+...` ..$.L w q.q r r l 6 b d 5 5 5 5 5 g g g g g g g d 5 a g g g a 5 d d d g a 7 w L ..#.#.-.O m.q.r.k.t.t.j.5 d d f b d 5 5 5 5 5 d 5 5 5 5 5 5 5 5 5 5 5 5 5 d d d d d 5 5 5 5 g g g g g a a a a a a a a a a a a a a a a a a a a a a a a a a a a a a a a a a a a a a a a 5 0 b b 4 b o y #.....=.+.N ).@.Y B M =.B S ,.j & $ +                               + + +     $ $ $       .                                                                                                                                                                                         ",
"                                                                                                                                                      . @ = >.S P @.!.`  .O +.#.$.+.-.Y Y Y -.Y Y -.@.#.` #.+.N N ....$.@..... . . . . . . .N M M L P P P L H y w l.u u C t.m s b f g 6 g g g g g a a 0 a a a a a g g g g g d d g g g 6 g 3 4 0 9 e.l.O ..........................@.@.@.@.@.@.....+.+...@.@.@.........+.....@...@.@.@...+.).+.+.....@.@.@.@...+.+.....@.@.@.....................................@...@...@.@.@.@.@.@.@.@.................................+.+.+.+...@.@.@.@.@.@.@.@.@.@.@.@.=.N O O N !.` N ].(.c.:.b.9.6.2.4.|.R M @...N ).-.` #.-...@.).M M A q.E t.q s g d 5 a a a a a a a a a a a a a a a a a a a a a 5 a a a 4 l.O ` !.@.=.O w r.r.r.E t.j.a e 9 b d 0 0 a a a d d 5 a a a a a a a a a a a a a 5 5 5 5 a a a a a a a a a a a a a a a a a a a a a a a a a a a a a a a a a a a a a a a a a a a a a a a a a b 0 6 6 a 3 l x N #.-.` +.N +. .z M M M z I V h & &                               + - j - +   $ $ $ $   % %                                                                                                                                                                                         ",
"                                                                                                                                                        . # >.'.O ` ` #.).O ..#.+.). . ...).N M M N @.=.@.=.=. .Y ` ` #.-.@.+.N M O L P P L P H x w v i.C E r u.s l 8 a f 4 f d g 6 5 g g g g g a a a a a a a a a a a a 5 g 5 d g g 6 g d f d e 9 9 v K +.............................@...@...@...@...@.@...@.@.....@...@...@...@.......+.).+.+.@.@.=.=.@.@...+.).).+...@...@.@...@...@...........................@...@.....@...@...................................................................@.@.@.-.$.M O $.` !.$.].^.}.f.:.9.3.1.[._.^.M -...M @.Z -.N ..@.@.).M M y p.s.t.r u.g f a a a a a a a a a a a a a a a a a a a a a a a a a a a u ;.` !.#.).O y k.r.q r t.u.9 9 9 b d 5 0 g a a d d 5 a a a a a a a a a a a a a a a a a a a a a a a a a a a a a a a a a a a a a a a a a a a a a a a a a a a a a a a a a a a a a a a a a a e b g 6 6 4 9 w O =.` ` +.@.` *.`  .N B +.I &.# * $ # @             . . . . .   . . . % - h .           - - %                                                                                                                                                                                       ",
"                                                                                                                                                        . + t '.M !.-.Y B M ..` @.+. . ...+.+.).B ).+.@.Y Y ..M M +.+.M O O O J H x l.n.C D r n u.e.e.i 5 5 0 9 9 9 a a 6 6 6 6 g 6 g a a a a a a a a a a a a a a a a a a a 5 5 g g 6 g g f b e 9 b C O ).............................@...@...@...@...@...@.....@.@...@...@...@...@.@.....+.+...@.@.=.=.=.@.@...+.+...@...@.....................................@...@...@...@...@...................................................................@...@.-.=.$.$.$.$.-...L ^./.(.d.[.[.3.2.<.|.L =.+.N ` Z +.O N @.@.N M M N C o r E u.d f a a a a a a a a a a a a a a a a a a a a a a a a a 0 b D B @.` ` N O H D s.q q t.n 8 0 0 b d 0 0 g a a d d 5 a a a a a a a a a a a a a a a a a a a a a a a a a a a a a a a a a a a a a a a a a a a a a a a a a a a a a a a a a a a a a a a a a 5 b b 6 6 7 4 d n.O @.` #.N ..!.Z *.-.$.$...{.W > % - , -                 . . . .   $ $ $   . . . . + + @ # - +                                                                                                                                                                                       ",
"                                                                                                                                                          - k '.+.!...z M N @.` =.+.+.*.Z *.=. .).M M O O L P J H H x w v C D s.u.e.i i 8 8 a 5 f 9 a 0 9 b e b b 4 } b 6 g 6 6 6 0 5 g a a a a a a a a a a a a a a a a a a a 5 5 g g g d f b b 8 5 C ;.N ..............................................@...@.@.....@...@...@...@...............@.=.=.=.=.=.@.......@...@...........................................@...@...@...@.....................................................................@.@.-.` ` -.$.N ).)...O ^.|.}.}.<.9.6.0._.Q O $.-.` #.N O N @.@.N N M K i.o r r n g 5 a a a a a a a a a a a a a a a a a a a a a a a a a a 5 E K -.#.=.+.O H o.s.q q t.m l d 9 b b 5 0 g a a d d 5 a a a a a a a a a a a a a a a a a a a a a a a a a a a a a a a a a a a a a a a a a a a a a a a a a a a a a a a a a a a a a a a a a 5 d a g g g d 9 C L +.!.` N N ).+.@.+.).=.-.{.W > # @ j -   . .                   $ & & & & $   . . .   $ $                                                                                                                                                                                           ",
"                                                                                                                                                        . - k ~...!...B M ).=.` -...).=.` +.O K K ;.y x l.v i.D r.s l 9 8 i 9 9 9 d 3 } 3 } f 0 0 0 a g b d f f 4 4 4 b g g g 5 5 b 5 a a a a a a a a a a a a a a a a a a a 5 5 g g g g d f e b 9 g r z M ....................................................................................@.=.=.=.=.=.=.=.@.......................................................@...@...@.....................................................................@...@.=.` !.!.=.N M =.-.=.P ].(.}.:.9.9.1.4.5.{.+.` -.N N +...@.@.).).).O i.s.E q n g d a a a a a a a a a a a a a a a a a a a a a a a a a a 0 o H  .-.@...M K i.s.r.r t.t.l a e f b d 0 g g a 5 d 5 a a a a a a a a a a a a a a a a a a a a a a a a a a a a a a a a a a a a a a a a a a a a a a a a a a a a a a a a a a a a a a a a a a 5 b 7 6 0 5 0 p.P N #.` ..N M N ....=.` !.I ~.' +   h .                           & & & $     + % %   $ & $                                                                                                                                                                                         ",
"                                                                                                                                                          - > U ..!. .K M +.-.` #.@.M L L A l.u C r o e.c 5 5 a 0 i i e 9 b 9 e b f b 4 3 4 b 6 6 g 6 6 g 6 c 6 c 6 6 6 g 5 5 b b b b 5 a a a a a a a a a a a a a a a a a a a a 5 g g g d d c b e a o y K ..............................................................................@.@.@.@.=.=.=.=.=.=.=.@.@.@.....................................................@...@.........................................................................@.@.+.-.Z !.-.N N =.` !.$.].5.(.}.9.9.9.<._.^.O #.+.O @.!.=.@...).$.$.L l.s.r E m 7 d a a a a a a a a a a a a a a a a a a a a a a a a a a 9 e.y N @.-.+.N {.v q.r.r t.t.l f e e b d 0 g g a 5 d 5 a a a a a a a a a a a a a a a a a a a a a a a a a a a a a a a a a a a a a a a a a a a a a a a a a a a a a a a a a a a a a a a a a a 5 b 6 g g 0 0 o ;.B @.` Y M M +.-.` !.!.*.J ~.; * . % $ $ $ $ $ $   . . . % % % h h h - j ^ ^ ^ ^ , -   & & $                                                                                                                                                                                       ",
"                                                                                                                                                          - , W K ` N K M =.#.!.#...O x C u.9 a a a a a 0 0 5 4 4 f f d b d d 5 b 0 a 6 6 g 6 5 d d b 6 d g g g g 6 6 g d d d 5 5 b 5 a a a a a a a a a a a a a a a a a a a a a a 5 g g f d e b b 6 e.x O @.@.......@.......................................................@.@.........@.=.....@.=.=...@.-.-.@...@.......................................................................................................................................N ..#.` #.$.).@.` ` ).O ].|.h.a.9.6.b.<./.P N ..N #.!.-.@.@.+.$.@.P m.r.q k.m c b a a a a a a a a a a a a a a a a a a a a a a a a a a 9 l w O =.-.).).L l.s.q E p t.j.0 8 b f d 0 a a a 5 5 a a a a a a a a a a a a a a a a a a a a a a a a a a a a a a a a a a a a a a a a a a a a a a a a a a a a a a a a a a a a a a a a a a a 5 5 a 5 b 6 9 s H O @.#...N N ..-.#.` !.*.J X t ! ^ j ) 2 ) / ! / k / / / ,.t ,.t >.>.>.>.>.>.>.&.' > # . $                                                                                                                                                                                         ",
"                                                                                                                                                          + , >.J -.O M N @.=.` -.@.z u e.8 9 i e e 9 0 0 0 a d d 5 5 0 0 a 0 g g g 6 6 6 6 g 4 4 4 4 4 4 f f f f f d f d f d d d a a a a a a a a a a a a a a a a a a a a a a a 5 5 g g f d g b 9 f c w O ..................................................................@.@.@.@.@...@.=.=.=.@...+.@.@.....=.=.@.......................................................................................................................................N N ..-.#.-.@.@...@.).O O 5.(.g.6.9.9.[.8.^.O $.-.#.!.=.@.=.....=.L m.k.p q q l f a a a a a a a a a a a a a a a a a a a a a a a a a a 0 8 l.;.@.=.).N O m.q.q r t.t.s b 9 9 f d 5 a a a a 5 5 a a a a a a a a a a a a a a a a a a a a a a a a a a a a a a a a a a a a a a a a a a a a a a a a a a a a a a a a a a a a a a a a a a 0 0 a 5 5 g g e.x P -.#.).N )...=.@...=.!.B S U >.F W W U U U U ~.~.X X X X '.'.'.I H H S S I S '.W > > j                                                                                                                                                                                           ",
"                                                                                                                                                          . h V I N M ).+.=.-.#.=.N A o.o i 8 9 9 8 9 g g g g g g 0 d d 5 5 g g g g g g g 5 f b 4 b f f f d d 5 5 5 g d d f d 5 a a a a a a a a 5 a a a a a a a a a a a a a a 0 d d g 5 f b 7 0 3 e a l.L +.@.@.................................................................@.@.@.@...@.=.-.@... ...@...+.=.=.).......................................................................................................................................N N N +.=.` #...M M ).N N {.|.c.d.9.1.3.<./.;.#.` =.#...@.=.@...#.O x D s.r.r j.a a a a a a a a a a a a a a a a a a a a a a a a a a a 7 7 u L +.@.N +.O A p.r.q t.t.u.8 9 b b b 5 a a a a 5 5 a a a a a a a a a a a a a a a a a a a a a a a a a a a a a a a a a a a a a a a a a a a a a a a a a a a a a a a a a a a a a a a a a a 5 9 5 d d g a e.G L =.#.+.N ).+.).M O N Y ` J I I T I H I I {.R {.I {.I {.{.I P L J J J J J B z S '.2 > * $                                                                                                                                                                                         ",
"                                                                                                                                                            h ,.S K N =.=.-.#.` -.O Y p.p l 8 9 9 b 0 0 5 5 5 d 5 g g a 5 5 5 5 d f f f f f d b 9 f 9 b 9 9 9 0 0 0 0 0 d d d a a a a a a a a 5 5 a a a a a a a a a a a a a a 0 d d g g f d 7 0 b 3 a u O +.@.@.............................................................+...........=.=...).N N N M N +.+.N ..-.......................................................................................................................................+.N M N @.#.` -.M O M +.` O ].(.d.a.1.3.[._.].).-.#.+.+.@.@.@.@.#.O H D s.r.r s a a a a a a a a a a a a a a a a a a a a a a a a a a a b 9 C P $.@.N @.M z p.o t.r E n c 0 9 4 b 5 a a a a 5 5 a a a a a a a a a a a a a a a a a a a a a a a a a a a a a a a a a a a a a a a a a a a a a a a a a a a a a a a a a a a a a a a a a a 0 9 d f d g g i l.{.=.#.+.+.#.#.@.M O M ..!.Y M K *.Z Y Y ....=.=.@.+...@. .@. . . .).M M @.!.Z z '.V ' j & $                                                                                                                                                                                       ",
"                                                                                                                                                            % ,.T {...!.#.....-. .O Y o.p e.0 b e 3 4 4 4 4 } | } g g g g g a a 5 d d f f d a 0 a 0 g 0 0 0 0 0 0 0 0 0 a 5 5 a g g g a a a a 5 d 5 a a a a a a a a a a a a a 0 5 d a 5 4 d 6 8 4 3 d i.O ).@.@.................................................................@.@.@.@.@.+.+.+. . .+. .N N ..+.+.=.......................................................................................................................................=...N N ).=.#.=.).N M ).` -.O /.(.a.:.[.3.<./.{.N @.).+.@.@.@.=.` N Q o.s.k.r j.a a a a a a a a a a a a a a a a a a a a a a a a a a a g 7 E {.+.=.N @.).z o.p E r t.m c 0 9 b 4 5 a a a a a a a a a a a a a a a a a a a a a a a a a a a a a a a a a a a a a a a a a a a a a a a a a a a a a a a a a a a a a a a a a a a a a a a a 0 9 5 f f 6 6 e u {...#...-.Z Z !...N N @.` !. .).` Z ` B ).).B ).).Y Y #.Y #.` !.` ..B -.*.Z Z *.].F > - & &                                                                                                                                                                                       ",
"                                                                                                                                                              k X Q @.Z !.=.=.@.N M ).i.p u.5 6 b 4 4 d f f f 4 4 d 5 5 5 5 5 5 5 5 5 5 5 5 g g g g g g g g a g g 5 5 5 a a g g g g g g a a a d d d a a a a a a a a a a a a 0 0 0 d a d 4 d g c 4 3 5 D K $.......................................................@.@.@.@.@.@.@.@.@.@.@.@.@.@.+.N M M O O O N @.@.).....................................................................................................................................@.` #.+.M M +.=.-.#.-.@.).).-.=.Q /.}.:.[.3.<._.^.O =.@...@.=.@.=.` $.P C s.k.r j.6 a a a a a a a a a a a a a a a a a a a a a a a a a 5 5 0 s.P +.@.N =.=.N i.r.t.r r p l 5 0 f b 5 0 a a a a a a a a a a a a a a a a a a a a a a a a a a a a a a a a a a a a a a a a a a a a a a a a a a a a a a a a a a a a a a a a a a a a a a a 0 9 5 f f 6 6 c C {.$.#.....` !.#.+.B +.#.` ` +.O M *.Y +. .).).+. .+..... . . .#.` +.M @.-. .*.*.I U > ^ $ &                                                                                                                                                                                       ",
"                                                                                                                                                            % 2 ~.R ..Z Z +.Y #.M M K v p n g b d d 0 0 g 0 0 0 0 f 4 4 f f d 5 5 0 0 0 0 0 g g g g g g g 5 5 d d d d d a a g g g g g g a a a d d d a a a a a a a a a a a a a 0 5 d a d f b 6 c 4 3 5 s.%.).@.@...).+.@.@.@...........=.=.=...+.+...........+.+.+.).).N N N M O O O O L L L O ;.K y m.m.l.m.O O ..........................@.@.@.....................................................................+.+.+.+.+.+...................+.+.+.@.!.!.=.).M N ..#.` ` =...N #.!.L ^.(.d.<.[.3.[.|.{.#.-...@.-.....-.$.{.v s.r.r n 5 a a a a a a a a a a a a a a a a a a a a a a a a a 5 d a n H ..+.+.@.` O v r.p t.r t.l 9 9 f f d a a a g g g a g a a a a a a a a 0 a a a a a a a a a a a a a a a a a a a a a a a a a a a a 5 5 5 5 a a g g a g a g g a g a a g a g a g g a g a g 0 5 f 4 4 6 6 4 D {.Y ` =.N ).).).).B Y Y *.` N K K z ..=.-.Y ..+.+.).).N N M M +.-.B O ..@.O z ` Q '.' > .                                                                                                                                                                                         ",
"                                                                                                                                                            . ) W R $.Z !.M N +.N +.M n.r.m c 4 4 b 6 g g a a g g 5 d d d 5 5 a a a a a a a a a g a g g a a a 5 5 5 5 5 a a a a a a a a a a a 5 5 a a a a a a a a a a a a a a a a 5 a a 5 6 0 b b b b u.y M ` #.=.M M ..-.-...).+.M ..Z Z Z  .O M N ).N M N ).O O K K ;.J H %.x w l.v n.C D E m u.s e.e.e.u.n.{.$.!.+.).........+.).N ).+.@.=.@.................................+.+.+.+.@.@.)...#.=.+.).....).).+.N N N M M M M +.@...+.+.).).N ).N M M N Z Z !.-.N N ..=.-.-.=.@...` !.-.Q /.}.:.3.6.1._.^.O -.).=.!.N O N N L l.q.r.E j.7 a a a a a a a a a a a a a a a a a a a a a a a a a 5 b a s x N ` =.+.+.O l.q.p t.r t.s a 9 b d 0 a g g g g g g g g g a a 0 0 0 0 9 5 5 a a a a a a a a a a a a a a a a a a a a a a a a a a d b b d a g g 6 c 6 c g 6 6 g b b 6 g 6 6 g 6 g g g g g f 4 } | b 6 5 r Q B *.#.` ..).).).). . .Y =...N N ).+.+.+.N N N ).).).).N N M M +.+.+...+.N N ).$.S &.> h .                     $ $ $                                                                                                                                                             ",
"                                                                                                                                                            % h &.S =.Z ` B M +.+.@.N l.q.m l 4 e g g g g d d g g a a a a a a a a a a a a a a a a a a a a a a a a a a a a a a a a a a a a a a a a a a a a a a a a a a a a a a a a a a a a b 5 g b 5 a c w O !.!.#.M M +.#.` ..).).N ).` !. .L Q J H x A w l.v n.i.C p.q.o u.e.l i c 7 e b b 6 0 6 6 6 6 0 0 n %.M -.+.N +.@.@...+.N N N ).@.=.@...........................+.+.+.+.+.+.-...).` ` N ..#.@...).N ).+...N N N N N +.=.+.)...+.M M O O O O M M N =.!.#.-.-.)...@.@.@.@...` !.` P ^.|.}.6.9.2.<.|.Q ..+.-.#.M O N $.N m.q.r.t.m c a a a a a a a a a a a a a a a a a a a a a a a a a a 5 f l w N ` ` ).).M m.k.p t.r E s 9 9 e f 5 g g g g g g g g 5 5 5 a 0 0 0 0 9 9 5 a a a a a a a a a a a a a a a a a a a a a a a a a a b 9 b d a g g c 6 4 c 4 g c b 4 4 4 b b b 6 5 6 c 7 g g d f } } b g l o H L B Z ` @.+.+...........@.=.=.=.=.=...+.+.N ).+.@.=.=...).N N +.@.=.=...+.N ).-.].U ! h   $                   $ $ $                                                                                                                                                             ",
"                                                                                                                                                              h V S z Z #.B N ..+...N A k.m l 3 3 g g g g d d g g a a a a a a a a a a a a a a a a a a a a a a a a a a a a a a a a a a a a a a a a a a a a a a a a a a a a a a a a a a a a 5 6 a 5 7 0 a l.P ` !.-.M M +.#.#...).).N O  .).L w D p o u.e.l i c g g g g g g g 7 7 b e 3 3 e 0 6 b 6 g g 6 0 7 i l.J -.+.)...@.@.@...N N ).+.@.=.=.........................+.).).+.+...@.@.@.@.@.-.` ` @.+.).+.@.=.=.-.@.` *.-.@...M M M O B z A A A l.l.m.A y L L M +.-.-.=.....+.....#.!.` L {.^.}.:.1.9.<.7.^.O -.` +.M M @.#.M A k.q t.m c a a a a a a a a a a a a a a a a a a a a a a a a a a 5 7 l v L ` ` ). .O y p.p t.r t.n 7 9 b b 5 a g g g 5 5 d f f f d d 5 a 0 0 0 0 0 a a a a a a a a a a a a a a a a a a a a a a a a a a 0 9 0 0 a 5 g 3 } } [ | } | 3 3 4 3 3 3 b b b d d 5 a a a a a g a a a D Q P B +.Y @.....@.@.@.@.=.-.-.-.-.-.` ` ` #.#.-.` ` ` ` ` -.=.+.)...-.-.@.).N N =.{.~.2 # . $                   $ $ $                                                                                                                                                             ",
"                                                                                                                                                            . h ,.T +.` ..B +.@.+.+.).H p.p s g b b 6 g 5 f d g g a a a a a a a a a a a a a a a a a a a a a a a a a a a a a a a a a a a a a a a a a a a a a a a a a a a a a a a a a a a a a a 5 a 6 b 9 C L @.!.@.O N ..#.-...).).N M ..M %.r.9 9 9 9 8 e e e b 0 g 6 b b e e e e 4 e e b 0 a d g 6 6 a 7 8 5 D ;. .).+.@.=.=.=...).).).).@.@.@.........................+.N N ).+...=...=.` Y ....+.#.` #.=.@.+.M N M O L ).A A x m.n.n.i.p.p.p.q.q.q.q.k.p.i.w ;.L +.#.-.-.=...+.+...#. .O O Q 5.}.9.6.<.4.|.{.@.` N M N ` ` $.%.D t.t.m c a a a a a a a a a a a a a a a a a a a a a a a a a a 5 0 e i.L ` ` +.).B ;.p.r.t.r t.n 8 9 b b 5 g a g 5 d f 4 4 4 4 f d 5 a 0 0 0 0 0 a a a a a a a a a a a a a a a a a a a a a a a a a a a 0 0 0 a f 4 4 | 3 3 3 3 e a 0 g 0 g g g 5 a a 6 i e.e.u.u.o m p p C x {.O Y O =.......@.@.@.@.=.=.=.=.=.-.#.` ` -.#.-.-.-.#.#.-.=.@.+.N ..-.` -.).M B  .J '.V j                                                                                                                                                                                         ",
"                                                                                                                                                              - k X ).@.).+.Y =.).+.N K p.p u.b b 5 g g 5 f d g g a a a a a a a a a a a a a a a a a a a a a a a a a a a a a a a a a a a a a a a a a a a a a a a a a a a a a a a a a a a a a 5 c 5 a 5 0 D L $.*.-.M N @.#.#.+.).+.). .@.O x s i i 9 e 3 | | 3 e b b 5 7 7 7 7 a 0 7 8 g 7 7 e b b 6 c g d e g s x L N +.@.-.#.=.@.+.).).+.@.@.@.........................+.N N )...@.@.=.=...).M M B M N N B z A A A n.n.n.o.p.p.k.s.s.r.r.r.s.s.r.r.r q p p r.s.C y P N #.` ` -.+.N N ..+.+.!.N ].|.[.6.3.<.7.^.O ..N N ..!.Z @.H D p t.r l a a a a a a a a a a a a a a a a a a a a a a a a a a 5 5 0 C P ` -.+.M ).;.o.r.q r t.p e 8 9 b 0 0 g g g 5 d d f d d d d 5 a a a a a a a a a a a a a a a a a a a a a a a a a a a a a a a a a 0 0 0 5 4 4 3 c b 6 i l u.o o r.E D C u u v v l.G w w A A y %.H %.J L M @.@.-.@.+.).).+.+.+.+...@.@.@.@.@.@.=.@.@.....+.+.).N ).).).N N +.Y !.` ).M z +.;.I >.j .                                                                                                                                                                                       ",
"                                                                                                                                                              # > ~.N +.M  .=.@.).).z J i.r.n 8 b 5 g g d f d g g a a a a a a a a a a a a a a a a a a a a a a a a a a a a a a a a a a a a a a a a a a a a a a a a a a a a a a a a a a a a 5 6 b 6 a a 9 s.;.+.` #.).N @.#.-.+.).....@.#.M m.s 9 9 5 9 d e 9 b b f d b 6 g 6 6 6 6 6 6 6 6 6 b 4 b g g 5 b e 8 7 v P M +.@.-.#.-.=...).).+.@.@.@.........................+.).).+...@.@...).O O %.A %.l.v n.i.C p.k.k.q.s.s.s.r.r.r.r.r.s.r.q r E r p t.r r t.m n o s.v {.+.*.Z ` +.O M N ..` Z !.L ^._.3.2.:.<.(.Q N ....@.!.Z ` O C p t.r e.a a a a a a a a a a a a a a a a a a a a a a a a a a 6 a a D L @.=.+.N +.O i.q.q r t.t.l 8 9 9 9 9 0 0 0 0 0 0 0 0 a a 0 g 5 5 5 5 5 g a a a a a a a a a a a a a a a a a a a a a a a a a a a a a a 5 f b e n u l.w x y y y B K K ;.;.P {.{.{.L L O N B K K O M +.#.#.Z =.` @.N N N N N N N N ).).).).).+...+.).).).M M M M M N ).N N  .Y Z ` N M z B K J ~.) +             . .                                                                                                                                                                       ",
"                                                                                                                                                              - > U +.B O  .=.=.).+...L n.r.n i b 7 g g d f d g g a a a a a a a a a a a a a a a a a a a a a a a a a a a a a a a a a a a a a a a a a a a a a a a a a a a a a a a a a a a a 5 5 a b 6 a 9 s %.M $.@.+.N @.=.=.+.)...-.).+.M v e.i 9 0 6 g a g 7 d f f f b d 5 g 7 7 6 g 6 7 6 6 f d g 6 6 4 3 l a D H O ).@.-.#.#.-...).).+.@.@.@.........................+.).+...@.@.@.+.O y i.p.k.q.k.p o p p p r p t.t.t.t.t.t.r E r E r t.p m m n n e.l l c 8 8 5 s i.K ..*.!.+.O O M @.!.Z Z ).^./.<.2.<.3._.^.;.` -.$.=.Z Z P u E r r s a a a a a a a a a a a a a a a a a a a a a a a a a a g 0 a r K B -.).@.+.P l.q.q.q t.t.l e 9 9 a a a a a a a a 0 7 7 7 a 6 5 d d d f 5 g a a a a a a a a a a a a a a a a a a a a a a a a a d d 5 a a d 9 0 C R {.M $.N M M M N N N ).+.+.$. .=. .-.-.=.=.@.@.-.#.!.*.#.` =...N N N ).).).).).).).).N ).....@.@...).M M M M N +.+.+.N ).Y Z ` ).B B B  .M X ,.h         .   . .                                                                                                                                                                       ",
"                                                                                                                                                            * % ^ F J M O ..=.@...+...{.n.q.m l 8 7 a a f 4 f g g a a a a a a a a a a a a a a a a a a a a a a a a a a a a a a a a a a a a a a a a a a a a a a a a a a a a a a a a a a a a a a a a a a 9 i x L Y @.+.).@.=.=.+.).@.+.N +.P i.e.4 4 5 g g g g g d 4 4 4 4 4 f f f 4 4 4 f 5 a d 4 d 5 g c b } e 8 l x L M =.=.@.` #.@.+.).+.@.@.@.............................@.=.=.=.+.N O n.q.q.k.q q q q q q E r t.r t.t.t.p p m m n j.j.e.l c 6 g g g g g g g 4 d g 6 i.L N =.).N M M =.!.Z !...P ^._.<.2.1.1.(.R !.-.N N #.Z P v r.r E s a 5 b a 5 5 a a a a a a a a a a a a a a a a a a a a a 9 a m H M -.+.).=.O A p.s.r.o p e.i i l s s u.n m t.t.D D i.u C e.7 g b f f 4 b 5 a a a a a a a a a a a a a a a a a a a a a a a a a d 4 5 a a b 9 9 u {.#.Z Z Z @.).+.+.+...........@.@.@...).N N N )...-.#.#.@.).M N @...@.#.+.+.#.=.@.@.+.).+.@.=.-.=.#.=.N N M M N ` ` =.).z z !.` +.B z B -.` S t ^ $ .     % *                                                                                                                                                                           ",
"                                                                                                                                                              % h F I K M +.=.@.@.@.).L m.q.p l 9 8 5 a f 4 f 5 g a a a a a a a a a a a a a a a a a a a a a a a a a a a a a a a a a a a a a a a a a a a a a a a a a a a a a a a a a a a a a a a a a a 0 i l.P $.=.=.).@.=.=.+.).....+.+.L i.e.3 } 4 g g 5 5 g g 5 5 5 5 d d d f 4 4 4 4 5 a d 4 d 5 g 6 e 3 f 9 7 u Q B M ..` ` @.@.+.+...@.@.@...........................@.=.-.-.=...M P i.q.q.t.t.t.E q E r p p m m n j.s j.3 c 4 6 6 g 5 f 4 f f 4 4 4 6 g d 4 4 5 g c i.{.L N @.$.M =.` ` =.+.O {.^.4.[.1.2.4.^.;.` M O =.!.N l.r.r.t.u.5 a b a 5 6 a a a a a a a a a a a a a a a a a a a a g c a n x O =...N =.M P A i.i.i.n.i.v l.l.w w x %.].I {.{.R {.R R o 6 0 b b 4 b d 5 a a a a a a a a a a a a a a a a a a a a a a a a a f 4 5 a 5 4 b 9 C L ` Z Z ` @.+.+.+.+...+.............+.).N N N N ..@.#.#...+.N N ` Z ` ` ` -.=.=.-.=.-.#...N M N M O O L K J K M O ` ` +.). .!.` +.).z B *.` I F ) $ % %                                                                                                                                                                                 ",
"                                                                                                                                                              h h >.T K M )...=.-.=.N K y p.q s 9 0 0 5 4 4 f g g a a a a a a a a a a a a a a a a a a a a a a a a a a a a a a a a a a a a a a a a a a a a a a a a a a a a a a a a a a a a a a a a a a 0 e C P $.#.=.).=.-.@.).).@.-.#.-.N C l 4 } d g g d f d g g g g g g g g a 5 d d f 5 g f 4 f 5 g 5 c 4 3 d a o ;.B B ).=.#.=.@.+.+...@.=.@.............................=.-.#.-.@.M P i.q.t.t.m m n u.s s e.l c b 4 4 } 4 4 b g 5 g 6 c 6 g g g g f 6 d d 5 g g g 0 d l v {.O =.=.N =.#.@...N N P ].|.<.2.1.<.(.Q O N O $.` ).x k.r E n 0 a b g 0 5 a a a a a a a a a a a a a a a a a a a a 5 c 9 e.w L @.@.#...N O L ).!.!.+.O O L L M M B B ).M O M O B L {.r.l l j.j.3 b 5 a a a a a a a a a a a a a a a a a a a a a a a a a a d f g g 0 4 3 9 D P -.!.#.+.+.+.+.+.+.+.+.+.+.+.+.+.+.....+.).+...@.#.` #.+.+.N ).#.Z !.!.` -.-.#.@.+.).N M P {.L %.A m.l.i.o.o.o.A O +. .+.).-.-...z z ..*.` {.X k + + % .   .                                                                                                                                                                           ",
"                                                                                                                                                              . h t T O @.N +.=.` =.M O y k.q n 0 9 0 5 4 4 f g g a a a a a a a a a a a a a a a a a a a a a a a a a a a a a a a a a a a a a a a a a a a a a a a a a a a a a a a a a a a a a a a a a a a 0 D Q ).`  ...=.-.@.).).@.` !.` Y p.l 9 4 g g g 5 f f 0 0 a a 0 a 5 5 d d f f 4 5 g f 4 f 5 g g 7 3 3 4 6 c l.P B ).N =.=.@.+.+...@.=.@.........................+.)...=.` ` =.M P i.q.t.n | 3 c 8 7 g 5 d 6 6 6 7 6 6 b 6 9 9 g 5 5 6 6 g g g g g 4 f g g g g d 4 4 l v R @...).@.-...).N M N M ^._.<.3.[.7./.{.+.N @.=.N B k.k.t.n e a b a 5 6 a a a a a a a a a a a a a a a a a a a a a e b l l.P =...N ..M N $.N ).).M M M B N $.+.@.Y  . .)...+...M ;.o.o m t.n 3 g g a a a a a a a a a a a a a a a a a a a a a a a a a a d d g g g 4 3 9 D P ).=.N O +.@.@.@.@.@.@.@.@.@.@.@.@.#.` ` =.@.=.-.` #.#.#.@.+. .).).).+.M M B O L K B A m.v v C p.k.q.q.q.s.s.q.p.;.M ..+.N ..@.@.).B #.!.@.K T ,.% = + h . .                                                                                                                                                                           ",
"                                                                                                                                                            . + h / T O -.M ).-.` -.M K B o.r.n 0 e 0 d 4 4 f g g a a a a a a a a a a a a a a a a a a a a a a a a a a a a a a a a a a a a a a a a a a a a a a a a a a a a a a a a a a a a a a a a a a a a p P z ` +.@.=.=...).).@.-.#.` A q.l f d g g g 5 e b 9 0 5 5 5 5 5 d d d f f f 5 g 4 4 4 a g 6 g 3 | 4 6 a o.{.L z ). .......+.@.=.=.@.........................+.).+.=.` ` -.+.O l.q.q j.b e 3 e 3 3 e e a 5 6 6 6 6 g 0 9 8 7 9 0 g 6 6 g g g 6 f f g g g g b | 3 4 e.l.P N ..=.-.@.).M M ..-.{./.4.<.1.<.(.R =.@.N N N %.p.q E m c a 6 6 7 5 a a a a a a a a a a a a a a a a a a a a g 7 4 9 v P  .` ).!.N O ` $.$.M O O O M N +.......).).-.@.` ` M O o.q.t.t.n 7 g 6 a a a a a a a a a a a a a a a a a a a a a a a a a a d d g g 0 4 3 i E P ..#.N O +.=.=.=.=.=.=.=.=.@.@.@.@.` !.` =.@.....=.@.=.=.N O L L P L ;.;.%.w l.n.o.k.p.q.r.s.s.r.q.r.q p r E r.q.%.L @...N N +.Y +...Z ` B K I &.h @ = % * $                                                                                                                                                                           ",
"                                                                                                                                                            % . . / X K #.M N -.!.#.M M P i.r.m 8 9 0 d 4 4 f g g a a a a a a a a a a a a a a a a a a a a a a a a a a a a a a a a a a a a a a a a a a a a a a a a a a a a a a a a a a a a a a a a a a a 0 u.%.M #.@.-.=.=...).).=.+.N M y q.l 4 4 g g g 9 b e 0 5 0 0 0 0 0 0 0 0 0 0 0 g 5 4 4 4 g g 6 g b 4 3 d a o A P ).N  .@.....+.@.=.=.@.........................+.N ).@.#.` #.@.O A q.q u.5 b b f d b b 5 d 5 5 6 6 6 b e e b f b b 0 0 0 0 7 6 6 d d g g g g b 3 c c b u.w P +.-.#.#.+.N Y ..#.M R |.<.2.1.<./.+.!.).O ).N C r.r.m l f b 6 b 5 a a a a a a a a a a a a a a a a a a a a 6 5 } a i.J +.....$.N $.` =.-.=.N $.N N -.=.` ` #.=...+...#.` +.L n.q.r t.m 3 b 6 a a a a a a a a a a a a a a a a a a a a a a a a a a d d g g g f b 9 q.M *.Z =.M ).+.+.+.+.+.+...+.).).).).=.#. .N M O L L O O O %.y y w l.n.C p.k.q.s.s.s.q q q r r q k.q q r t.t.t.r.q.n.K =...M M +.Y  ...Z ` O B I W * h = + @         $ $ $                                                                                                                                                               ",
"                                                                                                                                                            . % * ! U J ` =.+.+.=.=.+.).O n.q.m i b g g 5 d 5 5 5 5 a a a a a a a a a a a a a a a a a a a a a a a a a a a a a 5 a a a a a a a a 5 d 0 0 0 5 a a 0 0 g 6 6 g a 5 d g g g g g 6 g g a a a 9 s x P N ..` =...+.).+.=.=.).P %.r.i 4 b g 0 5 9 0 0 a 0 0 0 0 0 0 0 0 0 0 0 0 g 5 f 4 d 5 g 6 5 b f 4 5 a l v {.z N  .......+.+...-.=.........................+.+.+...=.-.-...O A q.q n g 0 5 0 0 b 0 b d d d d d 5 f e 4 b d 0 5 5 5 5 g g a a 5 5 a a g g d c 3 0 c a s w L  .=.!.Y M Y +.+.@.J ^.8.<.2.<.|.L ).+.M =.O i.r.r p l a 0 b b 5 a a a a a d d a a a a a a a a a a a a a b f b d C L +.#.=.).).$.=.` @.-.+.+.N N =.-.#.#.#.#.-.=.` @.+...M n.q.t.t.m l g 6 a a a a a a a a a a a a a a a a a a a a a a a a a a 5 5 5 5 a 5 9 9 s.K -.` @.N ).).N ).+.@.=.+.).M O M O O O O P P ;.x x w v v o.p.k.s.o s.s.q.r.q q q E r q t.r r r r q E t.t.t.t.q s.D P =.).M =.#.Y ).N !.*.B ).I '.k % * % % %   . . $ $ $                                                                                                                                                               ",
"                                                                                                                                                            $ . * ^ W R Z Z =.M M +.Y Y B v q.r l d 6 g g g a f 4 d a a a a a a a a a a a a a a a a a a a a a a a a a a 0 0 0 5 5 a a g g g g d f d 0 0 0 0 0 0 e 7 0 7 6 0 5 b b 4 6 f 6 6 6 6 6 7 7 7 8 l G P K N +.@.+.N N +.=.` ` L w m g 6 6 0 0 b 4 5 a g a a a a a a a a a a a a a a a 5 a a a a a a 5 0 a 5 0 D J  ...Y ).....).N +.-.=.........................@.@...+.+.+...N M y k.k.n 6 a a a a a a a a a a a a a a a a 0 5 5 a a a a a a a a a a a a a a 5 d g 6 0 6 a s w L @.-.` +.N N ..-.M M ].4.3.4.8.].P -.$.@.M v s.r t.l b 9 b b d 0 0 g a 5 d d 5 a a a a a a a a a a a 5 } 4 7 a t.{.@.-.@.+...@.-.-.@.........@.....@.@.@.@...+.+.+.M M M n.q.t.t.m 3 g 6 a a a a a a a a a a a a a a a a a a a a a a a a a a g a f 4 g g a 8 o J B Y ..-...N M N +.#.` ` z P {.{.z y A l.n.n.o.k.D s.o p p p p r.k.q k.r q q r q r r r r t.t.t.t.t.t.t.m n n u.l u.w O N M *.Z =.M O #.Z #...J S >.h & . h - + - -   & $                                                                                                                                                               ",
"                                                                                                                                                                % , &.I *.Z -.M M ).Y *.M A k.r j.a g g g g a f 4 d a a a a a a a a a a a a a a a a a a a a a a a a a a g a 5 d d d 5 5 d d f 4 4 g g g g g g g 7 0 5 d 4 c } 4 4 b } 3 4 b b b d b b 9 7 s m.P $.*.` =.+.N N ).@.!.` P l.u.c 7 g 0 5 b 4 g g g a a a a a a a a a a a a a a a a a a a a a a a a a d 0 s x O #.+...+...+.).+.=.@.........................@.=.@.+.).).+.).B K o.q u.c a a a a a a a a a a a a a a a a a a a a a a a a a a a a a a a a a 5 c 5 5 a a g 6 n x L Y =.` +.M N M N  .I 5.7.7.5.J ..#.-.).O l.s.t.t.e.9 9 b e d 0 0 g a 5 d d 5 a a a a a a a a a a a 5 } } 7 b t.H ..-.@.+...@.-.-.@.........................+.+.+.M M ..n.s.t.t.m c 6 6 a a a a a a a a a a a a a a a a a a a a a a a a a a g a f 4 g g g 0 u.J N ..+.=.@.+.N N +.-.-.+.M w i.i.p.p.k.q.s.o s.r.r.r.r E r q q r q p q r r r E t.t.t.t.t.p m n n j.e.l c 8 9 9 0 i u P +.).` Z =.M M -.` ` ..L R F ) & $ . @ + - - $ &                                                                                                                                                                 ",
"                                                                                                                                                            . $ h , V S ` ` =.N M N Y Y M %.q.r n a a g g g a f 4 5 a a a a a a a a a a a a a a a a a a a a a a a a a a a 5 d f 4 4 f d 5 5 d f d g g g g g g g g b b 3 } 4 3 3 b f g b 6 0 5 0 0 9 l s o i.J ;.-.` #.-.+.N N ).@.` #.P u u.c c g 0 5 b 4 5 g g a a a a a a a a a a a a a a a a a a a a a a a a a 5 b 9 n.L Y @...+.....@...............................@.=.@.+.).+...+.B J o.k.n c 6 a a a a a a a a a a a a a a a a a a a a a a a a a a a a a a a a a a a a a a a 7 7 o w P ..!.#.+.O L M Y O Q 5.x P +.!.-.=.@.O x k.r t.s d 9 9 e d 0 0 g a 5 d d 5 a a a a a a a a a a a 5 } 4 6 a m y N =.@.....@.-.-.@...........................+.).M M N l.q.E t.p l d 6 g a a a a a a a a a a a a a a a a a a a a a a a a a g a f 4 g g g 0 u.H N ).).@.-.@.).).+.=.N M i.s.q.q.s.s.r.q q q r.r.r r r.r.r.r.q t.r t.t.t.t.t.t.m m u.s e.l l i i 9 9 9 8 9 8 0 9 0 E P M @.` ` @.N N =.` -...M Q X ,   & . +   + . $ &                                                                                                                                                                 ",
"                                                                                                                                                            . $ % , ,.T z @.=.@.M B ` Y ).%.p.r n 7 6 g g g a d 4 5 a a a a a a a a a a a a a a a a a a a a a a a a a 5 f 4 4 4 4 4 d g g g g 6 6 g f f f f f 4 4 4 4 3 4 } 4 g g g g 0 l e.u.q p.i.l.x H L K ` #.*.Z =.+.N N )...` #.P n.u.6 6 g 0 0 f 4 g g g a a a a a a a a a a a a a a a a a a a a a a a a a 0 b g q ;.N =.#.)...=.-.@.N +.........................@.=.@.+.+.+... .M J i.s.p e.g a a a a a a a a a a a a a a a a a a a a a a a a a a a a a a a a a a a a 6 b 6 a 8 7 u.x L -.!.-.M O O N ..=.L P  .Z Z -.+.$.L %.k.q t.s 9 9 b e d 0 0 g a 5 d d 5 a a a a a a a a a a a 5 } 4 7 a u.w M @.@.....@.=.=.@...........................+.+.N N -.m.r.r t.t.c g 6 a a a a a a a a a a a a a a a a a a a a a a a a a a g a f 4 5 g g 0 s y M +.=.#.` -.+.).+.@.O A p.q.q q q r t.p p t.t.t.r r q E E r.r t.t.m m n j.l e 7 e 9 8 9 9 9 9 9 9 b b 0 b e 0 9 9 u.x L =.` +.).)...=.-.-...B B '.k h & . .       $ $ + +                                                                                                                                                             ",
"                                                                                                                                                                % # k T B ).=.=.M M #.Y  .K i.q m 0 5 g g g a d f 5 a a a a a a a a a a a a a a a a a a a a a a a a a 5 5 d d d d d f d d d g g g 4 } } } 4 f d e b 5 a a a 8 e.u.r D C n.m.x ;.{.P L O M B +.#.Z *.@.@.).N N ..=.` =.J u u.g 6 g 0 d b 4 a g g a a a a a a a a a a a a a a a a a a a a a a a a a d e 9 l w K +.` )...-.` =.N ).........................@.=.@...+...@.@.N L n.q.t.j.a a a a a a a a a a a a a a a a a a a a a a a a a a a a a a a a a a 6 6 5 5 b 5 a b 8 9 u.x P #.#.@.$.M M =.` ` #.#.Z Z -.N O L H k.s.t.n 9 9 e b f 5 0 g g a 5 d a a a a a a a a a a a a 5 4 } 7 0 l m.L @.......@.=.=.@.........................@...+.N M N A k.r r t.l f g a a a a a a a a a a a a a a a a a a a a a a a a a a g a f 4 5 g g 9 s y M +.=.-.` #.....+.+.L A q.s.t.t.m t.t.t.t.t.t.t.t.t.p m o u.u.s 3 e b d 9 c c 7 0 0 b b b 4 d b f 4 f 3 b e d d b i n.P =.` M N @.-.@.@.-...+.#.S &., $ %   $ $   $ $ @ +                                                                                                                                                             ",
"                                                                                                                                                            $   . # 2 ~.J M =.#.M N Y #. .J n.s.p c a g g g a d f 5 a a a a a a a a a a a a a a a a a a a a a a a a a g g g g g g 5 4 } } } 4 d d f 4 4 f 5 a a g i u.r D u v m.A H L L P L M N Y ` ` #. .Y #.=.#.#.` ..).).+.@.#.!. .K C e.6 6 a 0 d b f g g g a a a a a a a a a a a a a a a a a a a a a a a a a d 3 7 5 C L Y +.+...#.!.-.M N ........................@.=.@.@.+...=.-.+.J m.q.p l a a a a a a a a a a a a a a a a a a a a a a a a a a a a a a a a a a b 6 a g b 6 b c 3 b 8 u.x L =.` #...N ).#.....#.-.-.+.O M N M o.k.t.u.7 9 9 e d 5 0 a g a 5 d a a a a a a a a a a a a a } 3 6 0 9 l.O +.....@.@.=.@...........................@.@...).N +.y k.r t.t.l g a a a a a a a a a a a a a a a a a a a a a a a a a a a g a f 4 d g a 8 e.x M ).=.@.#.-.@.....@.L x k.p t.t.t.r t.t.t.t.n n j.j.e.c c 6 a 5 6 g a a 0 b b b b b b b b b b 4 b b 4 b f f b 4 e 4 D L .. .O ).=.` @.+.=... .Z R U ' - % $ $ $ $   . # -                                                                                                                                                             ",
"                                                                                                                                                            $   + - ' U J K -.` M N -.#.+.L n.o t.e.5 g g g a 5 d 5 a a a a a a a a a a a a a a a a a a a a a a a a a a g 6 c c a b 3 3 3 4 f 5 8 0 0 8 l o D C v m.A y O P L L O M M N ).+...@.@.=.Y -.@.@.-.#.-.....+.).).@.-.` ` +.%.D e.6 c 6 a d b f 5 g g a a a a a a a a a a a a a a a a a a a a a a a a a 5 4 f 0 o J z ).).@.#.!.-.M N ........................@.=.@.@.....=.=...L x q.q s g g a a a a a a a a a a a a a a a a a a a a a a a a a a a a a a a a a a a a 5 5 6 d 3 3 e 0 n x K -.*.=...N ).N M N =...N M M $.O n.q.r m b 9 e e f 5 0 a a a 5 5 a a a a a a a a a a a a 5 4 } 6 9 5 u O N ..@.@.@.@.@...........................=.@.+.+.N +.y k.q r t.j.g g a a a a a a a a a a a a a a a a a a a a a a a a a a g a f 4 d g a 0 e.w M ..=.=.=.@...@.@.@.O x k.r t.t.t.t.p s l e e e 9 9 d d f f d 5 g 6 g g a 5 b b b f d 5 d 5 5 5 5 5 5 b d d b b d 5 n x M ).B B #.` ..+.=.@.@.` J X ,.^ %   $ $ $   . - @                                                                                                                                                             ",
"                                                                                                                                                            $   . + @ F S O =.` N N =.#. .P m.q.r e.a g g g a a 0 a a a a a a a a a a a a a a a a a a a a a a a a a a d 4 9 9 0 0 0 9 9 8 i e.o q C n.w y H ;.L O L K N @.-.=.).N N ).).+.+.+.....@.@.@.+.+.+.+.+.).).).).+.=.#.` ` +.%.k.e.g 6 g 0 d b d g g g a a a a a a a a a a a a a a a a a a a a a a a a a 5 4 3 b l l.O ).+.=.` ` =.N ).........................@.=.@.@...@.-.=. .K y q.q u.a a a a a a a a a a a a a a a a a a a a a a a a a a a a a a a a a a a a a a a a 5 d 0 c 0 9 5 s.x L *.Z ` ).M M N )...@...N +.=.+.n.s.r p c 0 8 e f d 5 a a a a 5 a a a a a a a a a a a a g 4 b 6 9 b C O M +.@.@.@.@.@...........................@.......+.@.y p.r.r t.s g g a a a a a a a a a a a a a a a a a a a a a a a a a a g a 4 4 d g a 0 e.m.O +.-.=.@.....@.=.=.O w k.p t.t.q p s 7 d 7 0 0 5 f f 4 4 4 4 5 g g g g g g 5 5 5 5 5 5 5 5 5 g g g g g g g g 5 a 9 i v L M B N -.#...+.=.@.+.@.M T V ^ -     $ $   % - @                                                                                                                                                             ",
"                                                                                                                                                              $ % @ j >.S K -.-.).N @.#.@.L x k.q s d a g g a a a a a a a a a a a a a a a a a a a a a a a a a a a a a d e e 0 l s u.s.p.i.l.w z M B M M M B +.+.+.@.-.` #.-...M M N N N ).+...@.@.=.=.=.+.).).N N N N ).+.@.-.#.` ` N %.k.s g 6 g 0 d b d a g g a a a a a a a a a a a a a a a a a a a a a a a a a 5 b } e e D {.O @.=.-.-.@.).+.........................@.=.@...@.=.-.-...K %.p.q n g a a a a a a a a a a a a a a a a a a a a a a a a a a a a a a a a a a a a a a a 4 b 5 6 7 g 9 d p %.Q Y *.@.N +.=.#.#.` -.@.` ` -.m.r.t.m c 9 b b f d 5 a a a a 5 a a a a a a a a a a a a a 4 4 6 6 0 C ;.M +.@.=.@.@.............................@.......+.@.$.p.p r t.s g g a a a a a a a a a a a a a a a a a a a a a a a a a a g a 4 4 d g a 5 l m.O +.-.-...+.+.@.-.-.O A k.p p p q p c g 0 7 7 5 d d d d 5 g g g g g g g g g g g g g g g g g g g g g g g g g g g g 0 0 D K O B ).+.=.....=.@.).N B K F > j     $ &   % + +                                                                                                                                                             ",
"                                                                                                                                                              $ h $   t S O =.@...+...=...O %.k.q n 6 a g g g a a a a a a a a a a a a a a a a a a a a a a a a a a a a 9 i r C v w y J Q P O +.#.*.#.=.#.-.-.-.=.` =...+.+.).+.=.=.=.=.@.@.@.@.@.......+.+.+.).N N N N +.@.=.-.-.-.#.O x k.e.6 b a 0 d f d g g g a a a a a a a a a a a a a a a a a a a a a a a a 5 g 3 b 3 e o %.L ..@...+.@.@.@.........................@.=.@...@.=.-.` =.K J o.r.n 7 a a a a a a a a a a a a a a a a a a a a a a a a a a a a a a a a a a a a a a a 3 } g 6 c 6 b d 5 m %.{. .` ..-.!.!.` ` ` #.!.` *.A r t.r l 0 8 b f d 5 a a a a 5 a a a a a a a a a a a a g 4 c 6 0 a E K O ).@.=.@.@...................................@...=.N C r.r t.u.7 g a a a a a a a a a a a a a a a a a a a a a a a a a a g a 4 4 d g a 9 l l.O ).=.-.+.)...-.` #.O A q.q r q q m c 5 b b b d d 5 5 a g g g g g g g g g g g g g g g g g 5 g a g g g g g a g a g 9 0 u.x L Y ..).....=.=.@.N M Y ).~.' , + +   &   % .                                                                                                                                                               ",
"                                                                                                                                                            $ * h     t '.L -.+.@.@.+.=...M %.o.q n 7 a d 5 g g g a a a a a a a a a a a a a a a a a a a a a a a a a a a m %.R P N $. .=.+.$.#.*.Z !.` #.-.......+.N M M N M +.Z Z Z *.!.` -.=...).N M N ..@...+.).).+...=.=.=.=...=.M w r.l b c d 5 d e d a g g a a a a a a a a a a a a a a a a a a a a a a a a a 6 c 4 b 9 i v {.$.@.+.N +.#.-.........................@.=.@...@.=.#.` @.O J C s.p c a a a a a a a a a a a a a a a a a a a a a a a a a a a a a a a a a a a a a a a b 3 6 6 6 6 b 4 e 5 m x P N ).-.Z !.#.#.=.=.!.` Z y r p p e.6 9 b 4 b 5 a a a a a a a a a a a a a a a a a 5 d f 6 b a o y O ).@.=.@.@.................................@...@.=.M n.r.q t.n 6 6 a a a a a a a a a a a a a a a a a a a a a a a a a a a g 4 4 f 5 a b l n.O N @.=...+...#.` ` O x q.r t.q r.m c d d b b b d a a g g g g g 5 5 5 5 g g g g g g g g 5 5 5 0 a a 0 a 0 g a 5 5 0 9 0 l.J ` #...N @.-.-.@.).O Y @.T t , j j   & $                                                                                                                                                                   ",
"                                                                                                                                                            $ $ % . . k X M -.N =.=.).=...M P i.r.p c a d 5 g g g a a a a a a a a a a a a a a a a a a a a a a a a a a 0 m %.{.$.@.` ` @.B M N @.#.=.=.-.#.=.@...+.@..... .+...` ` ` #.-.-.=.@.@.@...+...-.#.=.@...@.@.=.-.-.=...)...M v s.l d 4 d 0 d f 5 g g g a a a a a a a a a a a a a a a a a a a a a a a a a g g b b 8 9 D P ).=.).M ).` -...........................@.@...@.=.#.` -.M K i.s.p l a a a a a a a a a a a a a a a a a a a a a a a a a a a a a a a a a a a a a a a 0 8 b d d g 6 4 f 8 9 m y L M ..!.@.B N M M #.*.Z z D m t.e.8 9 b b f 5 a a a a a a a a a a a a a a a a a g f 6 6 f 8 s y O ).@.=.@.................................@.+.+.@.#.;.v s.q t.n 7 g a a a a a a a a a a a a a a a a a a a a a a a a a a a g 4 } d 5 5 9 l n.L N @.=.....@.` !.!.O x k.r t.r q m c 7 9 7 0 b 5 5 5 g g g g d f d d d 5 5 5 5 5 5 5 5 d d d 0 0 0 0 0 0 0 5 d d d 9 5 D K #.#.N M @.#.-...).M Y Y I &.^ j , + & $                                                                                                                                                                   ",
"                                                                                                                                                            $ $ @ + $ 2 ~.L -.).=.#.)...+.N P n.o t.l 5 d 5 g g g a a a a a a a a a a a a a a a a a a a a a a a a a a a n x {.M ` ` +.+.M M M N ).=.=.@...=.=.=.@.#.=.....#.=.).).).).....@.@.=.=.-.-.-.` ` -.=.@.=.=.-.-.=.@.).).N O n.s.c 6 3 6 d d e 5 a g a a a a a a a a a a a a a a a a a a a a a a a a a a g 6 b c 3 9 s w N =.N O N !.#...........................@.@...@.=.#.` =.).P v k.r c 5 a 5 5 5 a a a a a a a 5 a a a a a a a a a a a a a a a a a a a a a a a a a a 0 9 d 4 } 4 6 5 l b 8 8 s.%.Q N =.+.M O O O @.` Z z C p r s 7 9 5 b f 5 a a a a 5 a a a a a a a a a a a a a b f 6 d e l w L +.=.=.@...+.............................@...+.@.=.O n.o q t.n 7 a a a a a a a a a a a a a a a a a a a a a a a a a a a g a f 4 d 5 a b i n.O +.=.=.@...=.` ` ` O x p.p t.t.E o c g 7 7 7 b 0 5 5 5 5 5 5 d d d d d d d d d 5 5 5 5 d f d 5 0 0 0 0 0 0 0 d f b 8 8 u.y -.=.N O =.` #...N ).+.#.I U ) j j + & & $                                                                                                                                                                 ",
"                                                                                                                                                              $ %   % + W P ..).` #.@.+.).).M n.s.r j.f b d 6 6 g a a a a a a a a a a a a a a a a a a a a a a a a a a 9 e.w P $.` -.)...).N N ).=.=.............@.@.@.@.@.@.@...+.+.+.........@.@.@.@.@.=.=.@.@.@.@.@.@.@.@...+.+.N L i.s.g c b 5 0 0 d 5 g g a a a a a a a a a a a a a a a a a a a a a a a a a 5 6 b g c 3 e i i.O -.M L B ` ` ..........................=...).@.=.=.@.).+.O A q.t.e.a b b f f b a g g a a 5 d 5 a a a a a a a a a a a a a a a a a a a a a a a a a a 0 5 d f 5 g b f g 0 0 c o %.K B *.@.M N O +.-.Y L n.o r n 9 7 5 b 5 a a a 5 d d 5 a a a a a a a a a a a 5 g b g g 8 9 w L @.#.-.@.+.............................+.@.` #.).N O n.q.q t.m 7 a a a a a a a a a a a a a a a a a a a a a a a a a a a g a d f g g a b 9 n.P -...@.....+.=.#.#.O y D r.r r r n c a 7 g a a a a a a a a a 5 5 5 5 5 5 5 5 5 a a a a 5 5 5 a a a a a a a a 5 5 0 8 e 0 l.O  .N ).` Z -.).M N ` ` K T / h + $ & & $ j -                                                                                                                                                             ",
"                                                                                                                                                              $ % $ % % W I @...#.Y @.).+.).O m.q.E j.e 3 6 6 6 g g a a a a a a a a a a a a a a a a a a a a a a a a a 0 l l.Q =.#.@.+.....).N +.-.=...............................................................................N P i.p a 4 4 g g 5 b 5 a g a a a a a a a a a a a a a a a a a a a a a a a a a a 5 e 6 c 4 3 0 k.z B M ;.O Z #.........................@.@.+.).@.=.@...N ).N m.q.r j.a d b 4 f b a g g g a d d 5 a a a a a a a a a a a a a a a a a a a a a a a a a a a a a a g a 6 g b b 5 a 5 o y K =.#.=.M N =.+.N K n.s.t.n 9 7 5 d 5 g a a 5 d d 5 a a a a a a a a a a a a 5 b 5 g 7 5 G ;.-.#.@...+.+...........................+.=.!.` ).M O l.q.q E m 7 6 a a a a a a a a a a a a a a a a a a a a a a a a a a g a d d g g a 0 8 i.{.` Y @...+.+.@.=.#.M y p.r.r r E n 6 a b 5 a a a a a a a a a a a a a a a a a a a a a a a a a a a a a a a a a a a a 7 e a D {.B N +.!.Z #.).M M ` Y @.H V j @ $ $ & $ j ,                                                                                                                                                             ",
"                                                                                                                                                                % * . % &.Q ....=.#...N )...N A q.r n e 3 b 6 6 g g a a a a a a a a a a a a a a a a a a a a a a a a a 0 9 u L =.-.........).N +.-.=...............................................................................B K o.o 6 f b 5 0 0 d d g g a a a a a a a a a a a a a a a a a a a a a a a a a a g d 6 a 3 3 9 e.m.O M M M !.` ........................@.@.+.)...=.@.+.N N ).A k.r j.a 5 f 4 f b a g g g a d d 5 a a a a a a a a a a a a a a a a a a a a a a a a a a a a a a a 5 6 a a c c b c d s.y L #.=.M M ....).L l.q.t.m 8 7 g 5 g g a a 5 d d 5 a a a a a a a a a a a a g b 5 a 0 a u L =.=.+.@. .)...........................+.=.!.#.N N O m.q.r.t.m c c a a a a a a a a a a a a a a a a a a a a a a a a a a g a d d g g a 0 e C P #.@.....+.+.@.=.#.M %.p.s.r r E u.7 a 7 5 a a a a a a a a a a a a a a a a a a a a a a a a a a a a a a a a a a a a 9 b 6 u.H K ).+.!.*.` +.M N -.=.-.R W ,   $ $ & $ - j                                                                                                                                                             ",
"                                                                                                                                                            $   % $   h V I B ..=.#.@.N N @...y k.r.m 3 d 6 6 6 6 a a a a a a a a a a a a a a a a a a a a a a a a a a 0 a C {.=.-.........).N +.-.=...............................................................................M y p.u.c f c d g 5 9 d 0 g a a a a a a a a a a a a a a a a a a a a a a a a a a a 5 6 6 b e 8 a i.P M N =.-.` ........................@.=...)...@.@.).).).N z o.r n a 5 b b f b a g g g a d d 5 a a a a a a a a a a a a a a a a a a a a a a a a a a a a a a a a b 6 a b b 6 c b g r.y L ). .).+.@.).P x r.r m 7 7 5 5 g g a a 5 d d 5 a a a a a a a a a a a a 5 5 d 6 7 a D Q =.@.@.-.=.+...........................).@.` #.).N O A q.r.t.p 8 b a a a a a a a a a a a a a a a a a a a a a a a a a a g a d d g g a 0 9 C P Y @.....+.+.@.=.#.M y p.r.r r r u.6 5 b g 5 5 a a a a a a a a a a a a a a a a a a a a a a a a a a a a a a a a a 5 d b 0 l l.J N +.-.!.!.=.M +.).#.@.Q ~.2 +     $ $ - -                                                                                                                                                             ",
"                                                                                                                                                            &   -     % t T L +.#.#.@.+.)...).Y p.p m e 5 6 6 6 g a a a a a a a a a a a a a a a a a a a a a a a a a a a f C P ..#...+.@.@.).N +.-.=...............................................................................L y k.o c f f g 0 0 d d g g a a a a a a a a a a a a a a a a a a a a a a a a a a 5 b g b b d 7 5 p H O @.` #.=.........................@.=...)...@.@.N ).+.N M o.m n 7 a f b f b a g g g a 5 d a a a a a a a a a a a a a a a a a a a a a a a a a a a a a a a a a 5 6 b 6 a a d } e d k.H L ).#.).).B P A k.p m c 7 5 5 g g a a 5 d d 5 a a a a a a a a a a a a 5 5 b b 8 f E L +.@.=.#.@.+...........................).=.` #.N ).O y k.q t.p c 0 a a a a a a a a a a a a a a a a a a a a a a a a a a g a d d g g 5 0 c p.P @...+.+.+.+.@.=.-.M %.p.r.r r E u.g a 6 a 6 5 a a a a a a a a a a a a a a a a a a a a a a a a a a a a a a a a a b 3 7 6 6 p.{.O +.@.` Z #.N $.N ` $.J '.t @         . .                                                                                                                                                             ",
"                                                                                                                                                            &   - .   . / T J ).` =...+.+.@.M K i.s.t.3 7 6 6 6 g a a a a a a a a a a a a a a a a a a a a a a a a a a 0 a E J N =.....@...).N +.-.=...............................................................................O y k.n 7 f d g a 0 d b a g a a a a a a a a a a a a a a a a a a a a a a a a a a a 0 0 f 5 a 9 7 l w J !.` #...........................@.=...)...@.@.N ).).@.O i.s.m c 5 d b 4 b a g g g a 5 d a a a a a a a a a a a a a a a a a a a a a a a a a a a a a a a a a a 5 b b b b b 3 4 b 0 q %.O @...M K O A p.q p c 8 6 d 5 g a a 5 d d 5 a a a a a a a a a a a a 9 6 b 6 c 0 m %.)...-.@.+.............................).+.` #.).N O x k.r.r t.l b a a a a a a a a a a a a a a a a a a a a a a a a a a g a d d g g 5 9 8 D P ....N +.+.+.@.=.#.M y p.r.r r E s g 5 6 5 6 5 a a a a a a a a a a a a a a a a a a a a a a a a a a a a a a a a a 4 3 f 6 g u.%.J ).+.#.Z ` N ).+.#.@.K S >., + .     . .                                                                                                                                                             ",
"                                                                                                                                                            &   - %   $ k ~.R $.#.@...).).-.).N i.o t.j.g 7 6 6 g a a a a a a a a a a a a a a a a a a a a a a a a a a g a r %.M +...@.@...).N +.-.=.............................................................................@.L w k.u.g 4 b g 0 0 d f g g a a a a a a a a a a a a a a a a a a a a a a a a a a a b b b 5 0 0 0 4 C L ` ` @...........................@.=...)...@.@.+.+.).=.B n.p m c g d b f b a a g g a 5 5 a a a a a a a a a a a a a a a a a a a a a a a a a a a a a a a a a 6 6 a a 6 g 5 b 3 } b 9 p.J K Y N M N Y p.p t.l 7 5 d 5 5 a a 0 5 5 a a a a a a a a a a a a a b 6 b b 6 9 u.y N +.=.@.+.@...........................).+.` -.).).N y k.r.r t.l 0 a a a a a a a a a a a a a a a a a a a a a a a a a a g a d d g g 5 5 7 k.L @...+.+.+.+.@.=.#.M %.p.r.r r r u.a 5 6 5 6 5 a a a a a a a a a a a a a a a a a a a a a a a a a a a a a a a a a 4 3 e c 6 l v {.N ).-.Z ` ).N @.@.-.B {.U )   + . $                                                                                                                                                                 ",
"                                                                                                                                                            $   j .   . 2 U I z +.-...+.).@.@.O n.q.t.j.9 7 g 5 5 a a a a a a a a a a a a a a a a a a a a a a a a a a a a o A O @.+...=.@.+.N +.=.@...................................................................@.......@...P v k.u.a b c g a 0 d b 5 g a a a a a a a a a a a a a a a a a a a a a a a a a a a 0 5 f 5 g a 3 f o H ).` -.+.........................@.=...)...@.@.+.).@.=.O l.r.t.c 7 5 d b f a a g g a 5 5 a a a a a a a a a a a a a a a a a a a a a a a a a a a a a a a a a a a a a a a a 6 c } | e i D H L `  .@...i.r.t.s a 5 f d 5 a a 0 5 5 a a a a a a a a a a a a a 0 0 b 6 5 c e.x N ....#...@...........................N +.` #.).$.M y p.s.E r l b a a a a a a a a a a a a a a a a a a a a a a a a a a g a d d g g 5 9 9 r P ..).+.+.+.+.@.=.#.N %.o.r.t.p E s g 5 a a a a a a a a a a a a a a a a a a a a a a a a a a a a a a a a a a a a a f 3 3 6 g 6 C {.M +.#.!.` N N +.-.#.).K T 2 = - % &                                                                                                                                                                 ",
"                                                                                                                                                            $   j %   $ ) W S ).+.@.@...+.=.#.O m.r.r n 0 7 g 5 5 a a a a a a a a a a a a a a a a a a a a a a a a a a a 6 s A O ..+.+.=.@.+.N +.=.@...................................................................@.......=...L v q.e.g 4 4 g g 0 5 f 5 g a a a a a a a a a a a a a a a a a a a a a a a a a a 0 0 d 4 5 g 5 4 3 e l.M #.=...........................=.=...N ..@.@.+.).@.=.O m.q p l 6 5 f b f 5 a g a a a 5 a a a a a a a a a a a a a a a a a a a a a a a a a a a a a a a a a a a a a a a g 6 6 b 3 | b 8 D J B ` ` N n.s.p s a 6 b d 5 a a 0 5 5 a a a a a a a a a a a a a 0 0 b d g 0 8 w M N +.=...@...........................N +.` -.+.+.M y o.s.r t.s a a a a a a a a a a a a a a a a a a a a a a a a a a a g a d d g 5 5 9 7 p P ).+.N +.+.+.@.=.#.M O C o r r E s g 5 a a a a a a a a a a a a a a a a a a a a a a a a a a a a a a a a a a a a a 4 3 b c 5 a m %.L +.=.` ` @.+.+.-.*.Y N S V , @   *                                                                                                                                                                 ",
"                                                                                                                                                          $ $   j %   % h >.S B  ...@...@.-.` O w q.r n b 6 6 6 d 5 a a a a a a a a a a a a a a a a a a a a a a a a a 5 a e.m.J ..+.+.=.@.+.N +.=.@...................................................................@.....@.@.+.P v q.e.e 4 6 6 g 0 0 f d g a a a a a a a a a a a a a a a a a a a a a a a a a a 0 9 d 4 5 g g 4 3 b D {.)...=.........................=.-...N ..@.@.....-.` M w r.p e.6 g d 4 f 5 a g a a a 5 a a a a a a a a a a a a a a a a a a a a a a a a a a a a a a a a a a a a a a a g 6 6 6 f 3 [ e 7 o.L z +.L v r.r s 6 5 d d d a a 0 5 5 a a a a a a a a a a a a a 0 0 5 d 5 g 7 v M M ..=...@.........................+.N ).` #.+...M O C q.q t.j.a a a a a a a a a a a a a a a a a a a a a a a a a a a g a 5 d g g d 9 5 m P N ..N +.+.+.@.=.#.N P i.o r r r s g a a a 5 a a a a a a a a a a a a a a a a a a a a a a a a a a a a a a a a a a d 4 d c 5 g l l.Q )...=.@.-.=.+...#.#.-.I W 2 + $ * .                                                                                                                                                               ",
"                                                                                                                                                          $ & . j +   % $ ,.T M =.......=.-.=.M A k.p p c 0 7 5 d 5 a a a a a a a a a a a a a a a a a a a a a a a a a d d c l.L  .+.+.=.@.+.N +.=.@.........................................................................@.@.).L n.r.e.b 4 6 g 0 0 5 f d 5 a a a a a a a a a a a a a a a a a a a a a a a a a a 0 9 d 4 d g g b 4 9 u.%.L  .#.........................=.-...).+.....+.).=.` M x p.p s g 6 d f b 5 a g g a a a a a a a a a a a a a a a a a a a a a a a a a a a a a a a a a a a a a a a a a a a 6 6 c b 3 3 b 7 6 C J O K m.q r n 7 6 d d d a a 0 0 0 a a a a a a a a a a a a a 0 0 5 f b a g n.L N @.=.@.@.........................+.N ).#.#.....N O i.s.q t.u.a a a a a a a a a a a a a a a a a a a a a a a a a a a g a 5 d g 5 d b 6 n ;.M +.N +.+.+.@.=.#.N L C s.r r q s a a a a 5 a a a a a a a a a a a a a a a a a a a a a a a a a a a a a a a a a a d b g b b a a C L N ..N N ..Y @.@.@.@.` Q ~.2 . $ * + +                                                                                                                                                             ",
"                                                                                                                                                          $ &   , h   + % t X M Y ......=.-.@.N %.p.p t.l 9 7 b d 5 a a a a a a a a a a a a a a a a a a a a a a a a a d b g v L ).N ..=.@.+.N +.=.@.........................................................................@...N B C s.e.e 4 6 g g 0 0 4 d 5 a a a a a a a a a a a a a a a a a a a a a a a a a a 0 9 b 4 f g g g f 9 i v Q -.-.........................=.-...).+.....+.).#.!.M H D p n g g 5 f b 5 a g g a a a a a a a a a a a a a a a a a a a a a a a a a a a a a a a a a a a a a a a a a a a c g 4 3 4 b 7 c 8 8 u P L x q p n g b d d d a a 0 0 0 a a a a a a a a a a a a a 0 0 5 f b f g o.K N =.=.=.=.@.......................+.N N ` -.+...N L n.s.p r n d a a a a a a a a a a a a a a a a a a a a a a a a a a g a 5 d g g d 9 a n %.M N N ).+.+.@.=.#.N L C q.t.r r s g a a a 5 5 a a a a a a a a a a a a a a a a a a a a a a a a a a a a a a a a a a 5 d f d 6 a p A M ..M N ` =.=.` =.@.` J '.V h $ * - -                                                                                                                                                             ",
"                                                                                                                                                          $ & % j -   % & k X M =...=.@...-.` N P C p t.e.5 7 b f 5 a a a a a a a a a a a a a a a a a a a a a a a a g d d g v O ).N ..@.@.+.N +.=.@.........................................................................=.$.M y p.r.l f } g g 0 0 5 f d 5 a a a a a a a a a a a a a a a a a a a a a a a a a a 0 9 b 4 4 g 6 g c 7 i E {.-.-.............@...........=.-...).+.......).#.*.B ;.C p n g 6 5 d b 5 a g g a a a a a a a a a a a a a a a a a a a a a a a a a a a a a a a a a a a a a a a a a a 6 7 b | | b c c c 3 3 8 v K y E r n 6 c f d d a a 0 0 0 a a a a a a a a a a a a a 0 6 b f f g 6 k.L M @...=.-.@.......................+.N N #.-.+.@.N ;.n.s.q t.j.a a a a a a a a a a a a a a a a a a a a a a a a a a a g a 5 d g 5 5 b 9 n y M N ).+.+.+.@.=.-.N L C r.r q E e.a a a a 7 5 a a a a a a a a a a a a a a a a a a a a a a a a a a a a a a a a a 0 b e f d 6 0 l m.N @.O N *.Y  .=.@. .*.P ^.&.$   @ j h                                                                                                                                                             ",
"                                                                                                                                                            &   h - . + . ) ~.B  .=.@.@...=.` N L i.s.t.j.9 b b b 5 a a a a a a a a a a a a a a a a a a a a a a a a a d e g C K  .+.).N =.#.=.=.=.=.=.=.=.=.=.=.=.=.=.=.=.=.@...-.#.-...N N ).=.-.=.).N +.@.+.).).+...@.=.-.@.=.M y p.m i e d b g 5 a 0 5 5 5 a a a a a a a a a a a a a a a a a a a a a a a a a a 0 9 9 } } 4 g g 6 b 9 u.x M #...N M N ..#.` -.+.).)...=.=...).+.......+.-.#.M K o.r.m d 6 b f f 5 g g 0 0 0 0 a a a a a a a a a a a a a a a a a a a a a a a a a a a a a a a a a a a a a a a a a b } } d 6 6 c 3 3 e l l.T D t.m c b b 5 5 5 a a a a a a a a a a a a a a a a a 0 0 5 f 4 g g s.J ..@.).@.@...........................+.+.....+.@.).O n.s.q t.m g a a a a a a a a a a a a a a a a a a a a a a a a a a g a 5 d d 5 a 5 7 u.x O +.......+...@.@.N O i.s.r r t.e.g a a a 5 a a a a a a a a a a a a a a a a a a a a a a a a a a a a a a a a a a a b b 4 6 g d 0 i.K ).M N -.+.).N ). .*.B R U ^     @ %                                                                                                                                                             ",
"                                                                                                                                                            $ $ . - @ . & & U K =.=.+.@.@.-.@.N O i.q.r n 0 b g b g a a a a a a a a a a a a a a a a a a a a a a a a g b 3 4 D K -.=.M O =.!.` -...@.=.=.=.=.=.=.=.=.=.=.=.=...+.-.!.` ..M M N #.` #.N O +.@.+.).N N +.=.=.` =.#.O x D m i 7 g 4 f d 5 a 0 0 0 a a a a a a a a a a a a a a a a a a a a a a a a a a 0 9 d } | 4 g g 0 3 e l n.L @.@.M O O +.` !.` +.M M ..=.@...+.).+...=.-.=.+.O O n.r.p 7 9 e b f 5 g g 0 0 0 5 a a a a a a a a a a a a a a a a a a a a a a a a a a a a a a a a a a a a a a a a a a 5 5 g g 5 c e d c 7 [ D t.t.p c 6 7 5 5 5 5 a g a a a a a a a a a a a a a a 0 0 5 f 4 5 g n H #.@.).).+.........................@.-.=.).N ).@...O n.q.r t.n a a a a a a a a a a a a a a a a a a a a a a a a a a a g a 0 d 4 d g 6 6 j.x M =.-.@...+.+...$.).M o.p q q r j.g a a a a a a a a a a a a a a a a a a a a a a a a a a a a a a a a a a a a a a a g d d g g f g p %.O N +...).N M ).Y !.@.{.X 2 -                                                                                                                                                                   ",
"                                                                                                                                                            $ $ . + @ .   % F J +. ...@.@.#.@.N L l.q.q m 9 0 b 6 g a a a a a a a a a a a a a a a a a a a a a a a a a 5 6 6 E z z =.N O @.` #.@.N ).).).).).).).).).).).).).N N @.#.#...M M ).` !.` +.M +.@...).N N +.@.-.` =.=.M w E m 8 6 b 4 4 d 5 a 0 0 0 a a a a a a a a a a a a a a a a a a a a a a a a a a 0 9 b } } 4 g 6 g 3 3 9 D ;.).=.M O M ..` !.#.).M N @.=.@.....).+...@.#.+.).M P l.q.p e 8 b 4 b 5 g g 0 0 0 0 a a a a a a a a a a a a a a a a a a a a a a a a a a a a a a a a a a a a a a a a a a a a a a a 6 b a e c b 4 j.t.t.c c c f d 5 5 a g a a a a a a a a a a a a a a 0 0 5 f 4 5 a s %.z #.N N ..........................@.-.=.).N ).@...O m.q.q t.m 9 5 a a a a a a a a a a a a a a a a a a a a a a a a a g a 0 d 4 5 g g g s x ;.-.-.@...+.+.+...+.M i.m r.q t.e.5 a a a a a a a a a a a a a a a a a a a a a a a a a a a a a a 5 5 5 5 a a a a a 5 d d g 5 4 5 e.w B M ..@...N B $.Y !.` L '.V # $ %                                                                                                                                                               ",
"                                                                                                                                                            $   . + @ . . $ >.I N ....@.+.=.-.N L m.q.r p 8 g b g g a a a a a a a a a a a a a a a a a a a a a a a a a 0 9 g o %.+...N O +.#.=.).N N N N N N N N N N N N N N N N ..-.#.@.N ).@.!.Z !.=.)...@...).N N +.=.-.=...=.M l.r.m c 0 b 4 f d a a 0 0 0 a a a a a a a a a a a a a a a a a a a a a a a a a a 0 9 0 } } 4 6 6 7 3 3 9 u.A O -.N M M ..` ` -.).M N @.=.@.....).+...@.-...+.N O l.q t.l 9 b b f 5 g g 0 0 0 5 a a a a a a a a a a a a a a a a a a a a a a a a a a a a a a a a a a a a a a a a a a a a a a e c a b 6 5 c 6 g j.j.j.d b f d 5 5 a g a a a a a a a a a a a a a a 0 0 5 f 4 5 d l w M #.N N @.........................@.-.=.).N +.@...O m.q.q t.p 8 a a a a a a a a a a a a a a a a a a a a a a a a a a a g 0 5 f d g a a j.w O -.-.@...+.+...+.$.N C r.q q t.l a a a a a a a a a a a a a a a a a a a a a a a a a a a 5 a a a 5 5 5 5 a a 5 a 5 5 g g 5 f 4 6 a i.L +.#.=.=.....+.=.!.!.L S W ) . % *                                                                                                                                                             ",
"                                                                                                                                                            $   . + @ +   % >.I B  ...=.+.@.#.+.L m.k.r.t.l d 5 g g a a a a a a a a a a a a a a a a a a a a a a a a a 0 0 a u.y ..=.M O +.-.@.N M N +.+.+.+.+.+.............).N +.#.` -.@.@.` Z Z Z ` =.=.@...).N ).+.@.#.=.@.+.O l.s.m i 0 b 4 f d a a 0 0 0 a a a a a a a a a a a a a a a a a a a a a a a a a a 0 9 5 } } d g c 6 4 3 i i v P -.+.N N ..-.-.@.N M N @.=.@.....).+.....=.@.@.N L m.k.p e.e 0 d f 5 g g 0 0 0 0 a a a a a a a a a a a a a a a a a a a a a a a a a a a a a a a a a a a a a a a a a a a a a a 5 b a b 6 5 6 c 6 g c c 6 b f d 5 5 a g a a a a a a a a a a a a a a 0 0 5 d f 5 a l l.;.=.N ).=.........................@.-.=.).N +.=.@.L x k.q t.p e a a a a a a a a a a a a a a a a a a a a a a a a a a a g 0 5 4 5 g g a l l.P Y =.@...+.+.+...$.M C s.q r r l f a a a a a a a a a a a a a a a a a a a a a a a a a 5 d d 5 5 5 5 5 5 5 5 d d d 5 g g f 4 } 7 g s.J B ` ` #.=.=.....` !...R U k % . *                                                                                                                                                             ",
"                                                                                                                                                            $   .   @ .   % t T J -...=...@.-.@.O A p.q t.e.a a g g a a a a a a a a a a a a a a a a a a a a a a a a a 0 0 0 e.A N @.N M @.` @.).).+...........@.@.@.@.@.@.@.N M N ..=.....+...-.#.#.@...@.@...).).).+.+.#.=.=.N L v s.n 8 0 d f d 5 a a 0 0 0 a a a a a a a a a a a a a a a a a a a a a a a a a a 0 0 9 4 4 5 6 6 6 b } 9 f D K ....+.+...@.@.+.N N N @.=.=.@.+.).).+.@.@.=.-.N O y p.t.s 9 0 d f 5 g g 0 0 0 5 a a a a a a a a a a a a a a a a a a a a a a a a a a a a a a a a a a a a a a a a a a a a a a 5 c c a 5 c 6 6 c 6 6 b 3 b f d 5 5 a g a a a a a a a a a a a a a a 0 0 5 f f 0 0 c u O  .N ).=.........................@.-.=.).).+.=.-.L A q.q t.p l a a a a a a a a a a a a a a a a a a a a a a a a a a a g 0 5 b d g g d c l.L =.@.....+.+...+.+.).C r.q r p l a a a a a a a a a a a a a a a a a a a a a a a a a 5 d d d d 5 5 5 5 5 5 d d f d 5 g g } } 4 5 0 l w O =.` ` #.Y ..).-.` -.I T ,.h   *                                                                                                                                                             ",
"                                                                                                                                                                    @     h / X J @.......#.+.#.N P o.r.t.j.9 g 6 a a a a a a a a a a a a a a a a a a a a a a a a a a a 7 8 l m.K ....).#.` #.@.@.@...@.@.@.@.@.@.@.@.......N M M N +.).).N M N N ).N N @.@...).).+...@.#.+.+.).M v r.n 8 g 5 4 f 5 a a 0 0 0 a a a a a a a a a a a a a a a a a a a a a a a a a a a 0 0 4 f g g 6 6 b 3 e 9 u.x M ......@.@.+.N N N ).@.=.=.@.+.).).+.-.@.@.-.N M ;.D r s 9 g d d 5 5 a 0 0 0 0 a a a a a a a a a a a a a a a a a a a a a a a a a a a a a a a a a a a a a a a a a a a a a a 5 c e b b b b 6 a c b g b 4 b d 5 5 a g a a a a a a a a a a a a a a g g a d f 5 0 8 C O ..M +.=.@.......................@.-.=.+.).+.=.=.O x q.q r r i g a a a a a a a a a a a a a a a a a a a a a a a a a a g 0 5 4 d g d g l v J @.@.....+.+.+...+.M i.o q E p l d a a a a a a a a a a a a a a a a a a a a a a a a 5 d f d d 5 5 5 5 5 5 d d f f d g g 4 | 4 b 7 i i.P @.#.` #.Y ).N @.-.@.B S >.h @ .                                                                                                                                                             ",
"                                                                                                                                                                        . @ 2 ~.I @...=.+.@.-.@.N L o.s.E n a 6 6 a a a a a a a a a a a a a a a a a a a a a a a a a a g 7 9 d l.O =.@...!.*.!.` -.@.+.@.+.+.).).N ).N N N N +.$...@.-.#.=.N +.M M ..+.@.=.@...+.).+...=.=.+. .M B i.p u.8 0 b f d 5 a a 0 0 0 a a a a a a a a a a a a a a a a a a a a a a a a a a a 0 5 4 f a g g g d 4 3 9 a v O N ..` @.+.).N N ).+.@.=.=.=...).).+.=.@.=.=.N N L o.p n 9 7 b d 5 5 a 0 0 0 0 a a a a a a a a a a a a a a a a a a a a a a a a a a a a a a a a a a a a a a a a a a a a a a a 5 a g 5 a 6 5 5 d f f b f d d 5 5 a g a a a a a a a a a a a a a a g g g d f 5 g 7 D L N N @.=.@.......................@.-.-.+.).+.-.=.O A p.r.t.p e.a a a a a a a a a a a a a a a a a a a a a a a a a a a g 0 5 4 d g g b c v L =.......+.+.+.+.$.N C r.q r p l a a a a a a a a a a a a a a a a a a a a a a a a a 5 d f b b b 5 a 6 5 d d b 3 b d g g } } 4 5 c 9 p J  .-.#.#.z M M ).=.-. .{.W ) # %                                                                                                                                                             ",
"                                                                                                                                                                $       . - ) U I  ...=.+.@.-.=.N L i.s.E n 8 b g a a a a a a a a a a a a a a a a a a a a a a a a a a a b e a v J N #.-.` ` #.` *.` =.=.@.@...).).+.).N M M ).-.-.=.@.@.+.N O L O M =.` #.=.@...).+.@.#.=.).).O y p.r u.9 0 b f d g a a 0 0 0 a a a a a a a a a a a a a a a a a a a a a a a a a a a 0 5 f d a g g a d 4 f 9 5 E B K +.-.=.@.).N ).+.....@.=.=...).).).@.@.@.=.N M O i.p n 9 7 d f 5 5 a 0 0 0 0 a a a a a a a a a a a a a a a a a a a a a a a a a a a a a a a a a a a a a a a a a a a a a a a a a a a a a 5 5 d d f f d d d 5 a a g a a a a a a a a a a a a a a g g g g 5 5 a g E O M M =.#.@.......................@.-.-.+.)...-.-.O y p.r.r r e.0 a a a a a a a a a a a a a a a a a a a a a a a a a a g 0 5 4 d g 5 b c n.P Y ......+.+.+.+.).M C s.q r p l 5 a a a a a a a a a a a a a a a a a a a a a a a a a b b 4 d 5 6 7 c a b b d b f d 5 g 4 } 5 d e 9 s x B ` -.=.z M K N $.#.-.L X k # %                                                                                                                                                             ",
"                                                                                                                                                            .   $ $     + - ^ W S #.@.+.).@.-.-.N O v q.t.m l g g a a a a a a a a a a a a a a a a a a a a a a a a a a g c 3 5 u ;.M ....` !.=.@.@.#.-.@.@.=.-.@.).N N O O O O O O O O B z A x w m.y N ` #.=.@...+.....=.#...N O z p.r s 8 0 b f d g a g 0 0 5 a a a a a a a a a a a a a a a a a a a a a a a a a a a a 5 d d d a g a 0 5 f d 0 e.x L  .=.-.@.).).+.@.@.+.@.=.=...).).).@.@.@.=.$.N ;.v q n 8 7 g b 5 5 a 0 0 0 0 a a a a a a a a a a a a a a a a a a a a a a a a a a a a a a a a a a a a a a a a a a a a a a a a a a a a a 5 5 5 5 5 5 5 5 5 a a a a a a a a a a a a a a a a a a g g g 5 5 5 a g m z O M =.` @.......................@.-.-.+.)...#.-.M %.o.r.r r s a a a a a a a a a a a a a a a a a a a a a a a a a a a g 0 5 4 d g d 6 6 u P ..+.....+.+.+...+.M o.p q q p c a a a a a a a a a a a a a a a a a a a a a a a a a 5 4 b b b 6 6 g 6 a 6 b d 4 b d 5 a d d g d b b i i.{...=.Y B M M N +.#.=.O '.V ,   .                                                                                                                                                           ",
"                                                                                                                                                            .   $ $     + , ^ V S `  .).N @.-.-.).L m.k.q t.l f 0 a a a a a a a a a a a a a a a a a a a a a a a a a a a g f b D R B ).N  .+.M M ).).+.+.N M O L P P L K B y A w l.u u D E r.o c 0 k.%.O ..=.@...+...@.@.=.@.N L y p.r s 9 d b f d g a g 0 0 5 a a a a a a a a a a a a a a a a a a a a a a a a a a a a 5 d d d d 5 a a a 5 5 a 0 v Q z -.#.).).+.@.=.@.+.+.=.=...).).)...@...=.@.).L v r p l 6 5 b d 5 a 0 0 0 0 a a a a a a a a a a a a a a a a a a a a a a a a a a a a a a a a a a a a a a a a a a a a a a a a a a a a a a 5 a a a a a a a a a a a a a a a a a a a a a a a a a g g g g g 5 5 a u.y J N @.` @.......................@.-.-.+.)...` #.M ;.C q.r r s 0 a a a a a a a a a a a a a a a a a a a a a a a a a a g 0 5 4 d g d 6 6 i.L +.+.....+.+.+.+.+.M i.s.q r p l a a a a a a a a a a a a a a a a a a a a a a a a a a b 3 6 a 6 c 7 6 7 7 g 5 3 b b d 5 g g g d 3 3 5 E {.N =.@.B B B ).+.-.@.).R F ) @                                                                                                                                                             ",
"                                                                                                                                                            +   $ $     % j + ,.S Y =.+.).@.-.#.$.L A q.q t.j.5 7 a a a a a a a a a a a a a a a a a a a a a a a a a a g 6 3 } o Q K B K M O P {.P {.P P J ;.x w n.n.C D q o n e.i a a g g g g e 9 s x {.+.=.@...+.@.=.=.@.+.N L A k.p s 0 0 f b d g g g 0 5 5 a a a a a a a a a a a a a a a a a a a a a a a a a a a a 5 d f f 4 f 5 g g g g a 0 E Q O -.` @.+...=.-.=.).).=.=...).).)...@.=.=.=.+.L l.r.q l 6 c d 5 5 a 0 0 0 0 a a a a a a a a a a a a a a a a a a a a a a a a a a a a a a a a a a a a a a a a a a a a a a a a a a a a a a a a a a a a a a a a a a a a a a a a a a a a a a a a g g g g g d d a s A P B =.#.@.......................@.-.-...+.@.#.#.N P i.s.q q u.a a a a a a a a a a a a a a a a a a a a a a a a a a a g 0 5 4 d g d 5 g C L +.+.....+.+.+...+.).C p q q m 8 a a a a a a a a a a a a a a a a a a a a a a a a a a 6 3 c 7 c 7 7 g 7 c g 6 b d d 4 f g g g b 3 3 e s x O -.@.N B  .+.@.=.=.).Q ~.) @                                                                                                                                                             ",
"                                                                                                                                                            +   $ $     + , # k T Y -...).@.-.` -.O x k.r.t.s 9 5 a a a a a a a a a a a a a a a a a a a a a a a a a a g 6 3 } e.w J P P P {.H x l.v u D q m u.s l 6 g g g g a 8 8 4 f d g 5 3 3 8 i l.P ..=.@...+.@.@.=.=.).M O m.q.t.e.f 0 f b d g g g 0 0 5 a a a a a a a a a a a a a a a a a a a a a a a a a a a a 5 d f 4 4 4 d g g g g g 9 s x L =.#.-...@.#.#.=.).).=.=...).).+.+.@.-.=.@.+.O x q p e.6 6 6 5 5 a 0 0 0 0 a a a a a a a a a a a a a a a a a a a a a a a a a a a a a a a a a a a a a a a a a a a a a a a a a a a a a a g g g g g g g a a a a 5 5 a a a a a a a a a a a a a g g g g g d d d e.l.L M #.` @.......................@.-.-...+.@.` #.N P i.s.r r u.5 a a a a a a a a a a a a a a a a a a a a a a a a a a g 0 d 4 d g f 5 g o.J N ).+...+.+.+.+.+.M i.s.q E m c g a a a a a a a a a a a a a a a a a a a a a a a a a 5 b b 5 6 c l l g g 6 5 d 5 d } 4 g 6 6 d } 3 e i v O -.=.). .Y Y #.-.-.N K T k @                                                                                                                                                             ",
"                                                                                                                                                            +   $ $     % , * ) T B @.@.....@.-.=.M B p.r.t.j.5 g a a a a a a a a a a a a a a a a a a a a a a a a a a g c b 3 g u.i.n.i.p.r.u.s e.i 9 0 g a a g g 5 d } } } f 9 b 4 4 4 g g 3 3 i e n.O @.=.=...+.@.@.+.@.$.N O m.s.t.e.0 0 b 4 6 g g g 0 5 d a a a a a a 5 4 4 f 0 0 0 0 0 a 0 5 d f 5 a g g 0 d d 5 5 5 d 4 4 4 d g g g g a 7 i v P ..=.=.....=.=.@.).+.=.=...).).+.+.@.#.-.@.$.K H p.q e.6 a d g g 0 0 0 0 a a a a a a a a a a a a a a a a a a a a a a a a a a a a a a a a a a a a a a a a a a a a a a a a a a a a a a a a g a g g a g a a a a 5 5 a a a a a a a a a a a a a g g g g d d a g e.n.P M ` ` @.......................@.-.=.....=.-.=.$.L n.o E E n a a a a a a a a a a a a a a a a a a a a a a a a a a a g a 5 f d g f 5 5 D O N +.....+.+.+.+.$.M i.q q q m 8 a a a a a a a a a a a a a 5 a a a a a 0 0 0 a a a a a 7 c s D G T E l 0 7 5 d b f } 4 6 6 6 e 3 3 e a D K ..#.).z Y #.@.+.@.M M S &.j .       . .         +                                                                                                                                       ",
"                                                                                                                                                            .   $       + j $ $ ~.J ..#.=.+.).+.$.$.O o.q.E n c 6 g a a a a a a a a a a a a a a a a a a a a a a a a a a g g g g g a a 5 a a 5 5 5 a g a a 0 a a a 5 5 5 d d 5 9 5 4 4 f g 6 7 3 } 5 C L +.=.-.@.).@.@.).N ..@.O l.s.p l f 0 d 5 a a g g 5 d d a 0 0 0 0 0 b | | | l 5 a a a a 0 e 3 | b a 6 6 9 4 3 d a a 5 5 d 5 5 a a a a a 0 7 r.{.O =.-...).N N ).@.=.@.@...+.+.......@.@.....N ;.p.q u.a 4 6 g g 0 0 0 a g a a a a a a a a a a a a a a a a a a a a a a a a a a a a a a a a a a a a a a a a a a a a a a a a a a a a a a a a a a a a a a a a a a a a a a a a a a a a a a a a g g g 4 4 d 0 0 7 u P @.-.=.@...............................-.#...N N O n.q.r t.n 0 a 6 a a 5 a a 5 5 5 5 5 a a a a a a a a a a a a a a g 5 5 0 0 5 5 c 5 D K N ).....+.........N i.p q E m 7 g a a a a a a a a a a a 5 b 5 c 0 a a a a a 0 7 l u.m o.l.y J ;.].v 4 8 b f b 4 } 4 5 g 6 g b 4 3 e 0 s x K !.N +.#.Y M L $.$.K I W 2 h   $ * - - +     - j   & $                                                                                                                                 ",
"                                                                                                                                                            . .           - $ ) U R +.` -.+.N ).@.@.+.o.q.t.m c 6 g a a a a a a a a a a a a a a a a a a a a a a a a a a a a a a a a a a a a a a a a a a a a a a a a a a a a 0 9 9 f } f g 6 7 3 | a D B N =.-...).@.@.).N ).-.O v q m l a 0 9 d a a g g 5 d d a 0 0 0 0 a e 3 < | 9 e.n m t.p e.c e | 4 a 6 6 9 3 3 d a a a a a a a a a a a a a a u.x P =.-.@.).M N ).=.-.@.....................=.B B o.r.u.d 4 d g g 0 5 5 g g a a a a a a a a a a a a a a a a a a a a a a a a 5 a a a a a a a a a a a a a a a a a a a a a a a a a a a a a a a a a a a a a a a a a a a a a a a a a a a a a a a g g g 4 } d g 7 0 C {.@.=.............................+.+.@.#.` +.M M ..n.s.p E n g a 6 a a 5 a a 5 5 5 5 5 a a a a a a a a a a a a a g g 5 5 0 0 d 5 b 5 E M N +.....+.....=.$.M i.r.q E n 7 a a a a a a a a a a a a 0 c t.G u C D D D D C u l.x J P K +.N B P C 0 9 c 3 f 4 } 4 g g g g d 3 b 5 g c l.O !.M B @.@.).;.M z B R X t h     * # j .     - #   & $                                                                                                                                 ",
"                                                                                                                                                                        . -     F R +.` -.+.N ).@.@.M n.q.t.t.| 6 g a a a a a a a a a a a a a a a a a a a a a a a a a a a a a a a a a a a a a a a a a a a a a a a a a a a a 0 9 0 f 4 d g 6 c } 3 e o y M =.-.@.+.@.@.N M N @.N i.p m l 5 0 5 d 5 a g g 5 d d a a a 5 5 a b 3 3 i o v 5.H ].T C 8 9 3 4 5 g 0 0 4 } d a a a a a a a a a a a a b 7 c n.{.B -.=.+.N N ).@.@.......................@.+.K i.r.n 4 b 6 g 0 0 d 0 g g a a a a a a a a a a a a a a a a a a a a a 5 5 5 d 5 a a a a a a a a a a a a a a a a a a a a a a a a a a a a a a a a a a a a a a a a a a a a a a a a a a a a a a g g g 4 } d g 8 a D P N -.............................+.+.@.#.` +.M N O m.q.p E n 8 a 6 a a 5 a a 5 5 5 5 5 a a a a a a a a a a a a a g g 5 5 0 0 d 5 9 a E B B ).....+.....@.=.M i.p q E n 6 g a a a a a a a a a a a g s w R R L M L P {.{.{.{.J ;.P M ` Y M P C e.i b e d f } 4 a g g g 5 3 4 5 c a C J  .M B =.#.` N M =.z Q '.V ^ . $   @ h %     - j   & $                                                                                                                                 ",
"                                                                                                                                                                        . @   % >.S M #.=.+.N ).@.=.N m.q.t.t.e.g g a a a a a a a a a a a a a a a a a a a a a a a a a a a a a a a a a a a a a a a a a a a a a a a a a a a a 0 9 5 d 4 d g 6 7 3 | 9 u.A O =.-...+.@.@.).N N =.B o.p m c a 7 5 d 5 a g g 5 d d 5 g 5 f f 0 e 3 e e i.{.R {.{.R x e.7 e 4 f a g a 4 } d a a a a a a a a a a a 5 b 0 0 r J O #.-.@.+.).).+.@.......................@.).O v r.m 6 4 f g 0 0 d 5 g g a a a a a a a a a a a a a a a a a a 5 5 d d f d f d d 5 a a a a a a a a a a a a a a a a a a a a a a a a a a a a a a a a a a a a a a a a a a a a a a a a a a a a g g g f } d g 0 f t.H N #.+...........................+.+...#.` +.M +.M m.k.r r m c a 6 a a 5 a a 5 5 5 5 5 a a a a a a a a a a a a a g g 5 5 0 0 d 5 5 5 q z M ).+...+.....=.$.N i.p q r n g a a a a a a a a a a a a 9 e.G {.Y !.` Y N M O M ..=. .).+. .Y O H o.s.l d b g b 4 f 5 g g g 5 4 3 f c 6 u.y M z M @.` !.#.$.Y B ;.H F ^ . & . h - % $ $ @ -   $                                                                                                                                   ",
"                                                                                                                                                                          @   = t S O -.=.+.).+.=.-.N m.q.p t.j.6 g a a a a a a a a a a a a a a a a a a a a a a a a a a a a a a a a a a a a a a a a a a a a a a a a a a a a 5 5 9 5 f d g 6 6 3 3 e l m.L ..=.@.+.@.@.+.N N +.z o.p m c 5 0 5 d 6 a g g 5 d d 5 5 5 4 4 g 0 e i i l.{.).z Y O J k.7 9 4 4 5 g a d 4 5 a a a a a a a a a a a 5 4 3 g s m.{...=.-.@...).+.+.........................+.O m.q.m f f b g a 0 d 5 g g a a a a a a a a a a a a a a a a a a 5 5 d d f f f f d a a a a a a a a a a a a a a a a a a a a a a a a a a a a a a a a a a a a a a a a a a a a a a a a a a a a a g g g f } d g 0 0 m %.M =.............................+.+...-.` +.N ).O m.q.p E m c 0 0 5 a 5 a a 5 5 5 5 5 a a a a a a a a a a a a a g g 5 5 0 0 d b 5 a p z B ).+...+.....@.=.N i.s.q E u.g a a a a a a a a a a a a 9 8 D H P !.Z Z =.).M +.` Z ` ` ` -.Y O x E m e.e d g d 4 f a g g g f 4 4 3 c c 6 l.P M N =.*.` !.` ..M ).O ~.! h &   + @ + $ $ + - + $                                                                                                                                   ",
"                                                                                                                                                                + +       +   ) t '.L =.=...).+.=.=.).A q.q t.n 6 a a a a a a a a a a a a a a a a a a a a a a a a a a a a a a a a a a a a a a a a a a a a a a a a a a a a a 0 0 0 0 d d g 6 a 3 3 e 0 v O +.=.@.+.=.=.+.N N +.%.p.t.n 7 a 7 5 d 5 a g g 5 d d g g 5 4 4 g 5 e e l A N +. .` @.O v 8 9 4 } f g g g 5 a a a a a a a a a a a a 5 4 3 7 8 i.{.M =.#.=.@...).).........................+.M m.s.p l d g g 0 9 d 5 g g a a a a a a a a a a a a a a a a a a 5 5 d d f f 4 4 d a a a a a a a a a a a a a a a a a a a a a a a a a a a a a a a a a a a a a a a a a a a a a a a a a a a a a 0 0 a f 4 5 g 0 9 s x M ).............................+.+...-.` ..M +.M m.k.r E m l 5 6 g a 6 5 a 5 5 5 5 5 a a a a a a a a a a a a a g g 5 5 0 5 d b d g o y M ).+...+.....=.$.N i.p q r n g a a a a a a a a a a a a 0 i e C P B @.@.@.....=.-.-.=.#.-.#.N P v r.m l b d c 5 f d a g g a b 4 } b g c 5 C P M #.#.*.` !.-...M Y Y T ,.h $     @ . $ $   - +                                                                                                                                     ",
"                                                                                                                                                            $   @ +       . . = / X P  .=...)...-.-.).y p.q t.m b g a a a a a a a a a a a a a a a a a a a a a a a a a a a a a a a a a a a a a a a a a a a a a a a a a a a a d d 5 a 5 d g 6 6 4 3 e 5 C P +.@...+.=.-...N B ).y p.t.n b a b d d 6 a g g 5 d d g g g 4 } 5 d e 9 e.y @.@.*.` =.L A s 8 3 } 4 5 6 g g g a a a a a a a a a a a 5 3 } 7 5 E ;.L +.-.#.-.@.).).........................+.N A k.r j.5 g g a 0 d 5 g g g a a a a a a a a a a a a a a a a a 5 5 f d f b 4 f d a a a a a a a a a a a a a a a a a a a a a a a a a a a a a a a a a a a a a a a a a a a a a a a a a a a a a 0 0 a f 4 5 g 0 9 e.w M N ............................+.)...-.` +.N =.O A k.r E m l f 7 0 0 0 0 a 5 5 5 5 5 a a a a a a a a a a a a a g g 5 5 0 0 f b b 5 o y N N +...+.....@.=.M i.m r.r u.5 a a a a a a a a a a a a 5 9 i s l.Q O ..-.@.#.#.@.#.#.-.#...O y p.q m i d d c g d 5 a g g a d 4 4 4 b 6 6 o H M Z *.@.+.@.....N @.-.T &.^       - .   $   - +                                                                                                                                     ",
"                                                                                                                                                            $   - -         @ @ k U {...=...)...-.#.$.;.o.r.t.m c a a a a a a a a a a a a a a a a a a a a a a a a a a a a a a a a a a a a a a a a a a a a a a a a a a a a a d f g g 5 d 5 a c b 3 3 d D P +.+.....=.#.=.N B +.A r.t.n g 0 d b d 5 a g g 5 d 5 g g g 4 4 5 b 3 i o %.)...=.` #.M J D 5 e } 4 g 6 6 6 g a a a a a a a a a a a 5 3 } b 0 s w {.N =.` #.@.+.).........................+.+.O k.p e.5 g g 0 9 d 5 g g g a a a a a a a a a a a a a a a a a 5 6 3 e b 3 4 b b a a a a a a a a a a a a a a a a a a a a a a a a a a a a a a a a a a a a a a a a a a a a a a a a a a a a a 0 0 a d f 5 g 5 9 i l.O N  ...........................+.)...-.` +.N ..M A p.p p t.e.5 5 g 7 5 a a 5 5 5 5 5 a a a a a a a a a a a a a g g 5 5 0 5 f 3 f d o A O M +...+.....=.-.O n.r.q t.u.g a a a a a a a a a a a a d e c i p l.H O #.!.!.` @.N Y $.Y L ;.i.q.r u.e 5 e 6 g 5 a a a a 5 d f 4 f 5 a 9 l w B Z Z +.M N +...).+.=.{.W 2 h   * - +   $ $ + + .                                                                                                                                   ",
"                                                                                                                                                            $   - -   $ $   + # ) W R -.=...)...-.` M B p.s.t.t.c a a a a a a a a a a a a a a a a a a a a a a a a a a a a a a a a a a a a a a a a a a a a a a a a a a a a a d f 5 g a d d 6 7 d f b a p H ).).)...#.-.+.).M z m.s.t.n 5 a d b f d a g g 5 d 5 g g g f 4 5 5 f 9 E ;.).$.N @.=. .{.v i d } } d 6 6 6 g a a a a a a a a a a a 5 4 3 3 7 7 u {.M =.` #.@.).)...........................).z p.q j.5 a g 0 9 d 5 g g g a a a a a a a a a a a a a a a a a 5 5 b b 5 c 3 c b 5 a a a a a a a a a a a a a a a a a a a a a a a a a a a a a a a a a a a a a a a a a a a a a a a a a a a a 5 5 a 5 d 5 g b e 0 v ;.M  ...........................+.)...-.` +.N N N y o.p q t.l 4 g g 7 a a a 5 5 5 5 5 a a a a a a a a a a a a a g g 5 5 0 0 f b f d u.A B N +...+.....@.@.O v p q E n 5 a a a a a a a a a a a a d b g 7 e.o i.%.L  .@.).N B K L P ;.i.s.r.t.e.5 e b g b a a a a 5 5 5 d d d 5 5 5 8 C P Z Z ).O M N ..).).).{.X ,.h $   j +   $ $   + + .                                                                                                                                 ",
"                                                                                                                                                            $   # -   $ $   - # = >.R  .@...)...-.` $.L i.s.r t.e.a a a a a a a a a a a a a a a a a a a a a a a a a a a a a a a a a a a a a a a a a a a a a a a a a a a a a f 4 g g g d f 6 6 b 4 4 6 e.x M +.N ).` #.+.).M +.l.s.t.j.a 5 b 4 d d a g g g 5 5 0 0 g f f g 5 d 5 C P $...).O =.-.L %.n a e b b g 6 6 a a a a a a a a a a a a 5 4 } b 7 8 E Q L ..` ` =.).N ........................$.$.$.o.r u.a g 0 0 9 d 5 g g g a a a a a a a a a a a a a a a a a a 6 b c b 6 c b 6 a a a a a a a a a a a a a a a a a a a a a a a a a a a a a a a a a a a a a a a a a a a a a a a a a a a a 5 d d a 5 d g g 4 e a u O M ............................).)...-.` +.N ....L C p r.t.j.a 0 g 7 5 a a 5 5 5 5 5 a a a a a a a a a a a a a g g 5 5 0 5 f b d g u.m.O N +...+.....=.=.O n.q q r u.a a a a a a a a a a a a a d c 3 f 6 u.p p.n.A K K {.{.J {.w o.q.r.r n c 5 e 4 6 b a a a 5 5 5 5 a 5 5 5 5 5 9 m K #.!.N L M ).@.+.N N Q S t j *   j -   & &   + - .                                                                                                                                 ",
"                                                                                                                                                            $   # j . $ $   - # @ V R ).=...)...#.` -.L l.s.r t.s a a a a a a a a a a a a a a a a a a a a a a a a a a a a a a a a a a a a a a a a a a a a a a a a a a a a a f 4 5 g g d 4 6 6 b b } b c w O  .).N ` ` @.N M O l.q.t.j.7 9 4 4 4 d a g g g 5 5 9 9 a f f g g 0 a u Q @.=.N O ..-.Y P D 5 5 f d g g g a a a a a a a a a a a a 5 d 3 6 5 0 e.x Q N ` !.#.+.N ..........................=.O n.s.n b g 0 0 9 d 5 g g g a a a a a a a a a a a a 5 5 a a a a g 7 6 6 6 a 7 7 a a a a a a a a a a a a a a a a a a a a a a a a a a a a a a a a a a a a a a a a a a a a a a a a a a a a 5 d d a 5 5 g g 4 3 a C K B N ..........................).)...-.` +.N ..+.P C r.q p j.a 6 g 6 a a a 5 5 5 5 5 a a a a a a a a a a a a a g g 5 5 0 0 f b 4 a e.m.M N +...+.....@.=.O v p q q j.g a a a a a a a a a a a a 5 } } 4 4 c s p r.p.i.v l.l.v C q.q.k.r p l 6 d f f d 7 a a a 5 5 a a a g g a 5 5 a e.m.L ` N N )...=...).).O I >.) @ + # #   & & $ + - .                                                                                                                                 ",
"                                                                                                                                                            &   , # . $ &   - , & t I M @...)...#.` =.L w s.r E s a a a a a a a a a a a a a a a a a a a a a a a a a a a a a a a a a a a a a a a a a a a a a a a a a a a a a f 4 g g g d 4 6 6 7 d } 3 6 n.O  .+.N ` ` ..M M +.n.r.t.s 0 d e 4 f d a g g g 5 d 9 9 5 d d g g 0 4 v L #.-.B $.@.!.` P v l 0 0 d b b b a a a a a a a a a a a a a g c b b 9 a u {.M #.!.` ..).........................@.#.O v r.n c a 0 0 9 d 5 g g g a a a a a a a a a a a a 5 5 5 a a a 6 c 7 g a a g 7 a a a a a a a a a a a a a a a a a a a a a a a a a a a a a a a a a a a a a a a a a a a a a a a a a a a a 5 d f a 5 5 g g 3 4 g E z B N ..........................).)...-.` ..N +.N L C r.q t.j.a 6 0 g 5 a a 5 5 5 5 5 a a a a a a a a a a a a a g g 5 5 0 5 f 4 e 6 e.m.L M +...+.....=.=.N v r q q u.g a a a a a a a a a a a g g 4 c 4 c b e u.p r r.s.s.q.s.s.r.q t.t.e.5 b b b 4 b 5 a a a 5 5 a g g g g g a g g c i.{.M ).#.#.#.-.@..... .L U ' + + , , . $ & $ + -                                                                                                                                   ",
"                                                                                                                                                            $   - - . $ $ $ - j % ,.T B Y ..)...-.` =.O w q.r.t.n 6 a a a a a a a a a a a 5 a a a a a a a a a a a a a a a a a a a a a 5 5 5 a 5 5 a 5 5 5 5 5 5 5 5 5 5 5 5 f 4 5 g g 5 4 5 g 7 f } 3 d C N N ..+.` =.+.M B M o.q.t.j.a b f 4 4 5 a g g g 5 d 9 b 9 d d g 6 a 9 G ;.!.#.$.N ` Z *.M %.u.8 0 b 4 b f 5 a a a a a a a a a a a a 6 g } b 7 9 r.J M =.#.=...+.........................@.-.M l.s.m e 0 0 0 0 d 5 g g g a a a a a a a a a a a a 5 5 5 5 5 a g 6 g l t.u j.g 0 a a a a 5 5 5 5 a a a a a a a a a a a a a a a a a a a a a a a a a a a a a a a a a a a a a a a a a a a 5 d f a 5 5 g g 4 3 0 s.y M N ..........................).)...-.#.+.N ..).L i.q q t.n 5 6 g g 5 a a 5 5 5 5 5 a a a a a a a a a a a a a g g 5 5 0 0 f f 3 5 l l.N N ....+.....@.=.M v r.q p u.5 a a a a a a a a a a a a g 6 c g c 6 7 e l n t.t.k.r.r E t.t.p l 6 c f d f b 3 0 a a a 5 5 a g g g g g a a 6 g r Q P =.` !.` #.=.=.=.!.O '.k @ + , j + $ & $ + +                                                                                                                                   ",
"                                                                                                                                                              $ $ $   . +     %   k G P @.@.+.).@.` ` O x k.m r p 7 a 5 d b b a g g g a 5 d 5 a a a a a a a a a a a a a a a a 5 5 5 5 d d d f 4 4 f d d d d d d d d d d d d d d g g g g 5 g g 6 6 4 b 6 k.L @.` -...+.N +.Y M p.r.t.l a 0 b b b 5 a a a a a 5 0 0 g 5 d d 5 9 e.w O =.-.=.M =.` #.M {.D i e 3 3 f g g a a a a a a a a a a a g f g 6 5 b 8 i w L ..=.)...).........................@.-.N m.k.p e b 5 5 a a a a 5 a a a a a a a a a a a a a g g 5 4 4 5 g 7 b t.S R w u.a 0 c 7 d } } 4 d a 0 0 0 0 a a a a a a a a a a a a a a a a a a a a a a a a a a a a a a a a a a a a a a 5 f f a 0 5 5 5 b b 6 u.%.O =.@.........................).).@.=.-...).=.+.O n.s.t.t.n a 9 5 b d 5 0 a a a 5 5 a a a a a a a a a a a a a g 5 d d 9 0 5 5 c g l l.P ..@...+.+...=.-.$.v q q r j.a a a a a a a a a a a a a g 6 g g g g 9 b d 3 l n n p t.m m j.c 6 g 6 6 5 d d 5 a a a a 5 5 a a a a a a a a c 6 j.x L -.` ` =.+.#.` +. .K S &.j - j - + $ $ - +                                                                                                                                     ",
"                                                                                                                                                          + -   & & $ - , @ $   % k U R @.=.+.)...#.Z M H D r r p l 6 b d 3 b a g g g a d f d a a a a a a a a a a a a a a a a 5 5 5 d d f f 4 4 4 f d d d d d d d d d d d d 5 g g g g g g g g g 5 5 g g o H ..!.#.+.).M =.` K o.q.p j.a 5 0 0 6 5 a a a a a a a g g g d 4 f 0 u.y L $.=.=...+...+.N P l.i i 3 } c 6 g a a a a a a a a a a a 5 d f g d 4 b 0 i.P $.).M +.+.........................@.=.M x k.p l 4 f d g g a 5 5 a a a a a a a a a a a a a g g g 4 } 0 0 0 g u Q z M v e.5 7 6 3 | | } d a g 0 9 0 a a a a a a a a a a a a a a a a a a a a a a a a a a a a a a a a a a a a a a 5 f f a 9 9 f d g 7 0 e.x O ` @.........................).+.@.=.=...+.-.@.M m.q.r t.n f 9 b e 4 f 5 a a a a 5 a a a a a a a a a a a a a 5 d d d 9 0 g g b g 7 v P =.=...+.+...=.` $.n.q q r j.g a a a a a a a a a a a a a g g g a a a 5 7 0 5 5 3 j.3 j.4 6 g f b g 5 g a a a a a a a a a a a a a a a a a 5 g i v J @.` ` +.N ` ` N N B S U ! @ % + + $   j + $                                                                                                                                   ",
"                                                                                                                                                          + - $ & & $ - j @ $ . @ 2 F R @.-...N ..#.!.M %.D p E r s g b d b b 5 g g g a d f d a a a a a a a a a a a a a 5 5 5 a a a a a a a 5 5 5 g 0 g 0 0 g g g g g g g g g g g g g g g g a g a g a 5 s x N ` #.@.N M -.Y K p.q p c a a b 6 5 5 a a a a a a a g g g d } f a s.%.O #.=.=.@.=.=.-.@.O H o 9 b f 6 6 g a a a a a a a a a a a 5 d d g 5 4 9 5 o J B +.N ).+.........................@.=.O y k.p s 5 f d g a a 5 5 a a a a a a a a a a a a a g g 5 4 3 5 g b f E ;.#.M {.u l 5 l 3 e b 5 5 5 0 0 0 a a a a a a a a a a a a a a a a a a a a a a a a a a a a a a a a a a a a a a a 5 f f g 0 9 b d 6 7 9 i w O #.@.........................).+.@.=.=.....=.-.B A q.t.t.n 0 9 b e 4 f 5 a g a a 5 a a a a a a a a a a a a a 5 d d d 9 0 5 6 6 a 7 v P =.@...+.+...=.` $.v r.q t.s g a a a a a a a a a a a a a a a a a a a 5 b 5 a g g g g a g 5 g 6 b a a a a a a a a a a a a a a a a a a a 5 6 b d E L @.` ` ..N -.` ).M N J ~.k # - +   $   j + $                                                                                                                                   ",
"                                                                                                                                                          + - + & & $ - j * *   @ ) F R Y ` @.).+.=.` N ;.C s.r r s 5 6 b b 4 5 g g g a d f d a a a a a a a a a a a a a 5 5 5 a a a a a g g g g g 0 0 0 0 0 0 0 0 0 0 0 0 0 0 5 5 5 5 5 5 5 5 5 5 5 5 a i w O ` Y ..M N @.=.y k.r.p 3 6 5 6 b 5 6 a a a a a a a g g g d 4 5 0 E H O ` -.=.@.@.-.` ` ..L C a 8 b g 6 6 a a a a a a a a a a a 5 d d 5 d f d 9 l w P -.` +.).........................@.#.N ;.p.p s d d d g a a 0 0 a a a a a a a a a a a a a g g g 4 } 0 0 b g p H ..-.M {.C 5 b l b g g g g 5 g g a a a a a a a a a a a a a a a a a a a a a a a a a a a a a a a a a a a a a a a 5 f f g 9 9 f d 0 c 0 b l.P -.@.........................).+.@.=.@...+.@.-.M m.q.r t.m b 0 9 4 4 b 0 a g a a 5 a a a a a a a a a a a a a 5 d d d 9 0 g g d 5 8 v P =.@...+.+...=.#.M l.q q r j.a a a a a a a a a a a a a a a a a a a a a a 5 6 6 5 b 6 b 5 6 b a g a a a a a a a a a a a a a a a a a a a a b 0 g n %.).!.#...)...=...).N K S k # -     $   j @ $                                                                                                                                   ",
"                                                                                                                                                          + - + $ & $ - - @ * $ @ ^ >.S ..!.#...)...#.$.Q l.r.r.r u.a 5 5 b f d a g g a d f d a a a a a a a a a a a a a 5 5 5 a a a a g g g g g g 0 0 0 0 0 0 0 0 9 9 0 0 0 0 b b b b b d b 9 b 9 d b 7 i u O  .N ..).).@.).m.q.q t.c 5 0 5 6 a a a a a a a a a g g g d f a a C L M -.-.=.+.+.@.#.!.-.O l.i 7 b 4 6 g a a a a a a a a a a a a g 5 5 5 d d 9 8 C {...*.+.).........................@.=.$.O C r.s 9 d d g a a 0 0 a a a a a a a a a a a a a g g 5 4 4 5 a d g o %.N =.).M I D 9 e c 6 g g g 5 5 5 5 a a a a a a a a a a a a a a a a a a a a a a a a a a a a a a a a a a a a a a 5 f f g 0 9 b d 6 c 0 4 u L =.@.........................).+.@.=.@.+...-...N m.k.t.t.m c 0 e b e f 5 a g a a 5 a a a a a a a a a a a a a 5 d d d 9 0 a 6 d 0 a u P +.@...+.+...=.` N w r q p l a a a a a a a a a a a a a a a a a a a a 5 6 a a a a a a a a a a 5 6 a a a a a a a a a a a a a a a a a a a a a c 0 e l.L Z #.@.+.).+.-. .).z I &.> @ $ $ & $ - @ $                                                                                                                                   ",
"                                                                                                                                                          + - - $ $ $ + -     & % , V T B !.` ..).)...).P l.o r.E n 6 6 5 f d d a g g a d f d a a a a a a a a a a a a a a a a a a a a a a a g g g a d d d d d d d d d d f d d 9 5 9 0 0 9 0 5 0 0 9 0 9 8 C L M N ..-...=.N w q.E m b g 5 5 6 5 a a a a a a a a a g 5 d f a a u L $.=.=...N M N @.` ` O H m 0 3 3 } 5 a a a a a a a a a a a a a 5 d d 5 d 9 5 o %.M !...).........................@.=.N L n.s.u.9 5 d 5 5 a a a a a a a a a a a a a a a a g g g 4 e 5 5 3 g s y M Y +.Y K H t.9 i 9 g g g g f 4 d a a a a a a a a a a a a a a a a a a a a a a a a a a a a a a a a a a a a a a 5 f d g 9 9 d 0 7 5 0 0 C P @...........................).+.=.=.@.+.+.#...M y p.q t.m l d e b 4 f 0 a g a a 5 a a a a a a a a a a a a a g 5 d d 9 0 g b f 5 a u ;.N @...+.+...=.` ).w q q p e.d g a a a a a a a a a a a a a a a a a a a 5 5 5 5 6 b b 6 6 5 5 a 5 a a a a a a a a a a a a a a a a a a a a g c e a C Q #.-.@...N N ` -.).` J U 2 @ $ & $   - @                                                                                                                                     ",
"                                                                                                                                                          + - +   $ $ + -     & h h ,.X M !.` @.).N @.N {.l.s.r.q m 6 6 b d d 5 a g a a d d d a a a a a a a a a a a a a g g g a a 5 5 d d 5 5 5 5 d f f f d d d d d d d d d 5 a a 0 5 0 a 0 0 0 5 a 0 0 9 k.P M ).@.=...-.N w r.r m 7 a 0 0 6 a a a a a a a a a a g 5 d d a 5 v P Y -...).M O M +.` !.+.{.C 9 e | } d a a a a a a a a a a a a a a d d g 5 f f s l.O ` @.)...........................` N P v s.n 8 a d d a a a a a a a a a a a a a a a a a g g 0 d f 0 6 b 7 e.x M ..#.=.B L %.m 8 8 0 g g g 4 } d a a a a a a a a a a a a a a a a a a a a a a a a a a a a a a a a a a a a a a 5 d d 0 9 9 5 d g g e e D L +...........................+...=.=.@.+.).@.#.).y p.r t.p l 0 e b e 5 0 a g a 5 5 a a a a a a a a a a a a a g 5 d d 9 0 a 5 f b d C L ).@...+.+...=.` N w q q t.l a a a a a a a a a a a a a a a a a a a a a a 5 7 b 6 6 5 5 6 b 7 5 a a a a a a a a a a a a a a a a a a a a a 7 9 d 5 m y @.=.=.@.M M ` ` ).Y J './ # $ & $   + +                                                                                                                                     ",
"                                                                                                                                                            - -       + + . $ $ h h ; ~.O ` !.#.N ).#.N P x q.q.r p l b 6 b b 5 a g a a d d d a a a a a a a a a a a a a g g g a 5 d 4 4 4 4 4 4 4 b f b f 6 d b g g 6 g g 6 e } } 4 } } 4 4 f f b b d 0 7 k.L M $.+.*.@...O l.r.E n 9 5 a 6 5 a a a a a a a a 5 a g d d d a e.m.P +.=.+.).).M M ..` *.` P w i 0 b 3 d a a a a a a a a a a a a 0 0 d d g 5 f 3 0 C P @...).........................@.#.N L l.q.m i g d d d g a a a a a a a a a a a a a a a 5 5 g 5 b 0 0 3 b 6 w M +.).` Y @.P w u.9 8 c e b b } d a a a a a a a a a a a a a a a a a a a a a a a a a a a a a a a a a a a a a a 5 d d 0 9 9 5 5 6 b b 9 q ;.M ..........................+...=.=.@.).)...#.+.L o.r.t.t.3 6 9 9 4 d 0 a g a 5 5 a a a a a a a a a a a a a g 5 d d 9 0 a 5 f e 5 C {.$.@...+.+...=.` N w q q p c g g a a a a a a a a a a a a a a a a a a a a a a a a a a a a a a a a a a a a a a a a a a a a a a a a a a a a 6 5 b e 9 w M @.#.@.O M ` !.N Y K S >.^   &   . % %                                                                                                                                     ",
"                                                                                                                                                            + + .       . . $   % h > U P #.` -.N N $.=.O %.D r.q p j.6 6 b b d 5 g a a 5 d 5 a a a a a a a a a a a a a g g g a 5 f 4 4 } 3 3 3 } 4 } b } 4 4 b b 6 g 6 6 6 d 3 } 4 4 4 4 f d 5 a a a a 9 o.K M N ..+.@.).O n.r.E u.0 5 5 6 5 a a a a a a a a 5 a g 5 f a g u.w L @...N ..@.).N ).` !.#.;.H r 5 7 5 a a a a a a a a a a a a a 0 0 d d g g 5 4 a r %.O  .+.........................@.=.@.L m.k.s.c a f f d g g g a a a a a a a a a a a a 5 d 5 g 0 5 0 0 } 3 6 l.M +.=.N #.@.$.{.l.e.i e 3 c 3 c a a a a a a a a a a a a a a a a a a a a a a a a a a a a a a a a a a a a a a a 5 d d 0 9 9 5 5 6 d f 9 o H M ..........................+.+.=.=.@.).).@.#.+.K o.p t.p l 0 9 9 b d 0 g g a 5 d a a a a a a a a a a a a a g 5 d d 9 0 g b 4 e 4 D L ).@...+.+...=.` N w q q p l a a a a a a a a a a a a a a a a a a a a a a a a a a a a a a a a a a a a a a a a a a a a a a a a a a a a a a g a f 3 9 u O ).#.=.M N ` `  .B K I F ^   &   % % . .                                                                                                                                   ",
"                                                                                                                                                            + + .       .         h h U Q  .-.@.+.N +.-.M H o.s.q t.s g g d d d 5 g a a 5 d 5 a a a a a a a a a a a a a g g g a 5 f 4 3 } 4 4 4 3 3 | } } } 3 } c d 5 7 e c 5 5 0 0 a 0 0 a a c e.u.m p D x O  .N =.!.=.N L C s.E u.9 5 a 6 a 5 a a a a a a a a a 5 d f 5 a u.y K ..N M #.!.-.+.+.#.Z !.).Q u a 6 c a a a a a a a a a a a a a 0 0 d d 5 g g b 5 e.l.{.).@.........................@.@.-.L x p.m l a f f d g g g a a a a a a a a a a a a 5 d d g 5 0 0 5 } } g v L ....=.#. .N N P n.l e 3 3 c c g a a a a a a a a a a a a a a a a a a a a a a a a a a a a a a a a a a a a a a 5 d 5 g 9 9 5 5 g b b b e.%.N +.........................+...=.=.@.).).@.=.@.L o.r.r t.l f 9 b d 0 0 g g a 5 d a a a a a a a a a a a a a g 5 d d 9 0 a d f b 5 D P N @...+.+...=.` N w q q p c g a a a a a a a a a a a a a a a a a a a a a a a a a a a a a a a a a a a a a a a a a a a a a a a a a a a a a g g b 4 0 k.J B -.@.M M #.` -.O M K X ' @ $ % - h .                                                                                                                                     ",
"                                                                                                                                                                .       . .   . * h h W I B  .@...).-.-.).H o.s.E t.u.g a f d d 5 a a a 5 5 5 a a a a a a a a a a a a a g a a a 5 f f f b c 7 7 g b b b c b 7 c a 0 a a a a i e.o s.E D C u v l.w x x I {.{.N ).N -.` @.N O C s.E u.a a 5 6 a 6 5 a a a a a a a a 5 d f 5 g r H O Y ).O +.#.).O L O M N L R w s a c g a a a a a a a a a a a a 0 0 d f f g g b 7 4 C {.M ` @.......................@.-.-.L y p.s.l a d 4 f g g g a a a a a a a a a a a a 5 f d g 0 0 0 0 | } f i.O ).@.-.O Y ` ).B ;.u i 3 l 6 c g a a a a a a a a a a a a a a a a a a a a a a a a a a a a a a a a a a a a a a 5 d 5 g 9 9 0 d g d 3 9 i x M +.........................+...=.=...).)...=. .K i.s.r t.e.0 9 9 d 0 0 g a 5 5 d a a a a a a a a a a a a a g 5 d d 9 0 g d 4 f 4 D ;.N @...+.+...=.#.M m.r q p c a a a a a a a a a a a a a a a a a a a a a a a a a a a a a a a a a a a a a a a a a a a a a a a a a a a a a a 6 5 b b f e.x M #.=.M M @.` =.M B z S V % $ - j .                                                                                                                                       ",
"                                                                                                                                                            $   .       . .   . *   h >.S K z Y  .).-.` @.O n.r.p t.m g g b f f 5 5 a a a 5 5 a a a a a a a a a a a a a a 5 5 5 5 d b c 0 6 6 6 6 g 7 7 5 8 e.o o q D C u l.w A A y z K K K ;.J ;.;.K L K N ` ` ....Z ..N L C r.q s g a 6 b a 5 a a a a a a a a a 5 d f 5 a E I O M M L O N L {.Q H x m.l.n.C j.6 c a a a a a a a a a a a a a 0 0 a 4 4 g 6 6 l 5 n ].;.` @.......................@.#...O y p.s.e.0 d 4 f 5 g g a a a a a a a a a a a a 5 f d g 0 0 0 5 | 3 d o.L N N N Y N ` *.-.O J D 7 b c 6 a a a a a a a a a a a a a a a a a a a a a a a a a a a a a a a a a a a a a a a 5 d 5 g 9 9 0 5 g d } b 8 l.O +.........................+...=.=...).)...=.=.L n.s.t.t.e.b 0 7 5 5 0 g a 5 5 d a a a a a a a a a a a a a g 5 d d 9 0 a d 4 b 5 E ;.O @...+.+...=.` M w q q m c g a a a a a a a a a a a a a a a a a a a a a a a a a a a a a a a a a a a a a a a a a a a a a a a a a a a a a 5 d 0 9 8 9 v P Y ` ..N N =.=.).N N S >.) $ j j .                                                                                                                                       ",
"                                                                                                                                                            $ $ .       . . @ % +   h V T J z Y +.).-.!.-.{.v r.r t.m c 6 b f f 5 5 a a a 5 5 a a a a a a a a a a a a 5 d d d d 5 a 5 g 6 c c e.u.r.o.i.l.w x y ;.K L O L P L K O O O M N N ).@.=.#.` ` B Y ` N ..!.#...O %.D q r.s a 5 6 5 a 5 a a a a a a a a a g f 4 5 4 C {.O B Y y m.m.v C C p.p.q.q.r.t.m 3 f 5 a a a a a a a a a a a a 0 9 a 4 4 6 6 c c 9 i G K ` =.......................@.-.$.M ;.i.q.s a d 4 f 5 g g a a a a a a a a a a a a 5 4 d g 0 0 0 0 | | b k.K N N M @.Z ` Z ` $.L H D 5 6 b 5 a a a a a a a a a a a a a a a a a a a a a a a a a a a a a a a a a a a a a a 5 d 5 g 9 9 0 5 6 b } 7 8 v L +...........................@.=.=...N )...-.Y L l.s.E r s 7 9 9 0 0 0 g a 5 5 d a a a a a a a a a a a a a g 5 5 d 9 0 a b 4 b a E ;.M @...+.+...=.#.$.w q q m c a a a a a a a a a a a a a a a a a a a a a a a a a a a a a a a a a a a a a a a a a a a a a a a a a a a a a a 5 b 6 b i 9 E K #.=.#.$.M ).#.-.+.B I U ) % , ,                                                                                                                                         ",
"                                                                                                                                                            $ $             @ % . % % t T Q M Y Y +.` Z =.{.v s.r t.p c 6 b b b 5 5 a a a 5 5 a a a a a a a a a a a a 5 d f d d 5 a a n C v w x I J J P L O O M $.$.@.@.-.` -.N N ).).).....@.-.-.=.=.=.=.@.` ` ..!.` ..L x p.q q e.6 g 6 5 0 a a a a a a a a a a 5 d f 5 g D G n.o.p.p.q.q.q.r.t.r r.r.q m n j.| b d a a a a a a a a a a a a 0 9 0 d 4 d 6 6 6 b a C ;.-.....+.+.@.@.@.@...+.....@.=.@.N {.n.s.u.0 d f d 5 g a a a a a a a a a a a a a 5 f d g 0 9 0 5 3 3 b r.L ).).N ..` Z ` ` +.M L x p a b f 4 5 g g a d d 5 g g a a a a a a a a a a a a a a a a a a a a a a a a a a a a 5 d d 0 0 0 a 5 b } 4 9 8 i.P ).@.........................@.-.=...+.+...@.@.L w q.t.t.s 6 7 d 5 d a a a a 5 5 a a a a a a a a a a a a a a g 5 5 9 0 5 4 4 b a r y ).=...N +...@.-.M m.q q p 7 g a a a a a a a a a a a a a 0 0 a 5 f 4 f 0 0 d 4 4 4 4 f d a g g 6 g 6 a a g g 6 a 5 d d d 5 5 a a a a a a g 6 b b 7 9 u.y $...+.+.N ).Y #.-.N {.T / & j ,       + -           +         . . +     . + - $ $ + -     $                                                                             ",
"                                                                                                                                                                            .     . $ / ~.R M -.*.-.-.-.=.P w q.r.r t.j.g b f f 5 5 a 0 0 0 a a a a a a a a a a a a a 5 d d d 5 a a a u {.J J K B )...+.+.+.+.+.$.$.@.@.@.@...$.+.............@.@.@.@.@.=.@.+.)...` !.-.P w k.q r e.g a a a a a a a a a a a a 5 5 5 d d 0 5 c n q r.r.q k.q p t.p n n s l c 4 4 6 5 a a a a a a a a a a a a a 0 9 0 a g d f } 4 8 9 u.H L N @.N N ..=.@.=...).+...=.#.@.$.L n.s.n 9 b 6 g g d d a a a a a a a a a a a a 5 f d g 0 9 d 0 5 b 9 o Q N !.#.=.@.....@.#.+.z P x u.9 3 | b 7 6 5 3 4 g g 0 0 0 5 a a a a a a a a a a a a a a a a a a a a a a a a a 5 f f 0 0 g a f 3 } b i 9 C {.).....@.@.................+.@.-.=...-.-.@.+.N N m.q.p E u.7 9 b d f d a a 0 5 5 a a a a a a a a a a a a a a g 5 0 9 0 4 4 b a a p %.).#...M ).@...@.M w r.r m 7 a a a a a a a a a a a a a 0 9 0 g d } } 3 b e e | } } } } d g g 6 6 g g c c g g c g 6 4 4 4 f d a a a a 5 g g g } 4 5 5 e l.P Y N ).=.-.+.+.).B z J >.+ ^ j . $ % , j   &   % + - - @ % . + % @   % % h j & & - , h                                                                                 ",
"                                                                                                                                                                                      ) ~.S L #.!.#.-.-.-.L %.p.s.q t.s g a d b 5 5 a 0 0 0 a a a a a a a a a a a a a 5 d d d 5 g a a C H +.).Y !.Y @.@.@.............@...@...@.......................@.-.@.N N ..` !.#.P w r.q p l g g a a a a a a a a a a a 5 5 5 5 5 0 a g e.t.t.t.t.p n u.e.l e 5 a 0 0 a 6 7 6 a a a a a a a a a a a a 5 d b 0 0 g 5 4 } 3 e 9 e.v P ).N N +.+...@...+.).).@.@.#.).@.L l.r.n 8 d g g g d d 5 a a a a a a a a a a a 5 d 5 g 9 b d 5 0 0 9 s %.M ` ` =...).+.@.` ` ..O {.l.s l 3 b c b b 4 d 5 g 0 0 9 0 a a a a a a a a a a a a a a a a a a a a a a a a a 5 f f a g g 5 f } 3 e 8 9 E {.B @...@.@.................+...-.=...#.#.+.).M M m.q.r E u.6 0 b f d d a a 0 0 5 a a a a a a a a a a a a a g a 5 0 9 5 4 4 b g a n y =.` ..M ).@.+.=.O m.r.r m b g a a a a a a a a a a a a 0 9 0 g d } } 4 8 l i e f 7 d d a a a a a l 0 a c 0 3 b g 6 b f 4 4 d a g g a 5 5 6 6 4 } g a 6 C R ..M +.-.=.Y z ).B z J F h , h % * @ +   & & $ % - # # = +       . $ & * j , * & , , j $ $                                                                             ",
"                                                                                                                                                                                . . $ ) W R M #.` Y #.=.@.O H p.r.r t.u.a 0 b d 5 5 a 0 0 0 a a a a a a a a a a a a a 5 d d d 5 a 5 4 D J  .).N #.-...................................................@.-.@.N N ..` !.=.P l.r.q r l g a a a a a a a a a a a a 5 5 5 5 5 0 7 7 g j.n s e.l 6 f d d 0 9 5 6 b b d d d 5 a a a a a a a a a a a 0 d b 0 g g g f } } 9 i 9 D {.M N ..#...@.@.).).).+.@.@.#.+.=.O m.E m 8 d a g g d d 5 a a a a a a a a a a a 5 d 5 g 9 9 b 5 6 8 9 i x M #.-.@.).N ).@.` ` ` Y L {.v l l 7 e c 3 g 5 5 5 0 0 0 a a a a a a a a a a a a a a a a a a a a a a a a a a 5 d f a a g 5 f } 3 e 9 8 o Q N ....@.@.................+...-.=...#.#.).$.M ).A k.r t.u.8 0 5 f d d a a 0 5 5 a a a a a a a a a a a a a g a 5 0 9 5 } 4 g g 9 n y ).` ..M ).@.$.@.O m.r.r m 7 a a a a a a a a a a a a a 5 d 5 g d 4 f 0 c 8 9 0 a l e.e.o E D u u l.G t.0 e e b g g d f 4 4 d a g g a 5 5 g 5 4 f g 0 a m H ).+.)...=.-.Y N @.Y K ~.k # %     $ & & & $ . % - # @ # %   $ $ $ *     ^ ;   + > > > @                                                                               ",
"                                                                                                                                                                                  .   ) >.R O #.-. .-.=.+.N z p.p q t.n 7 a b d 5 5 a 0 0 0 a a a a a a a a a a a a a a 5 d d 5 g a 5 t.J  .).M =.=...................................................@.-.@.N N ..` !.=.P l.q.r p l g a a a a a a a a a a a a 5 5 5 5 5 0 b c a g 6 g g g 6 g g 5 5 5 b d d f f f b 5 a a a a a a a a a a a 5 d b 0 0 g g g 4 4 b i 8 o %.;.-.#.-.+.N N N N ).+.@.=.-.-.=.L x p.m i b a g g d f 5 a a a a a a a a a a a 5 f d g 9 9 d 5 6 7 9 i G L #.=...).N N ..` !.` ` ).B L i.f l 3 3 b c g 5 f f d 0 a a a a a a a a a a a a a a a a a a a a a a a a a a 5 d d a a g 5 f 4 3 e 9 8 u.H K ........................+...-.=...-.#.).N N ).z p.q t.m 7 0 5 f d d a a 0 0 5 a a a a a a a a a a a a a g a 5 0 9 5 4 4 d g a u.x N ` ..M ).@.+.@.O m.q r n b a a a a a a a a a a a a a d 4 d 0 d f a a o p.i.u l.l.x %.H ;.P Q {.{.R m.e.l e.e.7 g 5 b f f d a g g a 5 5 0 0 d 5 g d a s m.O Y =...@.` #.B +.` +.'.t - $ $ % +   @ * + + + .   % % h % . % , ' ! ' > > , k W X ~.&.) &                                                                           ",
"                                                                                                                                                                                .   . . &.S M -.=.+.+.#.Y ..B C q r t.m c a b d 5 a a 0 0 0 a a a a a a a a a a a a a a 5 d d 5 a g d q ;.).N ).-.=...................................................@.-.@.N N +.#.` =.L n.r.r p 7 a a a a a a a a a a a a a 5 5 5 5 5 0 0 9 6 g g 6 6 g f f f b 4 b b b f f f 4 b 5 a a a a a a a a a a a 0 d b 0 g g g g b 4 5 i 8 i v L @.-.-.=.+.N M N )...@.=.=.#.=.M %.k.p l b a 6 g d f 5 a a a a a a a a a a a 5 f d g 9 9 9 5 6 b 8 l l.O #.@...N N N +...*.Z ` `  .K J C 6 e b b b g 5 4 4 d 0 a a a a a a a a a a a a a a a a a a a a a a a a a a 5 d d a a g 5 4 4 } 0 9 e e.x O @.........@.............+...-.@...-.#.+.N ). .;.o.p E m 8 0 6 4 d d a a 0 5 5 a a a a a a a a a a a a a g a 5 0 9 5 4 f b 6 9 e.w ).#...M ).@.+.=.O m.k.r n g a a a a a a a a a a a a a d 4 f g d d 0 s l.{.{.{.{.L N ..N M M N ).).N P o.o r p e.7 a b f f d a g g a 5 d f d a g g f d 6 i.P @.*...-.*.` +.N -.` S F h $ * h + . @ j # j h h ^ ) ) k ,.,.2 ,.W ~.U ,.> ; &.S R S U k @                                                                           ",
"                                                                                                                                                                                  .   h t '.N +.=.)...+...` M v s.q t.p c 0 b a g a a 0 0 0 5 a a a a a a a a a a a a a a d d d 5 g a n y B N +.#.=...................................................@.-.@.N N +.#.` ..O i.s.r p 6 a a a a a a a a a a a a a 5 5 5 5 5 5 5 b 6 6 g 6 g f b b 3 f b 4 3 b f d d d d 5 a a a a a a a a a a a 5 d b a g g g g d 4 3 9 8 9 E P ).@.!.-.).N O M ).@.@.@.=.@.=.N ;.p.p e.e a 7 g d b 5 a a a a a a a a a a a 5 f d g 9 9 d 5 g 5 9 i v P #.=...).N M ).@.Y Z *.` ` Y K H E 8 8 l 5 a a d d d 5 a a a a a a a a a a a a a a a a a a a a a a a a a a 5 d d a a a 5 f 4 4 5 8 8 l w ;.......+.@.@.............+...-.@...-.#.+.$.N  .K o.s.t.m c 7 b b d d a a 0 0 5 a a a a a a a a a a a a a 5 5 5 0 9 5 4 f b 6 g e.A M #...M ).@.+.@.M m.q r n 5 5 a a a a a a a a a a a a d 4 4 0 d a a p H P O B B Y ` #.+.N N )...-.=.P x k.r t.m c a 0 0 d d a g g a 5 d } 4 g g g 4 4 5 D K +.#.).-.`  .B B ..#.J U )   @ @ . & * , ^ k t >.>.F ~.G X X F U S R S U ' 2 ~.R N {.'.> ,                                                                           ",
"                                                                                                                                                                                .     . k T K N )...=. .M #...v m q r t.l g b 5 g a a 0 0 5 5 a a a a a a a a a a a a a 5 5 d d 5 a g u.y M M N -.@...................................................@.-.@.N N +.#.` $.K i.s.t.m 7 a a a a a a a a a a a a a 5 5 5 5 5 5 d b 5 5 d 5 6 d f f b d d b 5 a 5 5 5 5 5 a a a a a a a a a a a a 5 d f 0 g g g g g b e d e 9 u.y M -.!.` +.M O M +.=.=...@...@.=.L C p j.b 5 6 g 5 b a a a a a a a a a a a a 5 f d 0 9 9 5 5 7 b 9 e C L @.=.@.).M N N ).*... .*.=.=. .P H s.i 9 9 b 5 g c d 4 b a a a a a a a a a a a a a a a a a a a a a a a a a a 0 5 a a a 5 d 3 b d 8 7 e v L @.=.@.+...@.............+...-.@.+.-.#.+.).).@.B o.r.t.p i 0 b 4 f d a a 0 5 5 a a a a a a a a a a a a a 5 5 d 0 9 5 4 4 b 6 9 l w M #...M ).@.+...M w r.r n 6 5 a a a a a a a a a a a a d 3 f g d a 0 E K N @.N ..#.#.#.$.M M ).=.Z -.$.{.i.q t.t.s a 9 0 b 0 a g g a a 4 } 4 g g g 4 3 4 o A O ` ).` #.N M B ..@.M T k   - @ % $ % , &.~.T S S R R P {.R G U R Y {.'.>./ '.K Z P '.,.,                                                                           ",
"                                                                                                                                                                                        ) X L B N  ...#.M ` ).m.r.q r t.s 5 6 5 g g g 0 0 0 5 a a a a a a a a a a a a a a 5 d f d a a e.A B B M #.@...................................................@.-.@.N N ).#.` +.;.o.s.t.m g a a a a a a a a a a a a a 5 5 5 5 5 5 5 5 5 5 d d d 5 g a a a a a g g g g g g g a a a a a a a a a a a a 5 d d a a g g g g 5 f b 4 f i n.Q  .!.` +.O O N ..-.=.+.N =.=.@.L i.r.u.9 9 d g 5 d a a a a a a a a a a a a 5 f d 0 9 9 5 5 6 b b 9 D P $.#.=.+.N N N N N ). .$. .@. .M P x u.l 9 b l c c b 3 4 5 a a a a a a a a a a a a a a a a a a a a a a a a a 0 0 0 0 5 5 d 3 5 6 7 7 c u L @.=.@.+.@...............+...=...).=.-...N ..@.B i.r.r p l 5 5 f d d a a 0 0 5 a a a a a a a a a a a a a 5 5 d 0 9 0 f 4 6 6 a i w M -...M ).@.+.@.M w k.r n a a a a a a a a a a a a a a 5 b d g b 5 a D P N #.).@.=.=.=.+.N M ).=.!.!.$.L x k.r.t.m l 7 8 e a 0 g a 5 5 f | 4 0 6 g 4 } 4 l l.L *.).=.-.N O B +.+.N I t * - - . $   ^ W S I B L M O L I T F F I B J I T u T Y Z N '.&., .     .                                                                   ",
"                                                                                                                                                                                        ) ~.{.M +...@.@.+.*.M x k.q r t.u.5 6 g g g g 0 0 5 5 a a a a a a a a a a a a a a 5 d f d a a l w M M ).-.=...................................................@.=.@.N N ).-.#.$.;.o.s.t.n 6 a a a a a a a a a a a a a 5 d 5 g g g g g 5 5 d d f 5 a a a g g g g g g g g g g a a a a a a a a a a a a a 5 5 a a a g g a a d f 4 4 d E P M Z -.).O O N =.#.@.N M #.#...M i.r.n 9 b 5 7 5 a a a a a a a a a a a a a 5 f d 0 9 9 5 5 g d d 9 k.P @.-.=.@.+.N N M N N N ).).+.N +.B {.w s 9 7 7 c g b } 4 a a a a a a a a a a a a a a a a a a a a a a a a a a 0 9 0 0 d d d b b b 7 0 0 C L @.+...@.=...............+...=...).@.=.+.N ..-.B n.s.t.t.l a 5 f d d a a 0 5 5 a a a a a a a a a a a a a 5 d d 0 9 0 4 f d 6 0 i w O -...M ).@...=.M w k.p n a a a a a a a a a a a a a a 5 d g g f 5 f i.P @.=.).....=.-.@.).).=.` Z Z ` $.M i.q.q p n 8 8 b 0 0 g a 5 5 4 } 3 6 6 g 4 } d a u O ). .+.=.N O B ).N B I F ) j h $ % h > &.'.'.T J M ;.T F t / &.S z K J y A B z Y B S >.j .     .                                                                   ",
"                                                                                                                                                                                        - U R K  .@.=.-.@.#.M %.k.r.r t.n b 6 g g g g 0 0 0 5 a a a a a a a a a a a a a a 5 d f f d a 8 m.O M N @.@...................................................@.=.@.N M ).=.#.N y p.s.t.n 5 a a a a a a a a a a a a 5 d d 5 5 g g g g g 5 5 d d 5 g g g g g g g g g g g g g a a a a a a a a a a a a a a a a a a a a a a 5 d 4 4 a u.x L *.` @.M M ).#.` @.N M =.` =.O n.r.n 8 d 0 c 5 a a a a a a a a a a a a a 5 f d 0 9 9 5 5 g f f 5 m L $.=.=.@...+.N N M N N N ).).).).=.B P v e.0 7 6 c 6 } f 5 a a a a a a a a a a a a a a a a a a a a a a a a 0 0 9 0 d d d d 5 6 6 6 0 a E M -.@.+.@.=.+.............+...=...).@.@.).). .` M l.r.r t.l 5 5 f d d a a 0 0 5 a a a a a a a a a a a a 5 5 d d 0 9 0 f f 6 g a 9 l.M -...M ).@.+.@.M w k.r n a a a a a a a a a a a a a a 0 0 0 6 d a 9 u {.=.=.+.N )...+.).).).@.-.` #.*.B M m.q.r.E p l 9 8 9 a a a 5 5 f } 4 0 6 5 4 4 e a r %.M -.@.@.N M +.).M @.J ~./ = % . & . j ^ k V t x J J ~./ % h &.S *.z B B Y B H y z S F ; .     .                                                                   ",
"                                                                                                                                                                                      $ h F R K =.=.=.` Y ).M %.p.r.r t.m c g g g g g 0 0 5 5 a a a a a a a a a a a a a a 5 d f f 5 a g l.O O N ..@...................................................@.=.@.N M ).=.-.B A k.q t.n a a a a a a a a a a a a a 5 d d 5 g g g g g g 5 5 d d 5 g g g a a a g a g g g g a a a a a a a a a a a a a a a a a 5 5 5 a a a a 5 5 4 5 i u {.#.` ..M M ..` ` ..M N +.#.!.O m.k.m e 0 0 c 6 a a a a a a a a a a a a a 5 4 d 0 9 9 5 5 g b b 0 u.%.M +.@.@.@.@.+.).).N ).+.......@.@.$.B Q v c 0 c 6 c g 5 a a a a a a a a a a a a a a a a a a a a a a a a a 0 0 9 0 d f d d 5 c 6 g 7 a r.O @.=.+.+.=...............+.+.=...).@.=.+.).@.` M w s.r t.l 0 5 f d d a a 0 5 5 a a a a a a a a a a a a 5 5 d d 0 9 0 f f d g 9 9 v O -...M ).@...@.N w E p u.a a a a a a a a a a a a a a 0 9 0 7 f a l v P ..` =.N ).B O O M M N N N N B O O +.i.s.t.t.n 9 9 7 a a a 5 5 f } b 6 6 d 4 4 e 9 e.x O @.` =.).).-.+.O -.K S t - %   &     @ $ & t F T I '.,.# ^ ,.T *.z A J K K ~.G K K U )       .                                                                   ",
"                                                                                                                                                                                      & . >.^.J ..#.#.` *.N O L o.q.r t.t.c 5 6 g g g 0 0 5 5 a a a a a a a a a a a a a a 5 d 4 4 d 9 a n.B M M ..@...................................................@.=.@.M M N =.-.O m.q.q t.n d a a a a a a a a a a a a 5 d f d 5 g g g g g g g 5 5 5 a g a a a 5 5 5 5 5 5 5 5 a a a a a a a a a a a a a g g a d f f d a a a g a d d a D ;.=.!.@.N M =.` ` ..M M ).` !.M x k.m i b 5 9 6 g a a a a a a a a a a a a 5 4 d 0 9 9 5 5 b 3 4 0 s A O N +.@.-.-.-.@.....@.=.-.=.N @.=.` $.K {.C b c 4 3 6 7 a a a a a a a a a a a a a a a a a a a a a a a a a 0 0 9 0 d f f d 5 b g 6 d 5 n z ).....+.=.@.............+...@.+.N ..=...)...-.).w o r t.e.b 0 f d d a a 0 0 5 a a a a a a a a a a a a 5 5 d d 0 9 0 d f 6 6 8 0 v O -...M ).@.+.@.M A k.r j.0 0 a a a a a a a a a a a a 0 b 0 b b d e.l.P -.*.#.+...N N N +...+.).N N M ).M N m.q.r.t.t.e.e a 0 a a 5 5 d 4 9 0 0 f f b e 9 8 v M ).` #.....!.@.O @.B I >., . $ &   * *   h ) U I z '.t j h ' T z K G X R S W U Y B T )       .                                                                   ",
"                                                                                                                                                                                      & ^ t '.;.N ` *.=. .$.L O n.q.r t.t.l a g g a a a 5 5 5 a a a a a a a a a a a a a g 5 d 4 4 d 0 a i.K M M @.@.....................................................=.@.N N N =.-.M A q.q t.j.a a a a a a a a a a a a a 5 d f d 5 a a a g a g g 5 5 5 5 5 5 5 5 a 5 5 5 5 5 5 5 a 5 5 a a a g a a 5 5 a a g a a d f f d 5 a a g g g f 9 e.x M !.=.M N =.!.!...O M +.` ` N x k.t.l e 0 0 0 g a a a a a a a a a a a a 5 f d 0 9 0 a g c 3 f 0 s m.P N )...-.#.#.-.=.=.=.#.` #...N =.Y *.+.J R D g 3 b c 6 a a a a 5 5 5 5 a 0 0 a a a a a a a a a a a a a a a 0 0 0 d f f d d 6 6 6 5 0 u.A N ..-.+.....@...........+...@.+.N ..=.+.N @.=.N w q.t.t.e.7 5 f f d a a a 5 5 a a a a a a a a a a a a a 5 d d 0 9 0 f 4 b g 8 a v M =...M ).@...@.O w k.r u.g 5 a a a a a a a a a a a a 5 b a c 4 0 j.w P ` Z @.`  .+.@.#.` ` ` -.@.N ..+.#.#.N C s.t.t.n e 0 0 g g a 5 f d 9 g 5 4 d 5 e e 9 D L @.` Y ..-.*.-.M =.z {.U j   . + # j j = - ) F R K ^.>.# & ) X ;.I U t U W k W I J X )       .                                                                   ",
"                                                                                                                                                                                        = t '.P ` Z *.B M  ...O n.s.q E t.j.g g 5 5 d d 5 5 5 a a a a a a a a a a a a a g 5 f f f d 9 a C K  ...+.+.....................................................+.+.=.@.+.@...L l.q.q r u.d a a a a a a a a a a a a g g g g 5 5 5 5 5 5 5 5 5 5 d d d 5 5 0 0 0 0 0 0 0 0 0 0 0 d 5 0 0 0 0 d 4 4 d g g a a 5 d 5 5 5 a a a a a 5 9 a u P N ` +.M ).-.!.=.N N ..-.@.N y p.p j.d 5 7 d 5 a a a a a a a a a a a a 0 9 9 5 5 g g a d } b 7 l l.P ).+...@.@.@.@.@.@.=.=.=.=.-.=...=.#.@. .P H r c b 3 4 b 5 b d b b d b 0 0 0 0 0 a a a a a a a a a a a a a a a a 5 5 5 5 g 5 a 5 a a e.w O #.@.N ....=.....@...).).).......@.=...).N +.M A k.q t.s 8 a b d 5 g g g 5 5 a a a a a a a a a a a a a g g 5 0 9 5 4 4 6 6 6 a u O +.+.)...=.@...O w k.q s d 5 a a a a a a a a a a a a a b b d 4 0 u.x L @.=.-.#.=...@.=.-.-.-.=.@.+.@...#.=.L m.s.q t.t.j.d 6 g 6 b 4 3 e e 4 3 } 5 g 8 e i o H @...O M ..!.#.+.!.*.J '.k j . % - , -   . j >.S K R F ) h # U I J X / / * > &.'.'.W ; &                                                                         ",
"                                                                                                                                                                                      . # ' ~.P Z Z Y B L @.Z ..l.q.p t.t.u.g 6 5 d f d d 5 5 a a a a a a a a a a a a a g 5 f d 5 5 6 g D J  .@.+.+...................................................+.N +.` #...=.).L v q.q r j.a a a a a a a a a a a a a g g g g 5 0 d 9 9 5 5 5 5 5 5 5 5 a a 0 0 5 5 9 9 9 9 9 9 5 4 f 0 g 0 0 4 } } f g a a a a a a a a a a a a a a 6 5 E Q M -...M M ..` #.).@...).N M M o.p s 0 5 7 9 d 5 a a a a a a a a a a a 0 0 9 d d g g g b 3 f i i v {.+.@.......+.............@.#.-.@.+.+.@. .K J %.u.g 3 | 4 b e 6 b e b d b 9 9 9 g a a a a a a a a a a a a a a a a a a a a a a a a a a l l.P ` #.N ).@.-. ...=...N N ).+...@.=.=.=.=.N N ;.*.p.q t.s 8 0 f d 5 g g 5 5 d a a a a a a a a a a a a a g g 5 5 0 b 4 4 6 6 g 0 u O N +...@.=.=.@.L A p.r.s 5 5 a a a a a a a a a a a a a 0 b b 4 0 n y O N ).#.#.=.@.......................@.K H o.r.t.t.m l a 7 7 b 4 3 9 9 3 | 4 g g 0 e e i w O ..O O N -.#.=.!.*.K '.V , . % + # @   $ % V '.I R U ) + . W '.S ~.k & & > ; ,.&.; *                                                                           ",
"                                                                                                                                                                                        - ' ~.Q Z ` z B L ).Z N x k.q r t.n b 7 5 d f d d 5 5 a a a a a a a a a a a a a g 5 f 5 g 5 9 a E K +.+.+.+...................................................+.N +.` #...@.N O i.s.r r l g a a a a a a a a a a a a g 5 5 5 5 0 0 0 0 0 a g g g g g g g a 5 d 4 4 } } | } 3 5 5 4 4 5 g g a f } } f g a a a a a a a a a a a a a a 7 0 e.x L #.=.N M +.#.=...@.@.N +.+.L i.r.j.9 5 7 d d 0 a a a a a a a a a a a 0 9 9 d d g g g 5 4 3 8 i C {.).@.....................@.-.=...+.+.@.-.-.K Q w j.g b } 4 b c g g 0 d f f 0 0 0 a a a a a a a a a a a a a a a a a a a a a a a a a a 7 v Q #.*.M N =.-. ...=...).).).+...@.=.=.@.@.).N O z o.s.t.u.e 9 f b 5 g g g 5 d a a a a a a a a a a a a a g g 5 5 0 0 } 4 6 6 g g i.O M +...@.=.=.@.L y p.r.s 5 5 a a a a a a a a a a a a a b d f 3 0 p %.M N ).#.#.@...........................N P l.q.q t.t.j.b 6 6 g b b 9 0 0 a a 6 6 6 3 | i u Q z #.N M ..-.=.=.@.$.I F > % % % # +   $   k ~.S '.W j &   k &.W ; # & & @ > ; - *                                                                             ",
"                                                                                                                                                                                        . > W I ` =. .z O +.Z N %.q.q r t.m 7 0 5 d f d d 5 5 a a a a a a a a a a a a a g 5 f 5 g 5 0 7 r.;.)...).+...................................................+.N +.` #.+.@.N L i.s.q t.e.0 a a a a a a a a a a a a 5 d d 5 5 a 0 0 0 a a g g g 5 5 5 5 5 d f b 4 4 4 4 } 4 5 5 4 4 f g g a f } } f g a a a a a a a a a a a a a g 6 8 e u {.#.` ..N ).@.@.@.@...N ..=.M i.r.n a 5 7 0 b 5 a a a a a a a a a a a 0 9 9 f f g g g b 4 3 9 0 D {.).@.....................@.=...).).+.@.@.#...O I w e.b | 3 g c 7 6 g 0 f 4 d 0 0 a a a a a a a a a a a a a a a a a a a a a a a a a a 0 C P =.#.N N =.-. ...=.@.).).).+...@.=.=.@.).+.).O y o.r.t.n 8 0 d d 5 g g g 5 5 a a a a a a a a a a a a a g g 5 5 0 5 4 4 6 6 a 6 C O M +...@.=.=...O x p.q e.5 5 a a a a a a a a a a a a a b b f 4 0 q K M ).+.#.-.@.............................).y p.q.r t.p l g 6 g b 7 6 g d f 5 6 6 g e 3 8 r J +.*.=.N ).+.+.+.N  .{.~.' h % % - -   $ $ # &.W W k   & = , > > # & & & h - # $ $ $                                                                           ",
"                                                                                                                                                                                        h > W I -.N Y z M -.!.M %.p.q r r p c 5 5 d f d 5 a a a a a a a a a a a a a a a a 5 f 5 g 5 0 8 s.H ).=.+.+...................................................+.N +.` #.+.@.M L i.s.q r l g 5 a a a a a a a a a a a 5 d f d 5 g g g g g g g g d 4 4 4 4 4 f d a a 0 0 0 0 0 g 5 4 } 4 a g a f } } f g a a a a a a a a a a a a a g 6 e 8 r.Q ..!.` +.N )...=.=.@.+.....O n.r.n d a 7 d b a a a a a a a a a a a a 0 0 9 f f 5 g 6 b f e e 9 r Q N ......@.................@.+.).N ).@.#.` `  .z Q v c c e 6 g 6 7 6 5 f 4 f d 5 a a a a a a a a a a a a a a a a a a a a a a a a a a a C J ..+.).).=.-...+.=.@.).).).+...@.@.=.#.N ..).O $.o.s.t.m 9 0 d d 5 g g g 5 5 a a a a a a a a a a a a a g g 5 5 0 d 4 b g 6 6 5 C K M +...@.=.=.+.O x p.r.l 6 d a a a a a a a a a a a a a b b d 4 0 E L N +...#.-.............................=...L n.q.q t.t.n 6 6 6 5 d 5 d } } 4 6 6 c b e 8 e.w M Z #.+.N N B ).N $.P T ,.h h % - - .     = > > ^ # & + * - j h $ & & & % j $ & & $                                                                           ",
"                                                                                                                                                                                        % j V I B M Y  .N #.` $.;.o.r.q r t.l 0 5 d d d 5 a a a a a a a a a a a a a a a a 5 f g g d 5 8 u.%.).@.........................................................N +.` #.+.+.M K C s.q r c a a a a a a a a a a a a a 5 d d 5 g g g g g g 5 d d f 4 4 4 f f d 5 0 0 0 0 0 0 g g g 4 4 4 a g a f } 4 f g a a a a a a a a a a a a a a 6 4 e l w O !.!...M M ..#.` ..+.+...M m.q m 7 a 7 b b a a a a a a a a a a a a 0 0 9 f f d g 6 6 3 4 9 0 m %.M ......@.@...............@...+.N N +.-.!.` =.+.O J i.8 7 c 7 6 g 5 5 d d d d d 5 a a a a a a a a a a a a a a a a a a a a a a a a a d E ;...+...).=.=.+.).@.@.+.).).+.....@.=.=.)...N M =.i.s.t.m 9 9 d f 5 g g g 5 5 a a a a a a a a a a a a a g g 5 5 0 b 4 4 g g 6 6 D K M +...@.=.=...O y p.q e.5 5 a a a a a a a a a a a a 0 d b 5 d 7 D P +.+...#.-.+.+.........................=.+.M %.p.q t.t.m s 6 5 f f 5 d } } f g 6 6 c 0 9 e.l.M ` =.N M z z K O ). .I >.^ % . . . .     h j # # h & = - h $ & & $ . @ # h $ & & $                                                                           ",
"                                                                                                                                                                                        % j t T M O +.Y +.=.#...L n.s.q t.t.l 7 5 d d 5 5 a a a a a a a a a a a a a a a a 5 d g g 5 b 9 e.y B $.@.@.....................................................N ..!.#.+.+.M y p.s.t.m c 6 a a a a a a a a a a a a a g g g g g g g g 5 f f 4 4 4 f d 5 5 0 0 0 0 0 0 a a a a g 5 4 4 a g g d 4 } f g a a a a a a a a a a a a a g c 3 4 i i.P *.Z =.M M +.` !.)...+.=.O A r.m b g 7 f e a a a a a a a a a a a a a 0 9 f 4 f g g 6 e 3 0 a u.x O @...@...@...............@.@.+.).).+.@.@.#.!.@.+.M Q C a 8 7 b 4 b 5 g g g d d 5 a a a a a a a a a a a a a a a a a a a a a a a a a a t.J $.@...N =.-.).).@.@...+.).+.....@.@.+...+.N $.M n.s.r p e 0 d f d g g g a 5 a a a a a a a a a a a a a g g 5 0 0 0 4 b g g 6 0 D O M +...@.=.=. .O H p.r.e.g 5 a a a a a a a a a a a a a b 0 5 d 8 o.{. .@...-.@.).+.........................+.-.M {.n.r.p t.t.n } 0 b 9 9 9 a a a g a c l l o p.y M -.+.M M  .Y B B =.*.J W > +   . . % % + + + + . & % = j - & . & $ - j j j * & & $                                                                           ",
"                                                                                                                                                                                        % j k T J O z #.@.=.-.$.L n.q.r.q t.n a 5 d d 5 5 0 a a a a a a a a a a a a a a a 5 d g g d b e i x O =.........................................................)...!.-.).).O A k.q r p 7 a a a a a a a a a a a a a a g g g g g g g b 7 3 f b 3 b b b b 9 0 a a a a 8 l u.n o c 7 c b a 6 g b 3 4 d 7 g a a a a a a a a a a a a a 6 } 3 9 m ;.N Z ` M M ..` -...).@.@.M A q p l a 7 b e a a a a a a a a a a a a a g 5 f 4 f g 6 7 5 e 9 a s w O ..=.).)...@...........@.=.@...).).).+...@.=.=...+.;.I k.8 e 3 | 4 5 6 g g 5 d 5 a a a a a a a a a a a a a a a a a a a a a a a a a 5 m %.O @.+.=.=.=.).N @.=.@.+.+.+.............+. .N M m.s.p p 8 8 b d d g g g a a a a a a a a a a a a a a a g g 5 0 0 5 4 d g g 7 5 p.K M +...@.=.=.+.O {.o.s.l 5 5 a a a a a a a a a a a a 5 e a b 5 g i.P -.....#.=.).+.........................@.@.M P %.q.p t.t.p e.a a a 9 i l j.u.p E C v x H O @.#.=...N N z ` ..` Z Y S W > . $ $   . - -   $ $ $   % j j @ $   + - , , - @ + - +                                                                             ",
"                                                                                                                                                                                        % h k X J K ).=.=.=.=.).L l.s.r.q t.n d 5 d d 5 a 0 a a a a a a a a a a a a a a 5 f 5 g g 5 4 e 8 x ;.=.@.......................................................)...!.-.).).L x q.q r m c 6 a a a a a a a a a a a a a g g g g g g g c c 0 8 8 7 5 a a a a l s m E D n.l.x R H t.6 e 8 8 l e.c g 4 b 7 6 a a a a a a a a a a a a g 6 4 3 9 s m.L *.#.+.M N #.#...).@.=.).y p.p e.f c f f 5 a a a a a a a a a a a g g g d 4 4 g 6 6 5 b d a l l.M ......=.@.@...........@.=.=.@.+.).).N ).).+.+.+.+.).O x q 0 3 | 3 5 g 6 6 c b a a a a a a a a a a a a a a a a a a a a a a a a a a a u.x ;.=.).=.-.=.N N @.=.@...+.+............... .).M m.s.q t.e 7 b d d 5 g g a a a a a a a a a a a a a a a g g 5 0 0 0 f b g g 0 5 q ;.M +...@.=.=.+.O P o.p l g 5 a a a a a a a a a a a a 5 b b 7 a l n.P #.=...#.@.N +.........................@.` #.B Q l.q.s.s.q o n p E o.u l.x %.Q P {.R {.O N -.-.).=.#...-.*.Z !.K S ~.,.j . $ $   + - -     $ $ . - - @   $ . - # j -   $ . - j +                                                                           ",
"                                                                                                                                                                                      % % - ) U R M ).@.-.-.@.).L x q.q.q t.m 7 5 d d 0 0 0 a a a a a a a a a a a a a 5 d f 5 g g 0 } e e l.O =.=.@.....................................................)...!.-.N N ;.A q.q E n 0 7 a a a a a a a a a a a a a g g g g g a a 5 c a g 0 i s m E C u l.w %.K P Q P ;.;.R l.9 e.n u.p t.s g b b g g a a a a a a a a a a a a g 6 f 3 3 9 C P =.-...M +.*.` @.).=.` +.;.D p e.5 7 b b 5 a a a a a a a a a a a g g g d 4 4 5 g 6 e 4 5 0 c n.O =.+.+.-.+.............@.=.=.=...+.).N N N N N ).).` =.Q x n 9 e f a g 6 g g a a a a a a a a a a a a a a a a a a a a a a a a a a a 0 l w O @.+.=.#.=.N N @.=.@...+.+.........@.@...@.$.$.m.s.p r 8 7 b f d 5 g g a a a a a a a a a a a a a a a g 5 5 0 0 0 f f g g b 6 r.;.M +...@.=.=.@.O {.o.s.l 5 5 a a a a a a a a a a a a a b l 5 5 l l.O #.=.@.#...N ).........................#.*.#.*.M N A n.n.l.w x H Q L O O M N $.N N M M N M +. .). .-.=.!.Z Z K S F k # @ $ $ $   + - +   $ $   @ # + & $ $ + - - +   $ $   + - .                                                                           ",
"                                                                                                                                                                                          % ) F R B ).).=.-. .).P %.k.q.q r t.e 0 5 d 0 0 0 a a a a a a a a a a a a a 5 d d 5 g g 5 } 3 i v P @.=.@.....................................................).@.!.-.N M L m.q.r t.n g 5 a a a a a a a a a a a a a g g g g g a 7 7 s E C v l.A y K P P P P M N ).=.` *.Y ;.x E m r t.t.t.n g 6 b 6 6 a a a a a a a a a a a a g g g d 3 9 p H N ` =.M ..` -.@.N -.!.+.K i.p j.g a e 4 0 a a a a a a a a a a a g g g d 4 4 5 g 6 c b f b a C O -...+.@.+.............@.@.@.@.@.@.+.).N N N N ).).!.` N {.w s 9 9 g c c a 0 7 a a a a a a a a a a a a a a a a a a a a a a a a a a a 9 l.;...=.=.-.=.N N @.=.=.=.............@.@...@...N m.q.r.t.c 9 f f d 5 g g a a a a a a a a a a a a a a a g g 5 0 0 0 f d g g b 0 r.;.B +...@.=.=...M {.o.p c g 5 a a a a a a a a a a a a a b b 6 5 e.x L ` -.@.#...N N ........................#.#.*.` =.Y B O O L P P O M @.!.!.Z !.` ` -.$.$.@.=.=.#.Y B K @.!.*.J '.&.' > h & $ $   . +         $   + + $ & & $ +   $ $ $ & $                                                                                   ",
"                                                                                                                                                                                        . & ) >.S ).).N =.-.@.).L x k.q.E t.p l a 5 d 0 0 9 0 a a a a a a a a a a a a 5 f d a g g d } 3 i u L ..-.@.....................................................).@.` -.M M O v q.r t.u.7 b a a a a a a a a a a a a a g g g 5 5 a 0 a u R {.{.P M $.=.-.#.#.` #.` *.#.-.-.-.N P i.s.r E p r m c a g g g a a a a a a a a a a a a g 6 6 0 4 e e.l.L #.` N =.@...@.).#.*.=.J C m u.6 5 b 4 5 a a a a a a a a a a a g g g d } 4 5 g g b b 3 5 a C O @.@.@.@.@.@.............+.+.@.=.=...+.).N N ).+.@.@.!.$.M R l.e.a a b 3 d 5 7 a a a a a a a a a a a a a a a a a a a a a a a a a a a a v L ..#.-.-.=.N M ..-.-.@.......+.+.+...@.+.@.@.N A k.r.t.l 0 f f f 5 5 g a a a a a a a a a a a a a a a g 5 d 0 0 5 f b g g 5 0 o y M +...@.=.=.+.M {.o.s.l a 5 a a a a a a a a a a a a a 5 g 6 g j.H M ` #.@.#...N N ........................@.=.=.Y ` -.#.@.Y Y ..@.=.+.$.$.` #.` #.` ` #.#.` ` #.Y *.K L N z I ~.V > > ^   $ $   + - + $ $ $   - -   $ & & $   -   $     $     $ &                                                                             ",
"                                                                                                                                                                                        % & ) >.S =.N M =.#. .N L H o.q.r.E t.j.5 5 d 0 0 9 0 a a a a a a a a a a a a 5 f d a g g d } 3 i i.L ..#.@.....................................................).@.` -.N O O n.q.r t.u.e b a a a a a a a a a a a a a g g 5 d 5 g a l w R ;.$.!.-.N N M N ).=...+...+.+...#.#.P m.k.r.r q E r s a 6 6 g a a a a a a a a a a a a g b c 6 b e 5 C P ..!...=.-...@.).-.!.=.O v q u.g g e 4 0 a a a a a a a a a a a g g g d 4 } 5 g 6 6 f 3 f a E +.+...=...@.@...........+.).)...=.=.=.@...+.).+.@.=...).#.` $.P n.l a 4 } 3 0 7 a a a a a a a a a a a a a a a a a a a a a a a a a a a a C O +.#.#.#.=.M M ..-.-.@.......+.+.+.+.@.+.@.@.N %.D s.t.e.0 b b f 5 5 g a a a a a a a a a a a a a a a 5 5 d 5 0 0 f b g g d 0 o y O +...@.=.=...M {.o.s.c 5 d a a a a a a a a a a a a 5 b g 6 a o H B ` #.=.#...N N ........................N M $.$.$.=. .$.+.@.@.@.@...M M ).$.$.N N $.=.-.@.@... .Y B M O I U k h h j - + *   + j -   & & $   - h   & &   . @ - - $   % @ @ +   $                                                                             ",
"                                                                                                                                                                                      * h & h V T @.+.M =.=.$.).O L i.s.q r t.n 5 b 0 0 0 5 5 a a a a a a a a a a a a 5 d d 5 g g 0 4 e 0 C L =.#.@.....................................................+.@.#.@.).M O i.s.E t.u.7 a a a a a a a a a a a a a 5 d 0 g 5 d a a s x Q $.#.!.-.).N ).).N N ..+.+.+...+...-.$.;.D s.k.r.q r j.d b c g a a a a a a a a a a a a d 4 g c 0 3 9 p y M ` ..N =.+.+.).-.!.Y K m.q n 6 g e 5 5 a a a a a a a a a a a g g g d 4 f a g g 5 b b 5 a p z N @.=.N +.=.=...@.=.@.+.+.+...@.=.=.@.........@.@...M -.` ` +.;.C l 0 e 4 3 d a a a 5 d d d 5 5 5 5 d d 5 a a a a a a a a a a a a a 5 C K N #.#.-.@.N N @.=.=.@.............+.@.+.....N ;.o.o r s 9 b f d 5 g g a a a 0 0 0 0 0 0 0 0 0 0 0 0 g 5 d 5 0 5 5 5 d 3 8 9 o %.O +.@.-.#.-...K {.o.o c d b g g g g a a a 0 0 0 5 d 0 a a 0 c C {.B #.-.=.=...N )...........................B O +.#.Y $.` @.....@.=.#.$.N M O O M M M ).=.Y ).M ).Y M Q S F / $ $ &   h *     + - -   $ & $ % - %   & $   + - - %   . + @ @ +                                                                                 ",
"                                                                                                                                                                                      $ . % h k X M -.+.=...N @.=.=.i.m r r.E u.4 b 6 6 7 b b a a a a a a a a a a a a a 5 d d 0 0 0 9 5 0 E ;.#.-.=.....................................................@.=.+.....+.O i.s.r t.s c a a a a a a a a a a a a a 5 b 9 g g d 4 a o y O ..-.$.$.$.......................=.#.@.L n.q.r.q r.t.p | f 6 6 a a a a a a a a a a a a f } g g 0 f f 8 l.P +.Y M ).+.N )...-.-.M w q.m c f c g a a a a a a a a a a a a a a a a 5 5 a a a a a g 5 a u.x M ` @.N ).-.#. . .-...).+.......@.@...............).N @.#.` =.M ;.D 8 7 5 3 3 g g 0 d f 4 f d 5 5 5 f f d a a a a a a a a a a a a a a E J K !.=.@.).)...=.@.................@.........M %.o.s.r s 9 g a 5 g g g g g 0 0 0 0 0 0 0 0 0 0 0 0 0 9 0 0 d 5 g g b 4 3 e 8 s.%.O ).@.#.` ` @.O P C m c g b 6 g 6 7 7 7 0 0 a a a a 8 u.s.E i.%.L N @.@.=.@.+.).+.........................+.+...+.....@...........@.@.#.#.N O O O M N $.$. . .M ).z I X >.) & &     $ $ $ $                       .     .   .         .   +                                                                                   ",
"                                                                                                                                                                                          - j ; ~.M  .+.=.$.).$.#.!.l.p r r.r n 4 6 6 6 7 d d a a a a a a a a a a a a a g d d 5 9 0 5 0 0 q K #.-.=.....................................................@.=.+...@...O C r.r t.s 0 0 a a a a a a a a a a a a 5 b b g g d 4 5 E B N =...).@.........................=.-.$.L x k.s.k.r.t.t.j.d 7 6 a a a a a a a a a a a a f 4 0 0 0 d b a C L M )...N N N )...-.=.M A r.m l 5 6 g a a a a a a a a a a a a a a a a a a a a a a a a a a s x O ` =.).N =.#. . .-...).+.........................+.+.@.@.=...N L H D g 6 b } g g 5 d f f d 5 g g 5 5 f 5 a a a a a a a a a a a a a 5 r H O #.=.@.).+...@.@.+...............@.......@.N K C s.r s 9 b f f d 5 5 5 5 d d d d f f f f f f f f d b e b b d 6 6 c 3 3 e 9 s x L ).@.#.` ` -.z {.i.o c c 7 b 9 9 a a 0 l u.q.D i.v l.x H P L O B  .@.@.@...+.).+...................................................@.=.=.@.=.$.N $.#.#.).N N  .P S U >.! =   % $                                                                                                                                             ",
"                                                                                                                                                                                          + h ) U O +.+.=...N @.#.$.m.t.q q E m 3 g g 6 6 d 5 a a a a a a a a a a a a a g d d 5 9 0 0 0 a r.B Y -.=.....................................................@.=.......+.y D r r t.e.d 7 a a a a a a a a a a a a 5 e d 0 g d f a D P B =.....@.........................@.@.@.$.{.C s.q q t.t.j.4 6 6 a a a a a a a a a a a a 5 b d 0 0 d d a o y K +.=. .N ).).+.=.=.M y p.m 3 b 6 g a a a a a a a a a a a a a a a a a a a a a a a a a a 8 l.L ` @.).).=.#. . .=...)...........................=.=.@.+.).N N N P %.m g 7 5 g g 5 d f d a g g g g g g a a a a a a a a a a a a a a a o %.K -.-.@.).+...@.@.+.........................N O i.s.r u.9 b 4 4 f d 5 g 5 4 4 4 4 4 4 4 4 f f f f f 5 7 b 4 d 6 6 g 3 3 e 8 e.%.L +.@.-.` ` +.O ;.o.o 6 7 8 i e.o D u l.w y z B +.N O P P ;.O M N +.=.@...+.).).+.....................................................).+.#.!.!.*.Y Z *.$.M L K T U ,.2 # *   .                                                                                                                                               ",
"                                                                                                                                                                                          % % ' F P M +.=.$.).$.=.N x r q q q t.l a 6 6 6 5 d a a a a a a a a a a a a a g 5 f 5 9 0 0 g 5 o y @.=.@.....................................................@.=.........y k.q r t.l a 7 a a a a a a a a a a a 0 d b b g g d 5 b C {.N @.@...........................@...$.-.-.L m.q.k.q t.t.m b a a a a a a a a a a a a a a 0 0 0 5 d d 5 7 7 l.L Y @.=.+.).).+.=.-.).H C m e.g g 6 a a a a a a a a a a a a a a a a a a a a a a a a a a a l.L ` +.N ..-.-.+. .=...).........................@.#.#.@.N M M N ).N P w o g 8 g g 5 d d 5 g g g g g g a a a a a a a a a a a a a a a g u.x O #.-...).+...@.@.+.....................@.@.+.L n.q.q n 0 b f f 5 g g g g 5 d d d g g g g g g 6 g 6 g g d 4 6 c 6 c c d 7 c e.x O )...=.-.=.@.N L m.o.p.i.l.w %.H Q P P L O M ).@.=.).N ).$.$...` ` @.@.+.+.).).+.....................................................N ).=.-.Y *.Z Z ` -.z I '.W ' > , % % $     + + +                                                                                                                                       ",
"                                                                                                                                                                                          % - , F I K +.=.@.).@.-.$.x k.r.q q t.j.5 6 6 6 d d a a a a a a a a a a a a a g 5 d 0 9 5 0 0 a u.y  .@.......................................................@.@.....).N A r.r r t.l d g a a a a a a a a a a a a 5 e d 0 5 d a c v P N ..@.=...........................@.).-.-.M %.p.s.r r t.t.3 b a a a a a a a a a a a a a 0 0 0 4 f d 0 9 a C J Y -.@...).).+.=.-.N ;.i.m s d g 6 g a a a a a a a a a a a a a a a a a a a a a a a a a a u O -...N ..-.-.+.+.=.@...........................@.#.` @.N M M ).@.=.N {.w s 9 g g 5 d d 5 g g g g g g a a a a a a a a a a a a a a 5 a e.w L #.-...).+...@.@.+.....................@.@...P v q.k.n 6 6 f f g g g g g d 4 f d 5 g g g g g g 6 g 6 7 c f g g g g g g g a o x L +...@.=.@.+.N N O L J {.P N N N ).$.N ).).+.).N ).@.#.-.#.` =... .@.+.+.+.).).+.....................................................).N N ).Y *.*.*.*.K R X >.2 > ^ % + & $ $   + + +                                                                                                                                       ",
"                                                                                                                                                                                          @ # h >.S L ).=.=.$.$.=.@.%.D s.q E t.j.a 7 g 6 d d a a a a a a a a a a a a a g 5 5 0 9 d 5 g g s A ..........................................................@.@.....).).y q.r t.p e 7 a a a a a a a a a a a a 0 5 f 9 g 5 a 6 s w L  .N +.-.=.@.......................$.).=.#.$.;.n.s.r p t.t.u.a a a a a a a a a a a a a a 0 0 d } 4 d a 0 8 s %.M =.-.@...).+.@.-.).O i.p s 7 g 6 a a a a a a a a a a a a a a a a a a a a a a a a a a 5 u K +.#.).+.-.=.).+.=.@.............................=.-...).N ).@.` ` ..O Q l.e.a g 5 d d 5 g g g g g g 0 a a a a a a a a a a a a a 5 d 6 w L @.-.@.).+...@.@.+.....................@.=...L v s.r.m a b 4 4 5 a g g g d 4 f f d d 5 a a a a a a a a a g g c e.e.u.n m p v {.O ).....@...@...+.N M O O $.#.#.=.@.@.....+.N M M M $.` !.#.=.#.-.....+.+...............................................................N M B  .$.$. .K S U t ) , j * & & & & $   + - +                                                                                                                                       ",
"                                                                                                                                                                                        % @ = h t T {.).=.=.....$.$.L i.s.r r r n c 9 6 6 b 5 a a a a a a a a a a a a a g 5 5 0 9 d d 5 a e.A z +.+.....................................................@...@.).+.M m.r.t.E m e 7 a a a a a a a a a a a a a 5 e b 0 d d g n y O ..).).-.=.@.......................+.@.@.` =.O w k.r.q r t.n d 5 a a a 5 5 5 a a a a a a g g d } 4 d a 5 l 8 l.;.@.=.@...).)...-.+.O n.s.n 9 6 c a a a a a a a a a a a a a a a a a a a a a a a a a a a D ;.B =.N +.-.=.N ).@.=.@...........................+.+.+.+.@.=.-.-.=.).$.L P n.8 a c b d b 5 g g g a 5 d 5 a a a a a a a a a a a a d f a l.P +.=.@.).+...=.@.+.....................@.@...P w q.r.p 6 d f f 5 9 7 9 9 9 9 0 a a a a a 8 l e.o p E D C u v l.m.w x H x ].J K ).+.+.+...+...+...@.=.@.@...$...$.$.).).).).......+...-.` #.@.....).).+...@.=.=.@.....................................................+.=.Y ..@.@.B {.S W 2 h =   . $ & & & &   + - +     $                                                                                                                                   ",
"                                                                                                                                                                                        % @ - h t X {.N =.-.@...$.$.O i.s.r q t.m c 0 6 6 b 5 a a a a a a a a a a a a a g 5 5 0 9 d d 5 a l m.M N +.....................................................=.+.@.).B ..l.r.r t.m 7 7 a a a a a a a a a a a a a 5 e b 5 d 7 a p K O ..N ).#.=.........................+.$.@.!.#.N ;.o.s.q r E p c 6 5 a a 5 6 5 a a a a a a g g f } 4 5 g 5 e 9 D P +.` -.@.).)...-.@.L l.r.n c g 7 a a a a a a a a a a a a a a a a a a a a a a a a a a d r H N ..+...-.@.N ).@.=.@...........................).N +.=.#.` ` #...).N M M {.C c 7 c 6 } b d 5 5 5 f f d a a a a a a a a a a a a f 4 f l.L ..#.+.)...@.=.@.+.......................@.+.K H o.o o 8 8 8 0 0 0 0 i l e.u.s.E C u v v w x x %.H %. .O L J K B O K J L N !.Z =.+.+.+.).+.+.@.=.=.-.` ` ..M M N N ).).+...@.=.=.-.-.=.@...+.).N N ).+...@.=.-.=...................................................@.` !.Z ` ).N R '.&.> # .   $ $ $ $ & $ $   + % +   $ $                                                                                                                                   ",
"                                                                                                                                                                                      .   + + h 2 ~.R M #.#.=.+.).$.O n.s.r.r E p c 5 7 0 b 5 a a a a a a a a a a a a a g 5 5 0 9 d f d f l l.N N ).....................................................#.+...).M N i.q.r t.m e 6 a a a a a a a a a a a a a 5 e f d b b 7 p.P B =.N ).#.=.@.........................).-.#.-.#.P v s.k.q q p s 5 5 a a 5 a a a a a a a a a g d 4 4 5 a b b 9 u.%.;.#.#.=.+.)...-.@.L w r.u.l g g a a a a a a a a a a a a a a a a a a a a a a a a a a a u.%.O ..-...=.@.B N @.=.@...........................).N +.=.` ` ` @...N N N $.L Q C f c 7 c 4 4 f f f f f d a a a a a a a a a a a a 4 4 a u P =.#.).+...@.=...+.........................@.M P m.o.k.o u.q D C u v w w %.z $.O ;.;.;.O ;.L L L M N N M M O ).=.*.` =.$.@.` !.@.+.+.+.).).+.@.=.-.#.` ` -.....@.@.@.@.@.@.=.=.=.=.@.+.).).N N N N ).+...@.=.=.@...................................................=.*.` ` Z z I ~.V > ^ , h   &         + - - % % .   $ $                                                                                                                                   ",
"                                                                                                                                                                                      . @ . %   ) U R N -.` -.+.).$.L l.k.r q r t.e.5 7 0 b 5 a a a a a a a a a a a a a g 5 5 0 9 d b f a l n.O M N ....................................................#.@...N M ..i.s.t.t.n c 6 a a a a a a a a a a a a 0 5 f b f 3 5 c C P )...M ..` -.@.........................@.@.@.$.` O A k.s.r q r n a a a a 5 a a a a a a a a a 0 5 f d g g 5 b 8 i v {.=.` =.+.).+.=.=.M w k.o c 7 a a a a a a a a a a a a a a a a a a a a a a a a a a a 9 e.x O ..@.=.-...M N @.=.=.@.........................+.)...=.#.#.-.+.).).+.@.-.M Q H E a c 6 b 4 4 4 f f f d a a a a a a a a a a a a 4 3 a C L +.@...)...@.=...)...........................-.+.N N O %.;.L L P P P P P M N N $.@.=.@.=.#.` *.*.` ` ` ).M M ..!.!.` @.).+.=.-.@.+.+.+.).).+...@.-.-.#.` -.@.@.=.=.=.=.=.#.#.#.#.#.=.).N N N N ).).+.+...@.@.@.....................................................@.#.-.+.B T U k j # j h   * $     + + - - - % .     $ $                                                                                                                                   ",
"                                                                                                                                                                                      . + . + @ ) W R M Y ` -.+.).=.L m.q.r r q r j.a 7 9 b 0 a a a a a a a a a a a a a g g 0 0 9 f 4 f f 8 i.M M N ....................................................@.=.+.N M N i.q.t.t.n b g g a a a a a a a a a a a a 5 e f 4 4 5 l v O ..).M ..!.-.@.......................@.=.+.N $.` $.L i.s.E q r o c a a a 6 6 5 a a a a a a 5 5 5 5 5 g g g 0 9 0 E Q =.!.-.+.).+.=.=.M A k.m c 0 g a a a a a a a a a a a a a a a a a a a a a a a a a a 0 i w M ..+.-.#...M N @.=.=.@.........................@.@.@...+.+.+.=...=.#.).N  .M P %.p 0 0 c 4 4 f f 5 5 a a a a a a a a a a a a a 4 3 5 D K M @.=.)...@.=...).........................@.=.!.#.N @.N M +...#.` #.-.@.$.$.$.$.@.$.@.#.@.$.$.=.$.=.-.M O M @.` !.` @.).N +.@.@...+.+.+.+.+.......@.@.@...+.+.....@.=.-.-.` ` ` !.#.+.).+.+.+...@.@.......+.+.+...................................................+.M K J T F k % $ %   = = % %   . + + + - .                                                                                                                                               ",
"                                                                                                                                                                                        . . . $ ) &.R M Y ` #.+.N =.O m.k.p E q r j.f 7 a 9 5 a a a a a a a a a a a a a g g 0 0 9 f f f b 7 o.L M N ....................................................@.=.).M M @.o.p t.t.n 7 g g a a a a a a a a a a a a 0 d b 3 } 0 s x M =.).M +.!.#.........................=.#.N M =.` #.P l.s.r q q p e.a 5 a 5 b 6 a a a a a a d f 5 g g g g 6 6 d 9 u.x +.` -.+.).+.-.-.O %.o.p l a 6 a a a a a a a a a a a a a a a a a a a a a a a a a a 0 8 v M +.@.-.-...M M ..=.=.@.........................#.` =.).M O N ..@.#.` +.N Y ` =.P x o 9 a d f d d g g a a a a a a a a a a a a a 4 } a C K N =.=.)...@.=...)...........................@.` =.).Y M +.` ` ` #.-.#.-.@.$.@.=.@.@.@.$.$... ...).@.-.N M N @.#.` ` ..N M N +.........+.+.+.+.+.+.+.+.).+.@.............................@.=.-.-.-.=.@...).N N +...............................................@.@.+.P R X >.! - *   $     * +   $ $     %     $ $ $   + +                                                                                                                                   ",
"                                                                                                                                                                                        . .   % % >.S K -.` ` +.N ..M y o.p r.q E n b d 0 g g a a a a a a a a a a a a a g a 0 0 9 f f b f 7 o.P M ).....................................................=...N ).M B p.k.t.t.u.b g g a a a a a a a a a a a a 5 d e } 3 a u.H M ..).N +.` ` ........................=.` =.L $.-.!.O H D r.q q E u.6 6 a a 5 5 g a a a a 5 f 4 5 g g g g 6 g e e 8 i.O =.#...).).=.=.N ;.C m l g 6 g g g g g g g g g 5 5 5 5 5 a a a a a a g g g g g g a a n.K N #.-.@.+.M N ..=.=.@.........................` !.=.N O O M +.#.` -.Y ).N *.!.M R w u.a 5 d d d 5 a a d d 5 5 5 a a 0 0 a a a 5 b a C L ).@...+...@.@...)...........................+.N M N M N N ).@...=.#.@.N @.=.@.@.$.=.@.N +.+.).N +.@.=.).M M N #.` -.+.N M M N +.......+.+.+.).).).N N N ..=.=.@.@.....).).N N N M N ..=.=.-.#.#.#.-.@.+.).N M +.............+.+.+.+.+.+.+.....@.@.@...@.@.@...).N L R ~.V ' # . - .   $   % .   & $ $     $ $ $ & $   + +                                                                                                                                   ",
"                                                                                                                                                                                          %     * k '.M $.#.*.@.+.@.).O C s.q r.r m e 4 3 g g a a a a a a a a a a a a a 5 g 0 0 9 f d 7 7 6 E P +.=.....................................................=...+.@.B z q.q r t.u.6 g 5 a a a a a a a a a a a a 5 d 4 3 d a k.L B N N #.` ............................#.*.#.M M ).=.$.L i.q.r.E t.n c g 7 a b 6 g g g a 5 d d d g g g g 5 f 3 3 9 b E J M -.-...O ).+.N K o.r.j.b d g g g g g g 5 5 5 d d d d d 5 5 g g g g g g g 6 g 6 g 5 C L =.` @.+.N M ).@.-.-.@.......................@.=.=.@.+.).N )...=.=.=.@.+.+.#.#.@.N P l.s a 9 3 | } 3 3 4 4 b 3 d a a a a a 0 9 i l p.A P Y  .N =.@.@.@...)...........................+.).).).).+.+.+...@.=.@...$.@...@.................+...@.@.+.).).+.@.=.@...+.).).+.................+.+.+.+.+...@.@.........+.+.).N ).).+...@.@.@.@.@.@.@.@...+.+.). . .......+.N N M M M M M M ).=.-.#.-.@.=.#.#.z L R S W k ^ , % % +       $                     $ $       .                                                                                                                                   ",
"                                                                                                                                                                                          %   $   ; T O N #.*.=...=.N P i.q.q r.q p 3 } 3 6 g a a a a a a a a a a a a 5 5 a 0 9 b f d 7 6 a E P #.#.....................................................=...@.=.N %.k.q q r s 6 g g a a a a a a a a a a a a 5 b f 3 b 9 p.K M M M !.!.).).........................-.Z #.N O M @.-.M A k.r.r t.p e.5 6 g d d g g g a 5 b f d g 6 g g g 4 | 3 9 a s x P  .` #.M M M ..O n.r.j.e f 5 g g g 5 5 d d d d d f d g a g a g g g g g g g g g 6 a D J ..` -.+.M N +.=.-.-.@.....................................................).+.#.*.M L n.e.0 c b 3 3 3 3 f g a a a c e.s m k.C n.A B ;.$.M ..` @.@.@...+.)............................................................................................................................................................................................. .Y @...+.).N N M M M N ).N M +.` *.-...-.-.=.B I '.F > ^ j @ + + +                                                                                                                                                                           ",
"                                                                                                                                                                                          % . $ % ) X P N #.*.@...@.M O i.s.k.q q t.l } f 6 g a a a a a a a a a a a a 5 5 a 0 9 b f d 6 g a p ;.-.#.....................................................@.@.=...M x k.q r E s g g 5 a a a a a a a a a a a a g b f 4 7 g n.L B M N ` !.).).........................-.!.-.M M M =.#.$.;.o.q.p t.t.u.6 b 6 d 5 g g g a 0 b f d g g g g 0 4 } 3 9 7 4 u P +.` #.$.N ..#.O v q u.9 f f f f f f d d d d d d 5 g g g g g g a a d 4 4 4 } } 4 g q J N -.` ..N N ..=.-.=.@...................................................+...+. .#.Y O Q u 7 l 9 5 g g 0 e.u.m E C n.l.A z K L L O O O $.$.+.=.=.=.@...+.)...........................................................................................................................................................................................@.#.#.=.+.N N N +.=.#.!.!.!.-.$...*.*.` =.$.$.+.J X >.' , h = @ h + .                                                                                                                                                                           ",
"                                                                                                                                                                                          %   &   ) U Q N #.*.....-.N P l.q.r.q q t.j.} b 6 6 a a a a a a a a a a a a 5 5 a 0 9 b d 5 g g a m %.$.-.......................................................@.=.@.O m.r.r r q e.g g 6 a a a a a a a a a a a a g b f b b 8 l.L N M N ` ` +.).........................=.` =.N M N -.#.=.L v q.r r t.n b 6 6 5 d g g g a 5 b f 4 5 g g g g d 4 3 b c 6 E J B *.=.+.).=.` O m.q.n e b 9 b 9 9 d 0 0 0 0 0 g g g 0 0 0 0 0 0 d f 4 4 4 3 } 4 5 o J B -.#.+.N +.@.=.-.=.@...................................................).N +.=.@.Y Y L {.v o o r.D u n.l.x %.{.{.P P L K $.-.$.M $.M N =...@.=.=.@.@.+.)...........................................................................................................................................................................................@.-.#.@.).N N +.-.` Z Z Z *.-.).+.+.#.!.-.M P R ~.t ! & @ = @ % h @ .                                                                                                                                                                           ",
"                                                                                                                                                                                      . . + + & $ ^ F R B -.` @.$.=.$.P x k.r.q q t.j.} b 7 g a a a a a a a a a a a a d 5 a 0 9 b d 5 g a a n y N =......................................................... .@.M v q.r r r l g 5 6 a a a a a a a a a a a a g d b 4 6 s y O N N N ` ` +.+.........................@.=...M N ).-.` -.O %.k.q t.t.m l a 6 5 d g g g a 0 b 4 4 d g g g g 5 b 3 b 8 7 e.w L *.=...+.@.` +.m.q.m c 8 9 9 8 9 9 9 9 g g g g g g d b f b b b b 9 b 9 9 0 9 d 6 s H M @.@.+.)...@.-.=.@.....................................................).O M -.#.@.@.B J Q %.A %.J M M M M N $. .$.@.Y =...$.$.N M ).-.@.+.=.-.=.@.@.+.).............................................................................................................................................................................................@...+.).N +.=.` *.*.*.#. .+.+.#.=.#.-.M I S W / ^ $   . % @ % . @ h                                                                                                                                                                           ",
"                                                                                                                                                                                      .   + % $   # F S B =.` ..@.+.-.M w q.r.E r.t.n } 6 6 g a a a a a a a a a a a a 5 d 5 0 9 9 f 5 g 6 a u.x M =.....................................................@.......M n.q.r E q l g g 6 5 a a a a a a a a a a a g g 3 f 0 s.;.K ).N ).-.#.................................+.N N $.#.!.` M P i.s.r t.t.s 6 g g 5 g g g a 5 d f } 4 5 g g g g d e d 5 8 a u L +.#.=...=.#.M A p.o c 9 e 4 e 4 b d d 5 5 5 g g 5 4 4 4 f f 5 0 a 0 a 5 g g 5 9 e.%.O ..@...+.=.-.-.=.......................................................+.N N ..` #.` ..N M K J O z =.` !.` #.#.-.=.=.-.=.@...).$.@.N $.#.#.#.-.=.@.@.+.)...........................................................................................................................................................................................+.N M N +.@.#.` ` #.@.).M O M +.=.=.=.L R '.V ) # .   . @ % @ * +   %                                                                                                                                                                           ",
"                                                                                                                                                                                      .   + h .   , V S K =.-...@.$.@.M %.p.r.q q t.m b d 6 g a a a a a a a a a a a a 5 d 5 0 9 9 d 5 6 b d s w M =.....................................................=...).+.M i.r.r t.p l g d 6 a a a a a a a a a a a a a 6 b b 7 D J B ).).+.-.-.@.............................+.).).).@.#.` -.$.O w q.q r t.n 0 g g g g g g a 0 0 4 4 4 g g g g g 5 f e b 0 9 r.H O =.=.N +.-.K z p.p i 9 4 e b 4 f f f f f f d f f d d d d a a 0 a g 5 5 5 g a 6 e.x O ).@.@...=.-.#.@.+.....................................................+.N ..+.#.-.#.#.Y +.). .-.=.@.+.+.....@.@.=.@...@.#.#.@.=.#.@.@...=.#.=.=.@.....+...........................................................................................................................................................................................+.M O N @.` !.` =.+.N O O O M .. .#.K S ~.,., % $ $   + + h . + %   *                                                                                                                                                                           ",
"                                                                                                                                                                                          - -     @ t '.J ` ....)...-.).L o.r.q E q m c b 7 a a a a a a a a a a a a a 5 d 5 0 9 b d 5 c b 5 s m.L @.....................................................=.).).+.O i.q.r t.p c b 6 b g a a a a a a a a a a a a 6 4 e a u O ).).+.+.@.=.@...........................+.).).).+.=.-.#.#.=.O %.o.s.q r p c 9 a 5 g g g a 5 5 f 4 4 5 g g g g a d f f f 0 l w L  . .).M ..+.;.p.p e.0 7 0 0 9 g 0 b b g 4 b 4 6 6 6 6 g g 6 6 6 5 f f b b 7 7 l x M ).@.+...=.#.-...+.......................................................+...=.-.` ` -.=.@.@.@.=.=.N O O O M M N )...@.=.#.` -.=.=.=.-.-.-.=.=.=.@.....+...........................................................................................................................................................................................+.M O N -.!.!.` ).N M O B $.).N Y J T U k , # - . .   $                                                                                                                                                                                         ",
"                                                                                                                                                                                          - -     @ k X J #.N +.....-...O o.s.q q r t.l d 7 a a a a a a a a a a a a a 5 d 5 0 9 9 d g b b 0 i l.O @.....................................................+...+.N -.o.s.t.t.p l 6 6 b a a a a a a a a a a a a g 6 d d a l.L +.+.+.....@.=.@.........................+.).)...@.@.@.#.#.-.N L n.s.q r t.e.a a 5 g g g a 5 5 d f f d a g g g a 5 d f 4 0 9 C {.+.M $.N ..M B C q e.7 g g 6 6 6 6 c c 6 } c 4 c c 6 g 6 c 7 g g 7 7 d f d 0 0 s A O +...).+.=.#.-...).+.....................................................@.@.=.-.-.-.-.=.@.@.@.@.@.).N N N N N N ).).).+.).)...@.=.=.=.=.=.=.=.@.@...................................................................................................................................................................................................N N ..#.` ` @.).M O $.!.Z *.B R '.>.) * - , , , + $ $ $                                                                                                                                                                                       ",
"                                                                                                                                                                                          - -     @ ) ~.I !.N )...N ..@.O i.q.r.q q t.j.g d 0 a a a a a a a a a a a a 5 d 5 0 9 9 f b 6 3 6 8 n.P $.....................................................@.#. .M y p.k.t.t.m c g 6 6 g a a a a a a a a a a a a 6 b f l w O @.....@.+...=.=.........................+.)...=.@.@.+.$.=.-.$.L w q.k.q t.n 5 0 a g g g a a 5 d d d d 5 a a g a a 5 f 4 d 9 o ;.B @.N M ).M O n.r.e.9 6 5 g g 6 c f 6 6 6 g 6 f 6 c c c 6 6 a a a a a l s o D n.O ).-.).N +.@.-.-...).+.....................................................=.=.@.=.=.@.@.@.@.....+...-.` #.#.=.@...+.N M M M M N ..@.@.=.@.=.@.@.@.@.....................................................................................................................................................................................................@.=.-.Y ..+.$.).$.` ` Z *.I '.V & & & * # , ^ - $ & $                                                                                                                                                                                       ",
"                                                                                                                                                                                          j -     - = W J !.M N ....-.#.O l.r.q q q t.u.a b d a a a a a a a a a a a a 5 d 5 0 9 9 d b d c b f i.P ).......................................................=.N B *.p.s.t.t.m c d 6 5 a a a a a a a a a a a a a 6 b 0 u.%.N =...@.=.).+.=.=...........................+.@.-.=.+.N N $.-.!.).N o.s.q E m 8 0 0 a a a a a 5 5 5 5 5 5 5 5 a a a a 5 d 5 9 e.A M ` ).M @.=.L v r.n b 3 3 | 3 4 d d 6 6 7 5 6 7 6 7 7 c e.o E D C v G w x H J P N #.=.@.).N @.-.-...).+.....................................................=.=.@.....+.....@...+.+.).=.#.-.-.=.@.@...+.+.).N N +.......@.@.@.........@.@.@.............................................................................................................................................................................................-.#.@.+.B ).@.$.#.-. .z K S U t ) - * =   + , j %   & $                                                                                                                                                                                       ",
"                                                                                                                                                                                          - #     + # W I !.M N +.).#.` O m.q.q q q r n 5 b f a a a a a a a a a a a a 5 d 5 0 9 9 f 6 g } e 5 C P N ....................................................=...N M A p.s.t.t.n 6 g 6 5 a a a a a a a a a a a a a g 3 5 E K ).-...@.=.).).-.=...........................+.=.#.=.+.M M ..#.` =.L v q.r.t.t.l 9 g a a a a a 5 0 a a 5 d d d 5 a g g a 5 5 0 l x N @.Y N +.` O m.q.u.a a 5 7 a a c l l e.s o q D C v w x %.H H Q {.P ;.L L Q L M ` #.=.N N N ..=.-...).+.....................................................@.@...).).).+.@.@.@...+.).......@.@.@.....@.@.@.@.@.@.........+...........@.@.@...........................................................................................................................................................................................@.#.` +.M M B =.!.!.#.;.S T F k = ^ ; - % $ $   . % +                                                                                                                                                                                           ",
"                                                                                                                                                                                          # j     + & V J #.M ). .N =.!.M x s.r q q r m 0 b d a a a a a a a a a a a a 5 d 5 0 9 9 d d b 4 e b D L N ....................................................=.@.).).A q.q t.t.n 7 g b a a a a a a a a a a a a a a g b 5 C L N -...=.=.N ).#.-.............................-.` -.).M O N ` ` ` L A k.r.r t.n 7 0 a a a a a 5 0 0 0 5 d d d 5 a a a a a a 5 E %. .` =.N =.!.).A p.o e.s n m E D o.n.m.w y %.O O L ;.;.;.K K M +. .@.@.-. .$.M N ` ` ` N M M ..=.-...).+.......................................................+.).N N ).+.@.=.=.=.@...).N ).).).).+.+.@.@.=.=.=.@.+.+.+.+.).+.+.+.....@.@.@...................................................................................................................................................................@.........................-.=.M O K N !.Z Z N S '.W / ^ # # # h % & $ $ $ + - ,                                                                                                                                                                                         ",
"                                                                                                                                                                                          + -       $ ,.I B ..@.@.#.@.=.$.y k.k.q r r p c 4 f 0 a a a a a a a a a a a a g g 0 9 b 4 f b b b 0 D P M ....................................................+.N N L m.q.r t.t.n 7 d 7 a a 5 5 g g a a a a a a g g 5 5 g v Q  .-.@.@...N N =.=.............................=.-.=.+.N M N #.#.-.M O i.s.r t.n 3 e 4 f 5 a 6 6 9 a 0 a a a a a 7 l e.u.o r u x L N *.@.@.=.-.).L w l.l.w y H L {.{.P L O M +.@.@.@.=.=.=.-.-.-.=.-.#.#.#.#.=.B +.` ` =.).).)...@.=.@.+.........................................................+.).).).).+.@.@.=.=.@...+.).).).+.+.......@.@.@.=.@.+.+.+.+.+...........@.@.@.................................................................................................................................................................-.!.#.).M M @.-.#.@...=...)...N  .).N !.` !.K S '.,.) = = % j h - $   $ $ $   - #                                                                                                                                                                                         ",
"                                                                                                                                                                                              - + & & k '.L Z =...` ..M $.M p.r.q t.t.p e.f 4 a a a a a a a a a a a a g g g 0 0 9 4 4 g g 6 0 t.;.O ....................................................+.N ).{.l.r.r t.t.j.9 d g 6 5 d d 5 a g g g g g g g 5 3 b c l.L #.` =...N N N ....................................@.......@.@.@.@.=.;.m.q s.t.t.j.b b e 7 0 a a g 8 l u.p E C u v l.w w y H L O ..@.......@...@.@.N M O O M N N ....+.$.......@.............@.@.@.......@.@.....@.@...............@.............................................................................@.@.............................@.............................................................................................................................................................................................#.Z !.N O O ..` ` -...@.+.N N ).).#.` ` *.{.S U ' j &                                                                                                                                                                                                                     ",
"                                                                                                                                                                                              - + $ & k T L *.=.).-.=.M N B o.q.q t.t.q e.g 4 a a a a a a a a a a a a g g g 0 0 9 4 d 6 6 6 g p %.O ..................................................@.@.-.@.P n.q.r.r E u.d 0 g g d f f f d d d d d f f f 4 3 f e.x J @.#.@.+.N M +...@.........................................@...@...@.$.P n.q.r.r.e.9 i e.s o E u v l.w x %.J Q P P L L O N ..@.@.@...............@.@.@.=.@.@.@.@.@...@.@...@...@...............................................................................................................................................................................................................................................................................................................................................................=.` -...+.N M N =.#.@.M N =.Y ). .!.*.Y J '.W ' > @ $ &                                                                                                                                                                                                                   ",
"                                                                                                                                                                                              - +   $ k ~.P ` =.N @.@.N N z i.s.q t.t.q s 5 f a a a a a a a a a a a a g g 5 5 0 5 4 g 6 c 6 g o y O ..................................................@.=.!.=.O n.q.q q t.s a g g g a 5 5 5 5 d d d d f f f 4 4 g p H L  .@.@.).N )...=.=.........................................@...@...@...K z m.p.p.o.v l.w H ;.J J P O L L O M N ).@.` !.!.#.-.=...........................@.@...................................................................................................................................................................................................................................................................................................................................................................................+.).+.@.-.@.M N ..-.@.M N ..N  .-.` z I '.&.' > ; $ = %                                                                                                                                                                                                                   ",
"                                                                                                                                                                                              @   $ . ) U {.-.=.+.#.+.)...O v q.r.t.t.r n 6 5 a a a a a a a a a a a a 5 d 4 } 4 4 } } g 6 6 g u.A L @.................................................@.@.*.@.O i.q.r.q t.s 5 d g g g g g g g 0 0 0 0 0 0 0 0 e 5 D R L Y =.@.).).)...-.=...........................................@...@...@...).Y #.N M O P P L L M N ....-.#.` #.@.=.-.=.=.-.-.#.=.................................................................................................................................................................................................................................................................................................................................................................................................................).M M N N ..!.!.-...=.!.+.O M @...K I ~.,.> > *   * h -                                                                                                                                                                                                                   ",
"                                                                                                                                                                                              +     $ ' F R @.@.).=.).+.-.N m.s.r t.t.q m 7 5 a a a a a a a a a a a a 5 f } } 4 4 } } 6 6 6 6 s w L ......................................................#.N ).o.q.q r t.j.f } d 5 9 5 9 0 9 9 0 9 0 9 0 0 7 8 f C Q L  .@.@.+.).+.@.-.=.....................................................#. .). .@...N )...@.@...+...=.=...+.+.@.=.+.+...+.).).............................+.+...................................................................................................................................................................................................................................................................................................................................................................................).M M M N @.!.*.` Y Y ` ..M M B J S U k ^ ; % & $ h # #                                                                                                                                                                                                                   ",
"                                                                                                                                                                                              .     . # >.R z ..N ..@.+.@.).w q.q r r E m 6 g a a a a a a a a a a a a g g d 4 d 5 4 } c g g g e.w L @.................................................+.N M L y p.q.r t.t.j.4 } 4 d b b 9 9 9 9 9 9 9 9 a a a a e.l.Q N ..-.=...).+.@.@.=.@...................................................). .-.).@.).=...@.@.@.......+.N N +.+.).N N N N M O M +.........................@.@.@.@.@.@.@...........................................................................................................................................................................................................................................................................................................................................................................+.B M N @.-.-.` ` *.Y B ..-.B I T F ' , #   %   + . * %                                                                                                                                                                                                                   ",
"                                                                                                                                                                                                    . , V S N  .M ).@.@.@.-.y k.r E r q p l a a a a a a a a a 5 a a a g 6 g 5 6 7 6 6 6 6 6 b l l.P ....................................................O M ;.$.o.s.r.q r l a 3 5 9 8 9 8 9 9 0 0 9 8 l u.p D C l.;.M Y -.` -...).+...@.......................................................N N ).N ....@.@.@.....+.).+.@...+.....+.+.....+.+.+.@.............................@.@...................................................................................................................................................................................................................................................................................................................................................................................+.).@.` !.` ).N M B z B N z I X >.' , -   $ $ .       $                                                                                                                                                                                                                   ",
"                                                                                                                                                                                      +             . # t '.K  .M ).+.=.@.N B p.r.t.r E p e.5 g a a a a a 5 a a a 6 6 7 6 6 6 7 9 6 g c c 6 e i v L ..@.................................................).$.M L w i.k.q.o c a 7 8 l i e.s o k.D u l.w %.H H I ;.L O ).=.#.` -...).).).+.......................................................).N N N )...@.@.@.....+.).+.....@.@.@.=.=.-.#.#.` ` #.=.................................................................................................................................................................................................................................................................................................................................................................................................................+.).-.Z Z ` N L K $.M M K I U V ) ^ # * $                                                                                                                                                                                                                                 ",
"                                                                                                                                                                                      + +   $     $ % - k X K ).M N N #.#.$.z o.p r q E t.s a a a a a a a b 6 a a 5 5 6 c b b 9 9 3 b c 6 3 3 5 v P ....................................................@.=.` $.L P A n.o.k.k.D i.v l.x %.H P P L L ;.K z  .$.M ).Y ` *.Z !.-.@.+.).).+.........................................................+...@.@.=.=.=.=.=.=.@.@...+.+...@.@.=.=.#.` ` ` ` ` =.................................................................................................................................................................................................................................................................................................................................................................................................................).N =.!.*.Y $.).B N B J S W k h , , j -     $ $ $ $ + +                                                                                                                                                                                                                   ",
"                                                                                                                                                                                      + +   $       + h k ~.J M M M ).` ` =.Y i.p r q r E u.6 5 a a a a a a a a 5 6 b b f 4 3 i e e c 6 g e e 5 u L +.................................................@.=.` !.#.N O K M z J {.R {.P P L O O M N ..Y ..-.` *.!.#.+...` !.` =.=.@.......@.......................................................@.=.-.=.-.=.-.-.-.-.-.=.-.@.N N N ).+.....@.=.=.-.-.-.@.................................................................................................................................................................................................................................................................................................................................................................................................................).N +.#.Y z B z $.M I T &.' j & = @ j , @   $ & &   - +                                                                                                                                                                                                                   ",
"                                                                                                                                                                                      + +   $       - h @ U L M B M ..#.-.-.N l.n E q q E n 6 a a a a a a 5 5 5 b 6 5 b 3 e e e 8 9 0 a 5 6 9 e.l.O ..................................................@.@.` Z !.$.M z  . .M M O ).+.M N N N N ).+...@.=.=.=.@.=.N +.#.@.@.-.......@.@.@.@...................................................@.=.#.#.-.=.=.@.@.@.-.=.-.-.@.N M N N N N N ).).).).+.+...................................................................................................................................................................................................................................................................................................................................................................................................................+.).N +. . .M K B I X t > , % $ . h # # - $ & & $ .                                                                                                                                                                                                                       ",
"                                                                                                                                                                                      + -   $       - - h F J B M M ).` ` #.N m.m r q r t.m c a a a a a a b 7 a a a d 6 5 a 0 9 l e.u.k.C u G m.` $...................................................+. .+.-.` $.M +.` =.=.N ).#.#.=.=.@.@...@.@.@.....+.+.).N ).....N N ..).+.@.=.-.-.=...................................................@.=.-.=.=...+.).).).+...@.=.@.......+.+.+.+.+.).).).).).+.................................................................................................................................................................................................................................................................................................................................................................................................................=.` @.N ).@.=.K S U t ^ , * * % %   $ + % + +       $ $                                                                                                                                                                                                                   ",
"                                                                                                                                                                                          $ $       # - h >.J M M M N ` ` $.N w k.s.q.q q p l a a a a a 0 7 7 7 l e.u.o D C v l.w %.%.J J P {.O !.` ....................................................N +.=.+.).B ).Y =.` N ..` ` ` -.-.#.#.@.=.=.@.+.).+.+.N N N M ).).N ).+.@.=.-.-.=...................................................@.=.=.@...+.).N N N ).+.+...@.=.=.=.=.@.@.@...+.).+.).).+.......................................................................................................................................................................................................................................................................................................................................................................................@.@.+.+.@.@.@.....+.).).+.=.*.#.).$.N K S F 2 h $ . $ @ -   $ $ .   % - -   $ $ $                                                                                                                                                                                                                   ",
"                                                                                                                                                                                      $ $ $   % % . + % - t T B ).).)...@.@.N M n.p.k.q.r.r.u.e.s n s.k.o.i.v l.w y H ;.;.P P P P L K M M M N ..-.=.....................................................+.+.......).+.@.=. .+.@.@.=.=.@.@.@.@.@.@.............+.).+.+.+.+.+.+.....@.@.@.@.....................................................@.@.......+.+.+.+.+.........@.@.@.@...........+...+.+.......................................................................................................................................................................................................................................................................................................................................................................................@.=.=.).)...-.-...+.B B N +.).N =.` ).{.X >.% $ & $ . - - +           . .                                                                                                                                                                                                                             ",
"                                                                                                                                                                                      $ $ $   . +   . . * t T P ..+.+...@.@.N O L ;.x m.l.l.w x H H Q Q {.P L L M N $.$.$.@.$.$.@.@..... ...@.@...........................................................................@...............................................................................................................................................................................................................................................................................................................................................................................................................................................................................................................................................................@.=.=...+.N +... .N N =.=.+.$.$...K I ~.t # . $ $ $ . - +                                                                                                                                                                                                                                             ",
"                                                                                                                                                                                        $ $ $     $ $ * h t ~.I N +.@.#.#.-.$.O L L Q L L O ;.;.P O K B B +.+...=.-.=.=.@.@.=.=.@.............................................................................................................................................................................................................................................................................................................................................................................................................................................................................................................................................................................................................................................................@.-.@.M M M  ...@.!.` -.-.=.J S W ,.> j - + +                                                                                                                                                                                                                                                     ",
"                                                                                                                                                                                              $ $ $ $ $ . 2 ~.R @.#.` ` ` #.=.N O O N @.$.!.` @.Y Y Y Y @.@.@.=.-.-.-.@.@.@.@.=.@...........................................................................................................................................................................................................................................................................................................................................................................................................................................................................................................................................................................................................................................................@.@.@.+.).M N @.#.#...=.!.#.I '.>.2 j # @ # , , -   $                                                                                                                                                                                                                                               ",
"                                                                                                                                                                                      + +     $ $ $ $     2 W R #.` ` ` ` #.-.=.$.$.$.@.#.` #.` ` ` ` ` #.#.#.-.@.=.@.+...@...@.................................................................................................................................................................................................................................................................................................................................................................................................................................................................................................................................................................................................................................................................+.+.=...+.#.#...B K M I X &.' - * $   - , , j %                                                                                                                                                                                                                                                 ",
"                                                                                                                                                                                      + + .   $     $ % * ) W I ` +.).+.@.=.-.=.-.!.=.$.!.` #.` ` ` -.@.+.).+.).M N M N ....................................................................................................................................................................................................................................................................................................................................................................................................................................................................................................................................................................................................................................................................).).=.` ` !.` -.N ).z J S U t ^ , - %   & $ + % h % %                                                                                                                                                                                                                                               ",
"                                                                                                                                                                                      + - % .     .   % * ) &.'.B B M M ).@.=.#.#.@.` #.$...@.-...).).).+.).).N M N N N ..@.......@.@.........................................................................................................................................................................................................................................................................................................................................................................................................................................................................................................................................................................................................................................................+.-.*.` ` ` #.N $.J '.W k . $ - # j + & & $   % - j +                                                                                                                                                                                                                                             ",
"                                                                                                                                                                                      + - +       .   . . h ,.~.S {.;.B N $.=.-.#.-.$.N B M M N N N ).).).N N N N ).).+...................................................................................................................................................................................................................................................................................................................................................................................................................................................................................................................................................................................................................................................................@.=.#.=.z *.Y ..-.Y {.T >.) & & $ h , ^ j . & & & $ + # +                                                                                                                                                                                                                                             ",
"                                                                                                                                                                                      + -   $ $   + * h $ = , ,.U ~.S R J  .!.Z =.M O M B B M N ).).+.........@.=.-.-.=.@...................................................................................................................................................................................................................................................................................................................................................................................................................................................................................................................................................................................................................................................................@.#.N M z z z B I X V ' & $ &   % j , j %   & & &   - +                                                                                                                                                                                                                                             ",
"                                                                                                                                                                                      + +   $ $ * @ % * . - ; > ! k >.W T I ;.B ).M M O M +.........@.=.-.#.#.` ` ` ` ` @...................................................................................................................................................................................................................................................................................................................................................................................................................................................................................................................................................................................................................................................................Y B +.K P J z I ~./ ^ #   & $   % + % % % . $ & $ $                                                                                                                                                                                                                                                 ",
"                                                                                                                                                                                          $ $ $ @ # -   % . @ > > +   ) t W X S I B #.#...N ).@.@.@.=.=.-.#.#.` ` ` ` #.@...................................................................................................................................................................................................................................................................................................................................................................................................................................................................................................................................................................................................................................................................+.z ;.L K I T F ) j = % @ - - - $ $               $ $                                                                                                                                                                                                                                               ",
"                                                                                                                                                                                          $ $   @ # # . & & $ % # * h * * ) k >.~.T I J M ).@.@.........@.@.@.@.@.@.@.@.@................................................................................................................................................................................................................................................................................................................................................................................................................................................................................................................................................................................................................................................................. .+.B K P I T >.) = .   & j j j % $ $ $ $ $ $   +                                                                                                                                                                                                                                                     ",
"                                                                                                                                                                                      .   $ $ . j , , h & & & & h ^ , # %   $ % ) &.W T I K B M B N N N N N N N N N N N +.....@...@...............@.................................................................................................................................................................................................................................................................................................................................................................................................................................................................................................................................................................................................................@.......@...@.........@. ...z I ~.t ! ; h h     . @ . .     $ $ $     $                                                                                                                                                                                                                                                     ",
"                                                                                                                                                                                                + # @ h & & & $ + - j -       @ @ ^ ! t &.U '.R {.K  .@.+.N M M M )...).B ).=.!.Z ` @.).M M M N +.=.=.-.-.-.-.=.=.@.@...+.).+...................................................................................................................................................................................................................................................................................................................................................................................................................................................................................................................................................................................@.-.=.+.N N @.` !.-.B M @.Z #.J S F / > - h %   .   $               $                                                                                                                                                                                                                                                           ",
"                                                                                                                                                                                                        $ $ $                   @ @ * h h ; V U X S J K ).@.@.......=. .B B  .` !.` -.N O O M ).@.=.-.-.#.#.#.-.-.=.@...).).)...................................................................................................................................................................................................................................................................................................................................................................................................................................................................................................................................................................................@.#.=.).M N -.!.Z -.M K Y Z J X F / - - . . + @ +   $ $                                                                                                                                                                                                                                                                         ",
"                                                                                                                                                                                                                              . . * @ - h h @ 2 k &.~.S J +.` ` #.+.+.+.M M @.-.@.-.-.).).@.#.!.Z #.@...@.@.@.@.@.@...............................................................................................................................................................................................................................................................................................................................................................................................................................................................................................................................................................................................@..... .@.=.@.+.N  .B K I ~.>./ , @ % $ $   - +     $                                                                                                                                                                                                                                                                         ",
"                                                                                                                                                                                                                              . % . @ @ @ @ & $   , ' V U T I J M M M ).@...+...@.+.+.=.#.` !.Z *.-.+.+.).).).).+.+...@.=.=.@.@...................................................................................................................................................................................................................................................................................................................................................................................................................................................................................................................................................................................@...z =.=.+.N O M ..O I F t ! , #   & & $   - - %                                                                                                                                                                                                                                                                             ",
"                                                                                                                                                                                                                                  % @ @ h @ @ - * = = h j ,.&.X S {.P M ` Z -.+.=.#.=.-.#.#.-.@.@.+.).).).N N N ).)...=.-.#.-.@.................................................................................................................................................................................................................................................................................................................................................................................................................................................................................................................................................................................@.-.=...+.N M M ).-.M T u { > > j % & & & &   - - -                                                                                                                                                                                                                                                                             ",
"                                                                                                                                                                                                                                    * * % @ # , -         . h / >.U '.R K  .z B B B N ).).+.).).N ..@...+.).N N ).+...@.-.` -.@.................................................................................................................................................................................................................................................................................................................................................................................................................................................................................................................................................................................@.-.-.@.N M N @.-.O x t.{ ; , h . & & $ & & + - - % $ $                                                                                                                                                                                                                                                                         ",
"                                                                                                                                                                                                                                    % + * + h j - h $ & $ $ % j ^ ) t F T S I I J J K O M M N )...-.` -.@...+.).).)...@.-.#.-.@.................................................................................................................................................................................................................................................................................................................................................................................................................................................................................................................................................................................@.Y =.=.).N  .Y B l.u.{ > j - . $ & & & &   + - +   $ $                                                                                                                                                                                                                                                                         ",
"                                                                                                                                                                                                                                    .         & & $   @ - j ^ # @ + . ) / V U '.I J z  .M N ).+.#.` !.!.` =.@.....+...@.=.=.@.@.....................................................................................................................................................................................................................................................................................................................................................................................................................................................................................................................................................................+.#...N +.+.N  .` #.!.#.N B C l { & = - % $ $ $ & $   + + + .   $ $                                                                                                                                                                                                                                                                         ",
"                                                                                                                                                                                                                                            $ & $   + j ^ , j - . $ $   # - / t F T I P O -.$.*.-.#.*.` ` ` ` #.@.@.................................................................................................................................................................................................................................................................................................................................................................................................................................................................................................................................................................................).@.@.=.=.+. .). .#.-.K A p.c ] = & $ &             + + + +   $ $ $                                                                                                                                                                                                                                                                         ",
"                                                                                                                                                                                                                                                . + + + + + %           $ & & @ ! t u u y z N @.Y #.#...-.` #.@.=.=.@...).).+.............................................................................................................................................................................................................................................................................................................................................................................................................................................................................................................................................................................#...M #.-.+.K L m.r.} ] & & & & & + - - - - - - + +   $ $                                                                                                                                                                                                                                                                             ",
"                                                                                                                                                                                                                                            - # # - - @               $ &   . + # > ~ _ u.i.m.B L O O B ).)...` -.=.=...).N ).......................................................................................................................................................................................................................................................................................................................................................................................................................................................................................................................................................................@.@.+...@.+.#.=.O I v e.| 1 > * $ & &   . - - - - - - .   $ $ $ . .                                                                                                                                                                                                                                                                         ",
"                                                                                                                                                                                                                                            @ - # - @ @       .   $ $ & * + . $ $ @ ; { : 5 e.E v H {.{.L z +.+.-.-.=.@.).N ).......................................................................................................................................................................................................................................................................................................................................................................................................................................................................................................................................................................+.@.....-...N L J C c [ 1 ' , @ & . $ * % % % + % + %   $ $ $   - -                                                                                                                                                                                                                                                                         ",
"                                                                                                                                                                                                                                              -     $ $ $ $   . . .   j , #   $ & * ; ; ] < 4 9 l m i.x {.P O  .=.#.-.=.+.).).......................................................................................................................................................................................................................................................................................................................................................................................................................................................................................................................................................................+.@.@.@.+.N M x E f | 1 ! ; = @ - - @ + % $ $ $ $         $ $ @ # -                                                                                                                                                                                                                                                                         ",
"                                                                                                                                                                                                                                                  $ $ & $ $     % % - # > >   $ $   @ ; 2 1 < | i i i s E l.H O M N  .=.=.....@.....@.=.@.@.+.).N ).@.=.@.....+.+.+.+.+.......@.@.@.........................................................................................................................................................................................................................................................................................................................................................................................................................................................................+.+...@.@.@.@.@.....@.@.=.=.#...).......@.+.+.).O B m.u.6 f ( ! ; - . @ - = h + * $ & & & $       $   @ - j                                                                                                                                                                                                                                                                         ",
"                                                                                                                                                                                                                                                                .   . @ @ - @ @ . $   j > ~ _ | 9 0 c b e i r.n.x J J B #.@.-.#.....@.@.-.@.).K K M =.!.=.+.+.).).).).).+...@.=.Y =.@.......................................................................................................................................................................................................................................................................................................................................................................................................................................................................N N +.@.=.-.-.=.@.@.=.-.#.!.Z =.B $.N @.=.+.B P J n.l 6 | _ ~ ; -       +                                                                                                                                                                                                                                                                                                           ",
"                                                                                                                                                                                                                                                                        + @ @ @ +   . * j ' ] < } d 5 d 3 e i 9 u.D T S R L  .` -.@.....=.@.M K K B =.-.@.+.+.+.+...........@.@.@.@.@.....................................................................................................................................................................................................................................................................................................................................................................................................................................................................+.N N +.@.=.=.@...+.+.@.@.-.*.-.-.Y O $.@.#.+.P H D 9 0 } ( { k # - &           $                                                                                                                                                                                                                                                                                                     ",
"                                                                                                                                                                                                                                                                                      . # ; / ( < } 7 8 7 6 3 3 3 < ( F U T I K M N  ...N ).B M M ).@.#.=.@.=.@.@.=.@.@.@...+.+.+.+.........................................................................................................................................................................................................................................................................................................................................................................................................................................................................+.+.....@...+.).N N ).+.@.+.$.@.).B  .` #.O w p 9 e 4 : { k ; @ %                                                                                                                                                                                                                                                                                                                   ",
"                                                                                                                                                                                                                                                                        $           & h * ; ' / ( } 8 e e 6 b | [ 3 | ] t V W ~.S {.K -.).B B ).@...N +.` *.!.#.@.+.N M M M M N N ).........................................................................................................................................................................................................................................................................................................................................................................................................................................................................=.=.@.....).).N N N N ).+.M O ).` *.Y B L l.u.8 b 3 : { ' > @ &   .     @ @                                                                                                                                                                                                                                                                                                         ",
"                                                                                                                                                                                                                                                                        $           $ $ $ @ > > { < e | } b 3 l e 3 i : { > ^ k >.U S I P J M -.Z !.N M #.` ` =...N M M M M N N N ).......................................................................................................................................................................................................................................................................................................................................................................................................................................................................@.=.-.@...).N N N N N ).).).M B N ).Y B %.i.e.7 c } : ] ' # %   $   $   + @ @                                                                                                                                                                                                                                                                                                         ",
"                                                                                                                                                                                                                                                                        $ $           & $ . - ; ' ( [ | [ 3 e 0 c c c | ( ' > h ^ k V W X I K ` Z Z Y B K M M N ). .+. . . . .+.+.+.......................................................................................................................................................................................................................................................................................................................................................................................................................................................................@.-.-...+.N N N ).).+...@.@.@.=.N M P %.E g l i 3 [ 1 ' ; * -   . . $   + @ @                                                                                                                                                                                                                                                                                                         ",
"                                                                                                                                                                                                                                                                        $               $ %   h # / ( } 3 3 e 6 6 c c l | ( ' = j , ^ 2 t >.X T I J B B M M N B ).Y Y Y Y Y  .@...........................................................................................................................................................................................................................................................................................................................................................................................................................................................................@.=.@.+.).N N )...#.#.` @.@.` *.N {.w m 6 0 b 3 | 1 k = % *   .         + @                                                                                                                                                                                                                                                                                                           ",
"                                                                                                                                                                                                                                                                              + +               - ; { : b 3 c 7 8 i b 6 c [ 1 ; = + h j , ^ ' ,.U X I P M N +.Y Y Y *.Y *.Y ..+.@.@.......................................................................................................................................................................................................................................................................................................................................................................................................................................................................@.@...).N N )...-.` #.-.` @.#.Y K v j.e | i e } ( 2 # + . . .         + + +                                                                                                                                                                                                                                                                                                           ",
"                                                                                                                                                                                                                                                                        + @ @ @ @ +               + ; ] < b 6 8 i i i c b 6 [ ] ; @ & & * h j # > ,.&.~.S J J K B ).Y Y ` ` ` =.+.).@.......................................................................................................................................................................................................................................................................................................................................................................................................................................................................@...).N N ).@.` Z =.#. .M J z D l 3 3 i 3 | ( 2 ; h . + + + + + . .                                                                                                                                                                                                                                                                                                                 ",
"                                                                                                                                                                                                                                                                        @ @ +                       # ' 1 | b 7 8 8 i e 3 3 | < { ; * &   *   h h ^ > / >.U T S R L B #.` ` #.#.Y Y ........................................................................................................................................................................................................................................................................................................................................................................................................................................................................@...).N N +.=.` !.` B L {.%.q c c c 3 l | ( ~ = $ @ % + + + + + +                                                                                                                                                                                                                                                                                                                   ",
"                                                                                                                                                                                                                                                                        + +             +         @ - = ! _ } 3 4 3 e i e e 3 c : ~ > , , h . $ $ $ + = ' ! ,.W X S {.L @.!.*.Y Y Y ......................................................................................................................................................................................................................................................................................................................................................................................................................................................................@.=.@.+.N N ..-.` ..B P R w u.c 6 f c c 3 : 2 , % & . @ .   .                                                                                                                                                                                                                                                                                                                         ",
"                                                                                                                                                                                                                                                                        + +             @ @ +     % = + ; ~ : | 3 e e e e e 6 c | ( ~ > , =   %   & & $ % - , ! / >.~.'.S {.K Y #.@.@.....................................................................................................................................................................................................................................................................................................................................................................................................................................................................@.-.=...).)...@.#.Y P J u e.5 | 3 6 c 4 _ ~ > =     * +               $         +                                                                                                                                                                                                                                                                                                     ",
"                                                                                                                                                                                                                                                                        . .       $ $     + +     @ + . # ^ { < e i 8 6 6 6 b i 3 3 _ / = &   % # - + $     $ $ % h ) ,.F X S {.M @.+.....+.....................................+.....................@.@.@.@.@...................................................................................................................................................................................................................................................................................................................................................................@.@...........@.@.@.@.....#.#.@.+.)...@.).L %.D 0 8 b [ e l 3 : ~ ; &   * @ -             $ $ $ $     + @ +                                                                                                                                                                                                                                                                                                   ",
"                                                                                                                                                                                                                                                                                                  @ +   $ @ ^ ] < 9 i i 6 } } c i e 3 ( / = . . # - h % &     $ & $ $ % h k &.U '.S M ).B ).).+.@.....=.@.N N ........).).N N N N N )...+.).N ).+...@.-.#.` #.=.................................................................................................................................................................................................................................................................................................................................................................=.#.=...).N +.=.` ` #.@.).).+.@.+.+.=.=.Y J w p f b 6 8 i i | _ ~ ; $ $ .   @ %                           @                                                                                                                                                                                                                                                                                                     ",
"                                                                                                                                                                                                                                                                                                  + * $ & & j ! 1 < i i c b 4 b 9 8 6 [ 1 ! # +   - - %       .   $ $ &   h h > ,.U T S I J L N +.@.-.@.+...=.N N ).....+.N M M M N +.....).N ).)...=.-.` ` #.=.+.).+...........................................................................................................................................................................................................................................................................................................................................................=.#.@.+.).N ..#.` ` #...N M  ...+...). .J v u.4 | 4 7 i i | _ { , =       .                                                                                                                                                                                                                                                                                                                                     ",
"                                                                                                                                                                                                                                                                                                  % @ $ .   @ > 2 ( | 3 3 c 6 f g 7 8 } < ] ! ; . % * %       + +     .   $ # , > ' 2 &.~.S I K +.#.+.M ).-.).O O N @.#.` -...).).+.=.-.-.=.@.@.....@.@.@.@.+.N M M +...........................................................................................................................................................................................................................................................................................................................................................+.N N +.@.=.#.` ` #.@.+.).M O M !.` O %.C s c g c l 7 c 3 : { ' # @     . .                                                                                                                                                                                                                                                                                                                                     ",
"                                                                                                                                                                                                                                                                                                  % @ + h h % ; > ! ( [ 3 l 7 c b d b } } : ] ' = % %         - - - +     $ * # , > > > 2 t U X S I J M ..=.).M M ).-.!.!.!.` =.@...@.-.#.#.Y =. ...+.+.+.N N M M M +...........................................................................................................................................................................................................................................................................................................................................................N M N ..-.` ` #.@.+.+.+.@...M B +.M A E c 3 l l i 8 8 | _ ] k ; +       . + +                                                                                                                                                                                                                                                                                                                                   ",
"                                                                                                                                                                                                                                                                                                  + - - - @ @ % # ; ~ 1 | 0 8 7 c } } b 6 4 < ] ' ;   $     + @ # - - @ * $   + @ j h # # , ^ ,.&.~.S R J z  .N +.@.` !.*.!.` #.=...+.+.@.Y Y  . .+.).).N N N M N N +...........................................................................................................................................................................................................................................................................................................................................................N M N @.` ` #...N M N +.` ` $.O L m.o c 6 b e e i b b : { ' ; - *       + + +                                                                                                                                                                                                                                                                                                                                   ",
"                                                                                                                                                                                                                                                                                                  % % j - # + . . & ; ~ ( [ b 7 c } | } 8 i b [ ] ) = $     $ @ @ - j % @ $   $ @ @ + % @ # , , ^ k V U X S J N @.......@.=.=.=.@.....B ).+.+.+.+.z B ).).)...@.=.-.@...........................................................................................................................................................................................................................................................................................................................................................+.+.@.-.#.#...M O O M =.!.*.N J v l g c b e i 8 3 | : { > ; - % & $   . + + +                                                                                                                                                                                                                                                                                                                                   ",
"                                                                                                                                                                                                                                                                                                      @ - j %     $ * ; ~ ( [ i 5 } [ 6 7 i i e < ] ' = .     $   @ - h % % % $     $   @ - h - j h j ) t F ~.I I P J K M N ).+.+.+. .z ).N N ).+.......+...=.` !.` =...........................................................................................................................................................................................................................................................................................................................................................=.#.#.#.-.@.N M M M N ..-.=.z o.c g [ } e i i c | : { ' ; . %         . + + +                                                                                                                                                                                                                                                                                                                                   ",
"                                                                                                                                                                                                                                                                                                        @ @     .   # ; > ! 1 } f c c g i i i 8 } : ] k = %   $ . + * + % % .   $   +     $ $ $ - , # ^ j & k t U '.S P O ).N $.).N +.` -.N ..@.-.#.#.@.+.+.@.#.` ` @...........................................................................................................................................................................................................................................................................................................................................................=.#.` @.$.` ..N =.).N O O x r.c g 3 | 3 e i 6 6 _ { > ; @ .                                                                                                                                                                                                                                                                                                                                                     ",
"                                                                                                                                                                                                                                                                                                  $ $ $     +   + = - # > > ~ ( [ 4 e i e b d 9 4 | : ] ) # h %   $     . . .   $       $ $ $ $   @ - @ . % $ = 2 t F X S I P O  .` #.=.=.@.#.` !.` -.=.+.).).+.=.=.............................................................................................................................................................................................................................................................................................................................................................-. .).=...).#.!.#.Y O {.w s g c 3 3 } 3 e c 6 : { k = h - +                                                                                                                                                                                                                                                                                                                                                     ",
"                                                                                                                                                                                                                                                                                                  $ $ $       + h # - h % * ; ! ( | 8 i b } | } } b f } ] k ; ^ - = % $ $   .       $ $       $   $     % h j ; , # = ) V U T R P N @.=...).=.` Z Z !.=.).M O M M N ............................................................................................................................................................................................................................................................................................................................................................+.N N N  .*.!.Z Z M K u l 0 f } | 3 3 e 6 c _ { ; = $ & + + @ @ + +                                                                                                                                                                                                                                                                                                                                             ",
"                                                                                                                                                                                                                                                                                                    $         + % @ @ . .   @ ; ~ ( } 3 c } | } } c 8 e [ 1 2 > ; h   $ $     . . + - .   $ & & $     . - j , # % @ * . + k ,.F X S P +.N K M ..` !.` =.N M O O M N ............................................................................................................................................................................................................................................................................................................................................................).N N N )...#.Y K y D 9 9 3 | | | | 3 b } _ ~ ; = * $ $   + @ @ @                                                                                                                                                                                                                                                                                                                                               ",
"                                                                                                                                                                                                                                                                                                                $       $ $ . * ; / ( [ } } c } } 4 8 i 3 | 1 2 ; j .           . - j +   $ & & $ . % - - +     $   + # . % h j k >.G T R R I ;.Y ` ` =.).N M N +...............................................................................................................................................................................................................................................................................................................................................................).N ).+.Y N K L w m a 9 4 3 3 e 3 3 3 [ ( ~ ; = h * * %               $         +                                                                                                                                                                                                                                                                                                                               ",
"                                                                                                                                                                                                                                                                                                  + + - - -     $         @ $   * ; / ( | 6 6 c c 4 f e i 3 [ ( / ; +                     + @ @ - - % .   $ $ $ $   %   * + h - # - ) ,.W X S I J B @.@...+.@.-.!.` =...........................................................................................................................................................................................................................................................................................................................................................@.-.-.N N L {.v u.a c d 3 3 g 9 i 9 | 1 / ; & * &   - @           $ $ $ $     + +                                                                                                                                                                                                                                                                                                                               ",
"                                                                                                                                                                                                                                                                                                  + + + + +       $ & $   +     % . - / 1 | 9 8 0 b b 3 i i e [ ( ~ ; = % .               + - - - - -     $ $   $ $ $   . . @ - %   & & ) t F ~.T I {.O M +.-.` Z *.#.=.=.=...+.).).+.........).).+.@.=.=. .+.).N N ).+.+.............................................................................................................................................................................................................................................................................+.).+...@.=.=.@.@.......+.=.+...+.L H C l a e 3 4 6 c b c 6 | ( 2 ; - . & & % j @           $ $ $ $     + +                                                                                                                                                                                                                                                                                                                               ",
"                                                                                                                                                                                                                                                                                                                            + + .   $ @ ! 1 [ 9 i 8 c 6 e i e d [ ( { ' = # .     - j +   $ $ . % @ # # +                     . .       $ . ) 2 V U X R {.P N =.` !.!.#.` #...N M N N +... .@.N M ).=.#.Y Y B B K M M N ).............................................................................................................................................................................................................................................................................N N )...=.-.-...=.@.@.). .B M K P x k.i 5 f 4 b 6 c 6 } | : ] ' ; , +                                                                                                                                                                                                                                                                                                                                                                     ",
"                                                                                                                                                                                                                                                                                                                            . %   $ $ = ; ~ 1 < 3 d 7 c 7 9 6 } } | : ] 2 ; @ .   + + + . % .     + + +                     . .   .   . % %   . ^ ' t F ~.S I L @.` =.` =.+.=.` #.=.@..... .Y ..).+.........+.+.).N ).).+.............................................................................................................................................................................................................................................................................).).+.@.=.@...).).+.).-.#.).O {.l.m 0 5 5 c } 4 6 c g | _ ] k ; . %   + @ +                                                                                                                                                                                                                                                                                                                                                               ",
"                                                                                                                                                                                                                                                                                                                            . h + + h @ = ; 2 1 : | g i i 0 b } [ } | [ ( ~ ; # +   $ * @ - - % .     $ $ $ $                   .   .   h , # @ % % . h 2 t U T I J J K O ..!.Z !.` =.+.)...-.-.=...).N N ).@.-.#.#.-.@.@.............................................................................................................................................................................................................................................................................@.@.=.=.@.+.).N M M  .Y =.+.L n.s 6 6 6 c e } } } b 4 _ { k ; - + &     @ @                                                                                                                                                                                                                                                                                                                                                               ",
"                                                                                                                                                                                                                                                                                                                                @ = - # = # # ) ] : | e c 7 9 c 7 b } } < _ { 2 ;       . @ = @     $ $ $ $                 . .   .   . @ - h .   & $ & & * / t W '.'.R J  .*.!.` ..M N ).....@...+.).).).+.@.=.#.#.-.-.=.@.........................................................................................................................................................................................................................................................................@.-.#.=.@...).).B M Y B O M H C c 6 c c } b e e 3 | [ ( ~ k ; - + &       @ @                                                                                                                                                                                                                                                                                                                                                               ",
"                                                                                                                                                                                                                                                                                                                              . + # # #   % $ = ) ] < } 5 8 i 8 9 5 b e b | : 1 ~ = * *     * $ $ $ $ $                             .     * . $ & &   $     - ^ ^ > &.U '.S J O )...+.).+...@.=.-.@.+.N N N ).+.@.@.=.-.=.@.........................................................................................................................................................................................................................................................................@.#.` =...+...@.#.#.B P {.x r.6 7 6 c [ } 3 e e 3 < 1 2 ; ; - + $   %     + @                                                                                                                                                                                                                                                                                                                                                               ",
"                                                                                                                                                                                                                                                                                                                              % % = j -     & $ # k ] : d 9 7 b b 8 i i 8 } | < _ { , ; *   & & $ @ @ # +                                     .   + - @ h - = @ h h j ) ,.W X S P N -.-.@.@.-.!.*.#.+.N M M M N +... .z  ...........................................................................................................................................................................................................................................................................@.#.#.@.....-.!.*.Y M I l.s 6 } c 6 6 7 c 3 e 3 : ] ' ; # %               +                                                                                                                                                                                                                                                                                                                                                                 ",
"                                                                                                                                                                                                                                                                                                                                  @ + %   $     @ ; ' { < 3 } } 5 i i i e b } } } : ] ~ ; = $ .   @ - # @ $                               $ @ + j j # # j h .       @ # j ^ ' &.U '.R J B ..-.!.Z ` ..N N ..#.*.*.Y ).M M +.........................................................................................................................................................................................................................................................................@.#.#.=.=.-.#.-.@.M P u l 6 g } } 3 c i i e | _ { > ; % .     . $ $ $                                                                                                                                                                                                                                                                                                                                                                       ",
"                                                                                                                                                                                                                                                                                                                              $           .     + # > ; { _ < | 3 8 i i 8 b b 7 9 f | _ { ! # = - - @ @ . .                             . - - + # j # - # @ + $ $ * j j - - j j + ,.W X S {.L $...).Y Y Y *.*.Z *.#.$.M B ).............................................................................................................................................................................................................................................................................-.-.-.=.@.Y {.H D 7 c c 3 3 3 } 3 e e [ ( ~ ; = + $   .                                                                                                                                                                                                                                                                                                                                                                                 ",
"                                                                                                                                                                                                                                                                                                                                $ $       + - - -     - ; ~ 1 < } 3 e b d 8 i i 9 9 e } < 1 { > ; = + % .   $                                 .     @   *           .   $ $ &     % ^ ,.&.U '.S {.K M  .` Y ` Y =.#.!.!.` =...........................................................................................................................................................................................................................................................................` ).#.*.@.O R x n 9 8 7 6 c i 3 3 | | : 1 2 ; = $ $ $   + + + +                                                                                                                                                                                                                                                                                                                                                                           ",
"                                                                                                                                                                                                                                                                                                                                $ $ $     - # # @ $ $ * * ; 2 1 < [ | } f b 8 8 9 i i i 3 | : 1 ! > = *   .                             $ $ $ $ $ $ $ $               $ $ $ $ $ . - # > ^ ) V W '.S I K z ` +.M O N -.Z Z =...........................................................................................................................................................................................................................................................................M  .@.+.L Q v s 3 3 4 c l 6 i 3 | | ( { ' = *   $ &   + + @ @ @ @ +                                                                                                                                                                                                                                                                                                                                                                       ",
"                                                                                                                                                                                                                                                                                                                                $ $ $     @ # - @ $ $ $ $ h # > { ( | | } | | f 9 i i i i e 4 | _ ] ! ; ; - h                           $ & $ $     . . .     $ $ $           . . . + h . = @ ; k &.~.S J K $.N O O O z z ............................................................................................................................................................................................................................................................................+.O B P Q C l 3 | | 3 6 c c 3 [ [ ( ~ ; & &   + h h $     + @ @             + + +                                                                                                                                                                                                                                                                                                                                                         ",
"                                                                                                                                                                                                                                                                                                                                    $     @ + % @     $ % . @ ; > ! 1 : | } 4 d 9 e e e e 8 e e 4 [ _ { 2 ; =                             $                           .       . .   @   + @ + - - ) 2 V U '.S Q L ).Y ..........................................................................................................................................................................................................................................................................@.@...M L R x E b b c b c b c c b | < ] k ; @   +   = @ % .                     + - - +                                                                                                                                                                                                                                                                                                                                                         ",
"                                                                                                                                                                                                                                                                                                                                          $   %     .     . + h # ; ' ~ ( | 4 b f b c b 4 4 b e i i 3 < ( ~ ) ; @ +                     + @ +         $       . + + . .             - = - h # = + = @ ^ ^ k F ~.S I B ..@.....+.....@.@.@.@.@.@.@.@.+.+...@.@.@.@...+.+.+...=.@.........................................................................................................................................@.@.................+.........@.@...........+.+.+...@.@.@.............+.+.N O P x C n d 6 c 6 c c c } | [ _ { k ;     . - @ % @ + %                     + - # -                                                                                                                                                                                                                                                                                                                                                         ",
"                                                                                                                                                                                                                                                                                                                                                        $ . . + - # ; > ! ] _ < | [ c f b b b 8 i i i d } : ( ~ ' ; @ .     @ # # # + .   @                                         .   @ .   @   . % % % h ^ k t U '.S I M $.@.+.).#.` -.` ` ` -...N M +.-.` ` -.).M M N  .!.` ..+.+.+.).+.+.+.....@.@.@.............................................................................................................@.=.@.@.....+.).).).N N ).+.@.@.@.=.@.....+.).N N B ).#.-.........-.=.N M J J l.E u.5 a 9 6 6 6 6 c } < : 1 ! ; # h h $ +     . .                             + +                                                                                                                                                                                                                                                                                                                                                         ",
"                                                                                                                                                                                                                                                                                                                                                              @ @ @ . + = > ~ 1 : | d } c } d e i i 8 9 0 6 | : ] ~ > =   % + - j @ + % .                                                       @     $ $     - ' / t F ~.I {.{.K +.Y #.` @.).)...+.N M ..-.` ` -.+.N M ). .#.=.+.+.+.+.).+.+.+.....@.@.@...........................................................................................................@.=.=.=.=.@.....+.).).).N ).).+...@.@.@.@.=.=...N M N  .@.).=.-.N N O L ;.%.v q c 6 f 4 } e 9 6 c c } : _ ] ' ,     . %                                                                                                                                                                                                                                                                                                                                                                                                     ",
"                                                                                                                                                                                                                                                                                                                                                            + @ @ +     @ = ' 2 ] _ f g [ | 3 b b 9 d d f g 6 f | : ] ! = @           @ +                   @ # - #                           + +   $ $ $ $ h % # , > ) t t U '.I P M M O ;.K M N =.=.=.=.@...+...=.#.` =.M O M +...................@.@.@...........................................................................................................@.=.-.-.-.=.=.=.=.=.=.=.-.=.).M N )...@.-.#.#.` ` ` -.Y z Y  .O L P H l.C s g 8 c 6 g b } } 4 6 c 6 4 ( ~ > > + $ $   .                                                                                                                                                                                                                                                                                                                                                                                                     ",
"                                                                                                                                                                                                                                                                                                                                                            + @ @     $ . h ; ; k / 1 : | 4 c 3 5 4 4 4 d a 0 7 c b [ _ { ) = * $ %   * @ @ + + . .         @ @ # -                           + - + $ & & $ &   h # , > - ) ) t F X S R P O M $...=.=.-.-.@...+.)...@.=...).M N ..@.@.=.@.@.@.@.@.@.@.@.@.............................................................................................................+.+.+...@.@.=.#.` ` ` !.` ..N N +...=.-.=.#.` ` #.!.*.N L P Q w u t.c g 6 c } 3 e e 8 e b b 3 } : ] / ; , @ $ $     .                                                                                                                                                                                                                                                                                                                                                                                                     ",
"                                                                                                                                                                                                                                                                                                                                                            + @ @     $ $ $ @ # > > k ~ ( [ b b } 4 4 d 7 6 6 7 c 6 c | : ( { 2 ; = * $ . @ # - + + +                                         % - .   $ & $   $ $ % h % $ $ &   $ ) &.~.T Q L N  . .@.@.@.=.=.@...).N M ).@.` #.=.@.=.=.=.=.=.@.@.@.................................................................................................................+.N N N ).+...@.-.#.` !.!.` -.....@.@.@.@.-.+.+. .M O L O x u t.l g g 4 c 6 b [ | | e i 8 6 d [ ( ~ > ; # * $ . .                                                                                                                                                                                                                                                                                                                                                                                                           ",
"                                                                                                                                                                                                                                                                                                                                                              @ @     $ $   . % * # # ; ' { ( < 4 9 8 9 7 7 g b f } c c d 3 [ 1 ~ 2 ;   % . + @ @ @ # - - + .   $ $                           . h .     $ $ *   %   & & $ % % * * + ) / t W X S J B +.$.N N ..=.#.#. .N N ..#.` =.=.=.-.-.=.=.=.@.@.....+...........................................................................................................@.=.=.=.=.@.@...+.).N N N ).-.` ` -.@.+.N O L P {.{.x v E u.i f f 4 c 6 4 c 4 c } 3 4 4 } [ _ 1 ! > ; * %   * . %                                                                                                                                                                                                                                                                                                                                                                                                           ",
"                                                                                                                                                                                                                                                                                                                                                        $ $   + @         $ $ $   @ @   $ = ) ] : } 0 9 9 a 6 } b } } } i i i 3 : 1 ~ > =     + @ = # - - + .   $ $                                         .     $ & & & + h - # - $ & $ ) t F ~.S R P L M  .Y Y Y +.)...=.` #.-.=.@.-.-.-.=.=.=.@.....+...........................................................................................................@.` ` ` ` =.@.+.).N M M O M =.` #.@.N L P Q R ].v E u.8 0 4 f e e 7 c 6 g c g g c b } < _ 1 ~ ; # * .   * . .                                                                                                                                                                                                                                                                                                                                                                                                               ",
"                                                                                                                                                                                                                                                                                                                                                          $     @ +                 . .     . # ! ] [ 4 7 b b c 6 6 b b b e e 3 | < _ ] ! , = - - @ @       . % %                             $ & & $   + + - +     $ & $ # @     $ $   . @ = ) 2 ,.W T S J z B K L O M =.*.Z ` #.@.@.@.-.-.-.=.=.@.....+...............................................................................................@.@.+...=.@.+.=...=.` =.=.#...N +.@.@...Y N O L {.J x v E l d b a g c b b b e e e e e 3 g 5 a [ : ] ~ > > # # $ $ $                                                                                                                                                                                                                                                                                                                                                                                                                     ",
"                                                                                                                                                                                                                                                                                                                                                        $ $ $     + @               . . .     . = # ~ 1 : } 4 7 9 8 8 9 7 3 4 4 | | } | _ 1 ! > ; # %   $ & $   % % .                         $ & & $   + - - - - - + .   @ + $ $ $   * - - - % % * ) t >.~.S R P O ).=.=.@.#.#.). .=.@.@.-.#.-.=.@...+.)...............................................................................................@.@.@.....@.=.).-.@.).+.@.=.=.=.-.=.....{.{.H w u E s c d g g g f c c c 6 b e i e e 4 | | : ( { / ' ; = + h   + $ $   $                                                                                                                                                                                                                                                                                                                                                                                                                 ",
"                                                                                                                                                                                                                                                                                                                                                          $         @ @ @ @         . . . + - @ %   * = ~ 1 [ } f 7 i i 9 6 b } } 3 9 i 9 | : 1 ~ > ; * $   $ $ $                             $ $ $ $   + - - j j j - - %   $     . % - h h   & $ $ & & % ' V U T z K N B B  .z M M N )...@.=.-.=.@...+.)...............................................................................................=.=.=...).+.=.@.@.+.@.`  .M N N O L M y l.u p e.6 6 g c 6 6 b f f c 7 c 6 6 d b 4 3 | _ ] ~ > ; = = + h @ @ @     $ $                                                                                                                                                                                                                                                                                                                                                                                                                   ",
"                                                                                                                                                                                                                                                                                                                                                                      + @ @         . . + - - . . + * = = ! ~ 1 : | b 8 i 6 c c } 6 8 i i i i | [ 1 ~ ; # h . $ $                                     . . + - @ - - - - %   $           . .   $   . % % - j ^ 2 t F ~.S I K B B z M B  .@...@.=.=.@...+.).................................................................................................+...=.....#.` !.` =.K O P {.Q x v D o l a g 6 6 6 c 6 6 g g c 6 6 7 i 8 4 | < : 1 { ! > > # & & & @ j - #   $ $ $   . .                                                                                                                                                                                                                                                                                                                                                                                                               ",
"                                                                                                                                                                                                                                                                                                                                                        + +                   $ $     . + + . . * * h j = = * ^ { ( : 4 0 7 6 f c g g 9 i i i i c b : 1 ~ > ; j   = $                         . . . . .             % % % .     $ $ $   .   . h h # j ^ = + h h h j 2 >.U T S {.P K B +.).=.-.=.=.@...+.)...............................................................................................=.....-.@.+.@.Y N O L P H w C t.j.0 a a e a 5 c 3 3 b 3 b b c d g g b 4 | < ( 1 ~ , + * * *   & $   = # h . $ $ & $   + +                                                                                                                                                                                                                                                                                                                                                                                                               ",
"                                                                                                                                                                                                                                                                                                                                                        @ - .                 $ $   + .       $ h   = @ % % - # > ' { _ < 3 9 7 7 b 4 3 3 3 | 3 b b 4 } < _ { 2 > j @     . .                     +         $ $ $ $ $       . $   $     + . + . + * = - % * * . % % # ; 2 ,.W X H L L M N @.-.=.@.@...+.)...............................................................................................-.......M M O I ].x u D s c b a a c 3 } b b e 3 e b 3 f b f 5 5 a } < _ 1 { ! ; = * = *   + @ # - % % . $ &         + @ +                                                                                                                                                                                                                                                                                                                                                                                                               ",
"                                                                                                                                                                                                                                                                                                                                                        + + +               $ $ $               $ $ % h + @ . . % , > 2 ] ( < | } d 6 b 3 | 3 } e i i 9 b 3 [ _ ] ~ ' > ; = @ . .     $ $ $ $         $ $ & $ $ $ $ $ $ $ . . .   .   + @ + % .   . % . $   % . * * h - # j j k F U T S {.O @.=...@...). .N N N )...@.=.-.-.-.=.+.N +.=.=.=.@.@.......+.).+.+.@. .Y =.=.=.-.#.-.=.......+.....+.......).O L P L %.w v C n 3 g g 6 8 b 5 f f 4 3 } } 3 e e e 8 e b 4 | [ : ( { ~ ' ; = @ * * $ . . @ - j # * $ & &   $ . + + +                                                                                                                                                                                                                                                                                                                                                                                                                   ",
"                                                                                                                                                                                                                                                                                                                                                                                                                  - # > > ' ] ( < | b 7 c c 6 b e 9 7 g 6 b f 4 3 | 1 { 2 ' ; = @ $ $ & $   %         $             $ $   % . % % . .                                       $ $ h ) ,.U X S P M N M M ).Y B M B M N ..-.!.!.` =.).M ).=.=.=.=.@.@.@...+.).).N ).+.Y Y ` ` !.` -.` `  .N z B M B O L L P y w v C p l 4 4 f d d b b e e b f b b 6 } | } b 8 i e e | : ( ] ~ ' ; @ - + + .                                                                                                                                                                                                                                                                                                                                                                                                                                                         ",
"                                                                                                                                                                                                                                                                                                                                                                                                                $ + + @ ; > > ~ 1 _ | } c 8 8 c 6 6 g g 6 b 5 9 9 3 | < : ( { / ' ; # @ % . @       $ * * @ + + @ - - - %   . .   .             $ $   @ @ + + + +                   @ ) t >.~.'.R J Y #.` =.@...+.N )...@.-.-.-.@...).N N ).+.).+.+.+.+...@.@.@.+.).+.=.=...@.#.$.B M M O P {.Q H G i.D m s c f f d b 5 9 b b 9 d e 3 e 4 b f 6 c b 8 b 4 | < ( 1 ~ ! > # = %   . . . .                                                                                                                                                                                                                                                                                                                                                                                                                                                         ",
"                                                                                                                                                                                                                                                                                                                                                                                                              .   $     - # > > ,.~ 1 _ | 8 8 6 6 c b f b e f 4 b d 0 0 6 c [ _ 1 ~ ! > > , , # = @ + - - @ - - - # - - +         $ $   $ $ $ $ $ $ + # - - - @ @ @ @ @ @ @ @ % h   &   h . ) V F T I O M !.!.-...N M N N N ..=.#.` ..M M N N ).)...@.=.@.=.#.#.).M M M M O L P L P P H x l.C r u.e.6 a g g g a e e i i 8 8 9 0 g g c 6 b f b 3 6 6 c [ _ 1 { 2 > ; =   . .     .                                                                                                                                                                                                                                                                                                                                                                                                                                                               ",
"                                                                                                                                                                                                                                                                                                                                                                                                              + . . $   + + = ; , ; k ! 1 [ | | | } | b b 9 d g 6 6 c 6 c } } | | < _ 1 ] / k > ^ > ; # # - @ * $ .   $ $ $ $ $ $ $ $ $ $ $ $ $ $ $   + + + +       . .       * @ h h $ & & & . ) k >.X '.J +.Y Y  .B ).B N ).@.#.` -.@.@.@.=.=.=.@.=.` ` -.-.@.M M O L P J H x G u E o e.l f g d 4 3 3 3 e 3 | | | | 4 d 0 g g 6 6 6 6 b f b } : ( 1 ~ 2 > ; > - +     & &   .                                                                                                                                                                                                                                                                                                                                                                                                                                                                 ",
"                                                                                                                                                                                                                                                                                                                                                                                                            + * % % . $ & $   $ @ @ # ; ' ~ 1 _ < | e 9 9 6 6 6 b f c 6 b 4 c 3 3 3 3 | < : ( { ! ! > > ; ; = = * $   $ $   +                         +                         # @ * $ $ .   % @ > ^ 2 V U '.S I K z Y ..).N +.=.` ` ` -.=.=.=.@.+.N O L P O M ;.y x l.u E o e.9 9 9 i 8 b 7 8 3 3 | 3 3 } 4 } c | | } 4 f g 6 6 6 6 } [ : ( 1 ~ ! > ; ; @ -   $ $ & @ @ @   .                                                                                                                                                                                                                                                                                                                                                                                                                                                                 ",
"                                                                                                                                                                                                                                                                                                                                                                                                              . % + $ .   & $ $ $ $   h * = > ~ 1 < f 6 6 6 9 9 e 3 | 4 3 c 8 8 8 c 4 3 [ | | | < _ 1 ] ~ 2 > > = = @   @ , , , , , # , # - - - + + + +     + + +         .   - , > , , # # = @ %   $ & h ^ k W ~.S J N N M M M $.-.#...N M L L P P J %.x l.n.C E m l a a a a g 6 6 6 5 6 8 8 i e 3 3 | 3 4 c 6 6 6 6 } } 4 d a g f : ( { ~ ^ = = @   .   & & & $ $ @ # , # . .                                                                                                                                                                                                                                                                                                                                                                                                                                                                 ",
"                                                                                                                                                                                                                                                                                                                                                                                                              % - @ $     $ $     . % . + + * ; ' { 1 [ } 4 b 9 9 b 3 b 7 7 8 8 c b b d 7 7 e b 3 3 3 | < : 1 1 { ~ ! ' > > ; ; ; , j j @ +   . . .             $             @ # # - - - - - +   $   % h ^ ^ ^ 2 >.U T S {.{.P P {.{.{.H x w v u D E n s l f f d g g g 6 6 6 } c 6 6 g g 7 8 7 b b 3 b b 6 g 6 7 8 i 4 } | < ( 1 { ! ) ; = = + +     $ $ & & & $ $   % - -                                                                                                                                                                                                                                                                                                                                                                                                                                                                     ",
"                                                                                                                                                                                                                                                                                                                                                                                                              + + +     $         . % % %   $   = ; 2 ~ ( < | } c 6 c i i e 9 6 5 a 5 0 0 0 9 8 e e e b e f 4 } [ : _ ( 1 { ~ ~ ! ^ > ; , # # @ @ @ @ @ @ * +   . +       +   + . +   * * @ @ # # # # > # ; = ; > ' / >.F G w l.u u D p n n s i 7 0 g 0 0 5 4 4 b g g 4 } c 4 4 6 4 6 6 0 a 5 b d 6 g 6 6 6 6 b 4 } | [ ( ] ~ 2 , = * $ $     @ . . . .         $                                                                                                                                                                                                                                                                                                                                                                                                                                                                               ",
"                                                                                                                                                                                                                                                                                                                                                                                                                              . + + - - - # @ % + = ; > > ~ ( : | 6 8 8 9 b 3 b b g 0 9 9 i i 9 9 0 0 0 0 f 3 3 5 a g g } < < : _ _ ( 1 ] { { ~ ~ / 2 ' ) ' ' ' ; ' # ' > > ; ) ) ) ; ) ) ) ' > > ' ! / ~ ~ { ] { 1 ( < c l l c 6 a 5 0 0 0 g g e b d f f 4 4 4 g g 6 6 c 6 6 c c e b b b 4 4 4 b b b 6 c | [ _ ( ] { ! ) ; ; # # # % % %         + - - # - - - +   $ $ & &                                                                                                                                                                                                                                                                                                                                                                                                                                                                     ",
"                                                                                                                                                                                                                                                                                                                                                                                                                              + + + - - j # = - % . % @ j > k { ( < 6 a a 5 b b 5 5 d b 9 b e 5 d 5 g 5 d d e 8 9 8 i i 8 6 d d 5 4 3 c | 3 [ [ [ : _ _ ( ( ( 1 1 1 1 1 1 1 1 1 1 1 1 1 1 ( ( ( ( ( : < [ : : : < | | | 3 3 e e e b 3 } 4 } 4 4 4 f f f b g f 6 5 9 9 8 8 8 8 9 8 d b 4 } 3 | } | [ < _ _ 1 { ~ > > = & & * * + - - - % . .   $     + - - j # # - +   $ & $                                                                                                                                                                                                                                                                                                                                                                                                                                                                     ",
"                                                                                                                                                                                                                                                                                                                                                                                                                            . + + + + + - - j - @ * & & & $ ; > ' ~ _ [ } b 7 c b 4 } } | } } } } } b b g g g 5 9 9 9 e 8 i i 8 8 7 6 c 6 6 7 c c e 4 4 b 4 4 4 f 5 f 4 4 4 } } | } 4 b | | | } 4 f b c c b b 4 3 3 e e 3 7 8 8 i 8 7 b b 3 4 g 6 6 6 6 g c 6 g f e e 9 i 8 8 c 3 c } } } [ [ : ( ] { ~ ' = = = = * @ @   . % . $   %         $ $ $ $     + + - + + - +                                                                                                                                                                                                                                                                                                                                                                                                                                                                         ",
"                                                                                                                                                                                                                                                                                                                                                                                                              $ $ $ $                   $ $ . % +   . $ @ % % , > > ' ~ 1 _ < | f 5 b 4 d b 6 b b 6 b g g g g 6 b 4 b 4 9 7 c 7 8 b 7 b b c 0 7 b 7 9 9 9 0 6 a a 5 a 5 d d d 4 } b 6 6 8 e e 9 9 9 9 b b c i 0 9 7 g b 3 b 3 c c 7 c b b 6 6 f 6 6 g g g 6 b g f 4 5 9 0 d 3 3 | [ : ( 1 ] ~ / ' > > ; = @ * $     @   . + $       $   $           $   $             + + +                                                                                                                                                                                                                                                                                                                                                                                                                                                                     ",
"                                                                                                                                                                                                                                                                                                                                                                                                              $ $ $                   $     $ & $ . % - # # j + $ * = j , ' { 1 : } 5 g g g g g 8 9 9 9 9 9 e b b 4 b d 4 } } 4 4 4 4 3 4 4 3 e e e b 6 5 5 5 d d f f 4 4 4 4 } 3 3 e 6 6 g 0 9 d } } 4 b 7 7 c 6 g 6 b 3 } } } 6 6 6 6 6 c b c f f 4 } 4 } } } } | } } | [ : ( 1 { ~ 2 ) = &   @ # - - - -         $ + +   $ $ $   $     + - - - . .     $ $ & $ $     + +                                                                                                                                                                                                                                                                                                                                                                                                                                                                     ",
"                                                                                                                                                                                                                                                                                                                                                                                                                                              $     . + % + +     $ .   - # , > ! { 1 _ < | } 4 f b e 0 0 0 c 6 b d b f b 3 b b 3 4 4 4 } 4 } } } } f 9 9 9 b 9 b 9 b b b b b b 4 3 b f 6 6 6 5 d f f d b g g 6 g d 5 b } b b b f 6 6 7 7 6 6 5 f 4 } | } | | [ _ ( 1 ] { ~ 2 ; ; ; ; = = @         . . .         $               $   $       +                                                                                                                                                                                                                                                                                                                                                                                                                                                                                                 ",
"                                                                                                                                                                                                                                                                                                                                                                                                                                                                                = ; ' 2 { ] ( : [ | } 4 3 c 0 0 7 8 c c 6 b b f b b b b d b f b 4 b f b b b 9 b 9 b b 9 b 9 b b e b b d 5 5 b b b 0 6 6 7 9 9 0 7 7 b 7 6 b d d f f f f 4 } } | < : : _ ( 1 ] ~ ~ ' ' > # = @ .   $ $ $                                                                                                                                                                                                                                                                                                                                                                                                                                                                                                                                                         ",
"                                                                                                                                                                                                                                                                                                                                                                                                                                                                    + .         +   = ; ; ' 2 ~ ] ( _ : | } f 9 8 8 i e e e 3 f f b b b c 8 8 8 8 9 g 6 6 b 6 b 6 f 6 b 6 b 6 6 6 6 6 g 6 6 6 6 g g b 3 c e 8 8 9 9 9 b b b 4 4 } } [ : _ ( 1 1 { { ! ! > ; = ; > > ; ; # - %                                                                                                                                                                                                                                                                                                                                                                                                                                                                                                                                                                   ",
"                                                                                                                                                                                                                                                                                                                                                                                                                                                                    + +         $ * $ @ - # ; ; k ' ! ~ { ] 1 ( _ < < < | | } 4 4 4 e b 9 9 8 9 i 8 6 6 6 6 6 6 6 6 6 6 6 6 6 6 7 7 9 0 0 a b b 4 4 } } } | | | < : : _ _ ( 1 1 ] { { ! ~ 2 ' > ; ; ; # - h +   # # - - %   *         + + +                                                                                                                                                                                                                                                                                                                                                                                                                                                                                                                                                     ",
"                                                                                                                                                                                                                                                                                                                                                                                                                                                                    +             . $ $ $     @ * & = * # ; ' ' ! ! ~ ~ { 1 1 ( ( _ _ : [ [ | | | } 3 } | } } } } } } } } } } 3 | 3 | | [ [ < : : _ ( ( ( ] { { { ~ ~ ! ' ) ^ ; ; ; ; = * = = = # - + @ = * = =   .   .   $ $         @ @ @                                                                                                                                                                                                                                                                                                                                                                                                                                                                                                                                                     ",
"                                                                                                                                                                                                                                                                                                                                                                                                                                                                                + + . . . . .   $       * = @ j ; ; > > > ; ; ; , ) ) ! ! ! ~ ~ ~ ~ { { { { { { { { { { { { { { { ~ ~ ~ ~ ! ! ' ' ' ' > > > > , ; ; = # - @ * $ $ $ $ & $ $     .       . + %   .     $ $         + + @ # @                                                                                                                                                                                                                                                                                                                                                                                                                                                                                                                                                     ",
"                                                                                                                                                                                                                                                                                                                                                                                                                                                                              @ - - # - @ # - @ @ % % @   .   + % %   .   $ $ $ & $   $     $         @ @ @ @ = @ * @ = @ @ = * *   + @ @ # - h h - - # @ @ @ @ @   . %     $ $     . . . . .   *                   .             + + @ - +                                                                                                                                                                                                                                                                                                                                                                                                                                                                                                                                                     ",
"                                                                                                                                                                                                                                                                                                                                                                                                                                                                    $ $ $   @ @ # # # # # # - # # # # # # @ @ +           . + . . . . . . . . . .   - - # @ @ - - @ - - - @ - +     $ $ $ $ $ * $ $ $ $ & $ @ @   .               . - # , # # # - + . . .                           + + + +                                                                                                                                                                                                                                                                                                                                                                                                                                                                                                                                                     ",
"                                                                                                                                                                                                                                                                                                                                                                                                                                                                    $ $         @ @ + +       + @ - @       $   $ $     . # # # , # - - - @ + + + +         +     +       . +               $ $ $ $ & $ $ $               + + + + + - - - - + - % - + + + + + + - - @ @ + +           . .                                                                                                                                                                                                                                                                                                                                                                                                                                                                                                                                                       ",
"                                                                                                                                                                                                                                                                                                                                                                                                                                                                                    $ $ $ $ $ $   $ $ $ $ $ $ $ $       + # , , # # # # - - + . .                           $   . + + . +           $ $       $ $         + + @ @ -     $           + @ @ # # # # # # @ @ +                                                                                                                                                                                                                                                                                                                                                                                                                                                                                                                                                                     ",
"                                                                                                                                                                                                                                                                                                                                                                                                                                                                                    $ $ $ $ & $         $ $         + @ @ @ - @ - % + .                                         . + + - + + + + + - - - +             + @ @ @ # @ #   $ $ $ $ $ $ $ $ $ $       +   + + +                                                                                                                                                                                                                                                                                                                                                                                                                                                                                                                                                                       ",
"                                                                                                                                                                                                                                                                                                                                                                                                                                                                                    $ $ $ $ $   + +               + @ @ +                                                         .   . . . + + + - + - +               + @ @ + + +     $ $ $ $ $ $ $ $ $ $ $ $                                                                                                                                                                                                                                                                                                                                                                                                                                                                                                                                                                                 ",
"                                                                                                                                                                                                                                                                                                                                                                                                                                                                      + .           + + @ @ # - # - - @                                               +   + +   +   + +   +     $ & $ $ $ $             . $ $           $ $                               $ $ $ $ $   $                                                                                                                                                                                                                                                                                                                                                                                                                                                                                                                                                                         ",
"                                                                                                                                                                                                                                                                                                                                                                                                                                                                                    + @ @ @ @ @ @ - @ +                                               +   + +   +   + +   +     $ $ $ $ $ $ $ $                 $             $   $   + + + +                   $ $ $     $                                                                                                                                                                                                                                                                                                                                                                                                                                                                                                                                                                     ",
"                                                                                                                                                                                                                                                                                                                                                                                                                                                                                                                                                                                                                                                                                                                                                                                                                                                                                                                                                                                                                                                                                                                                                                                                                                                ",
"                                                                                                                                                                                                                                                                                                                                                                                                                                                                                                                                                                                                                                                                                                                                                                                                                                                                                                                                                                                                                                                                                                                                                                                                                                                ",
"                                                                                                                                                                                                                                                                                                                                                                                                                                                                                                                                                                                                                                                                                                                                                                                                                                                                                                                                                                                                                                                                                                                                                                                                                                                ",
"                                                                                                                                                                                                                                                                                                                                                                                                                                                                                                                                                                                                                                                                                                                                                                                                                                                                                                                                                                                                                                                                                                                                                                                                                                                ",
"                                                                                                                                                                                                                                                                                                                                                                                                                                                                                                                                                                                                                                                                                                                                                                                                                                                                                                                                                                                                                                                                                                                                                                                                                                                ",
"                                                                                                                                                                                                                                                                                                                                                                                                                                                                                                                                                                                                                                                                                                                                                                                                                                                                                                                                                                                                                                                                                                                                                                                                                                                ",
"                                                                                                                                                                                                                                                                                                                                                                                                                                                                                                                                                                                                                                                                                                                                                                                                                                                                                                                                                                                                                                                                                                                                                                                                                                                ",
"                                                                                                                                                                                                                                                                                                                                                                                                                                                                                                                                                                                                                                                                                                                                                                                                                                                                                                                                                                                                                                                                                                                                                                                                                                                ",
"                                                                                                                                                                                                                                                                                                                                                                                                                                                                                                                                                                                                                                                                                                                                                                                                                                                                                                                                                                                                                                                                                                                                                                                                                                                ",
"                                                                                                                                                                                                                                                                                                                                                                                                                                                                                                                                                                                                                                                                                                                                                                                                                                                                                                                                                                                                                                                                                                                                                                                                                                                ",
"                                                                                                                                                                                                                                                                                                                                                                                                                                                                                                                                                                                                                                                                                                                                                                                                                                                                                                                                                                                                                                                                                                                                                                                                                                                ",
"                                                                                                                                                                                                                                                                                                                                                                                                                                                                                                                                                                                                                                                                                                                                                                                                                                                                                                                                                                                                                                                                                                                                                                                                                                                ",
"                                                                                                                                                                                                                                                                                                                                                                                                                                                                                                                                                                                                                                                                                                                                                                                                                                                                                                                                                                                                                                                                                                                                                                                                                                                ",
"                                                                                                                                                                                                                                                                                                                                                                                                                                                                                                                                                                                                                                                                                                                                                                                                                                                                                                                                                                                                                                                                                                                                                                                                                                                ",
"                                                                                                                                                                                                                                                                                                                                                                                                                                                                                                                                                                                                                                                                                                                                                                                                                                                                                                                                                                                                                                                                                                                                                                                                                                                ",
"                                                                                                                                                                                                                                                                                                                                                                                                                                                                                                                                                                                                                                                                                                                                                                                                                                                                                                                                                                                                                                                                                                                                                                                                                                                ",
"                                                                                                                                                                                                                                                                                                                                                                                                                                                                                                                                                                                                                                                                                                                                                                                                                                                                                                                                                                                                                                                                                                                                                                                                                                                ",
"                                                                                                                                                                                                                                                                                                                                                                                                                                                                                                                                                                                                                                                                                                                                                                                                                                                                                                                                                                                                                                                                                                                                                                                                                                                ",
"                                                                                                                                                                                                                                                                                                                                                                                                                                                                                                                                                                                                                                                                                                                                                                                                                                                                                                                                                                                                                                                                                                                                                                                                                                                ",
"                                                                                                                                                                                                                                                                                                                                                                                                                                                                                                                                                                                                                                                                                                                                                                                                                                                                                                                                                                                                                                                                                                                                                                                                                                                ",
"                                                                                                                                                                                                                                                                                                                                                                                                                                                                                                                                                                                                                                                                                                                                                                                                                                                                                                                                                                                                                                                                                                                                                                                                                                                ",
"                                                                                                                                                                                                                                                                                                                                                                                                                                                                                                                                                                                                                                                                                                                                                                                                                                                                                                                                                                                                                                                                                                                                                                                                                                                ",
"                                                                                                                                                                                                                                                                                                                                                                                                                                                                                                                                                                                                                                                                                                                                                                                                                                                                                                                                                                                                                                                                                                                                                                                                                                                ",
"                                                                                                                                                                                                                                                                                                                                                                                                                                                                                                                                                                                                                                                                                                                                                                                                                                                                                                                                                                                                                                                                                                                                                                                                                                                ",
"                                                                                                                                                                                                                                                                                                                                                                                                                                                                                                                                                                                                                                                                                                                                                                                                                                                                                                                                                                                                                                                                                                                                                                                                                                                ",
"                                                                                                                                                                                                                                                                                                                                                                                                                                                                                                                                                                                                                                                                                                                                                                                                                                                                                                                                                                                                                                                                                                                                                                                                                                                ",
"                                                                                                                                                                                                                                                                                                                                                                                                                                                                                                                                                                                                                                                                                                                                                                                                                                                                                                                                                                                                                                                                                                                                                                                                                                                ",
"                                                                                                                                                                                                                                                                                                                                                                                                                                                                                                                                                                                                                                                                                                                                                                                                                                                                                                                                                                                                                                                                                                                                                                                                                                                ",
"                                                                                                                                                                                                                                                                                                                                                                                                                                                                                                                                                                                                                                                                                                                                                                                                                                                                                                                                                                                                                                                                                                                                                                                                                                                ",
"                                                                                                                                                                                                                                                                                                                                                                                                                                                                                                                                                                                                                                                                                                                                                                                                                                                                                                                                                                                                                                                                                                                                                                                                                                                ",
"                                                                                                                                                                                                                                                                                                                                                                                                                                                                                                                                                                                                                                                                                                                                                                                                                                                                                                                                                                                                                                                                                                                                                                                                                                                ",
"                                                                                                                                                                                                                                                                                                                                                                                                                                                                                                                                                                                                                                                                                                                                                                                                                                                                                                                                                                                                                                                                                                                                                                                                                                                ",
"                                                                                                                                                                                                                                                                                                                                                                                                                                                                                                                                                                                                                                                                                                                                                                                                                                                                                                                                                                                                                                                                                                                                                                                                                                                ",
"                                                                                                                                                                                                                                                                                                                                                                                                                                                                                                                                                                                                                                                                                                                                                                                                                                                                                                                                                                                                                                                                                                                                                                                                                                                ",
"                                                                                                                                                                                                                                                                                                                                                                                                                                                                                                                                                                                                                                                                                                                                                                                                                                                                                                                                                                                                                                                                                                                                                                                                                                                ",
"                                                                                                                                                                                                                                                                                                                                                                                                                                                                                                                                                                                                                                                                                                                                                                                                                                                                                                                                                                                                                                                                                                                                                                                                                                                ",
"                                                                                                                                                                                                                                                                                                                                                                                                                                                                                                                                                                                                                                                                                                                                                                                                                                                                                                                                                                                                                                                                                                                                                                                                                                                ",
"                                                                                                                                                                                                                                                                                                                                                                                                                                                                                                                                                                                                                                                                                                                                                                                                                                                                                                                                                                                                                                                                                                                                                                                                                                                ",
"                                                                                                                                                                                                                                                                                                                                                                                                                                                                                                                                                                                                                                                                                                                                                                                                                                                                                                                                                                                                                                                                                                                                                                                                                                                ",
"                                                                                                                                                                                                                                                                                                                                                                                                                                                                                                                                                                                                                                                                                                                                                                                                                                                                                                                                                                                                                                                                                                                                                                                                                                                ",
"                                                                                                                                                                                                                                                                                                                                                                                                                                                                                                                                                                                                                                                                                                                                                                                                                                                                                                                                                                                                                                                                                                                                                                                                                                                ",
"                                                                                                                                                                                                                                                                                                                                                                                                                                                                                                                                                                                                                                                                                                                                                                                                                                                                                                                                                                                                                                                                                                                                                                                                                                                ",
"                                                                                                                                                                                                                                                                                                                                                                                                                                                                                                                                                                                                                                                                                                                                                                                                                                                                                                                                                                                                                                                                                                                                                                                                                                                ",
"                                                                                                                                                                                                                                                                                                                                                                                                                                                                                                                                                                                                                                                                                                                                                                                                                                                                                                                                                                                                                                                                                                                                                                                                                                                ",
"                                                                                                                                                                                                                                                                                                                                                                                                                                                                                                                                                                                                                                                                                                                                                                                                                                                                                                                                                                                                                                                                                                                                                                                                                                                ",
"                                                                                                                                                                                                                                                                                                                                                                                                                                                                                                                                                                                                                                                                                                                                                                                                                                                                                                                                                                                                                                                                                                                                                                                                                                                ",
"                                                                                                                                                                                                                                                                                                                                                                                                                                                                                                                                                                                                                                                                                                                                                                                                                                                                                                                                                                                                                                                                                                                                                                                                                                                ",
"                                                                                                                                                                                                                                                                                                                                                                                                                                                                                                                                                                                                                                                                                                                                                                                                                                                                                                                                                                                                                                                                                                                                                                                                                                                ",
"                                                                                                                                                                                                                                                                                                                                                                                                                                                                                                                                                                                                                                                                                                                                                                                                                                                                                                                                                                                                                                                                                                                                                                                                                                                ",
"                                                                                                                                                                                                                                                                                                                                                                                                                                                                                                                                                                                                                                                                                                                                                                                                                                                                                                                                                                                                                                                                                                                                                                                                                                                ",
"                                                                                                                                                                                                                                                                                                                                                                                                                                                                                                                                                                                                                                                                                                                                                                                                                                                                                                                                                                                                                                                                                                                                                                                                                                                ",
"                                                                                                                                                                                                                                                                                                                                                                                                                                                                                                                                                                                                                                                                                                                                                                                                                                                                                                                                                                                                                                                                                                                                                                                                                                                ",
"                                                                                                                                                                                                                                                                                                                                                                                                                                                                                                                                                                                                                                                                                                                                                                                                                                                                                                                                                                                                                                                                                                                                                                                                                                                ",
"                                                                                                                                                                                                                                                                                                                                                                                                                                                                                                                                                                                                                                                                                                                                                                                                                                                                                                                                                                                                                                                                                                                                                                                                                                                ",
"                                                                                                                                                                                                                                                                                                                                                                                                                                                                                                                                                                                                                                                                                                                                                                                                                                                                                                                                                                                                                                                                                                                                                                                                                                                ",
"                                                                                                                                                                                                                                                                                                                                                                                                                                                                                                                                                                                                                                                                                                                                                                                                                                                                                                                                                                                                                                                                                                                                                                                                                                                ",
"                                                                                                                                                                                                                                                                                                                                                                                                                                                                                                                                                                                                                                                                                                                                                                                                                                                                                                                                                                                                                                                                                                                                                                                                                                                ",
"                                                                                                                                                                                                                                                                                                                                                                                                                                                                                                                                                                                                                                                                                                                                                                                                                                                                                                                                                                                                                                                                                                                                                                                                                                                ",
"                                                                                                                                                                                                                                                                                                                                                                                                                                                                                                                                                                                                                                                                                                                                                                                                                                                                                                                                                                                                                                                                                                                                                                                                                                                ",
"                                                                                                                                                                                                                                                                                                                                                                                                                                                                                                                                                                                                                                                                                                                                                                                                                                                                                                                                                                                                                                                                                                                                                                                                                                                ",
"                                                                                                                                                                                                                                                                                                                                                                                                                                                                                                                                                                                                                                                                                                                                                                                                                                                                                                                                                                                                                                                                                                                                                                                                                                                ",
"                                                                                                                                                                                                                                                                                                                                                                                                                                                                                                                                                                                                                                                                                                                                                                                                                                                                                                                                                                                                                                                                                                                                                                                                                                                ",
"                                                                                                                                                                                                                                                                                                                                                                                                                                                                                                                                                                                                                                                                                                                                                                                                                                                                                                                                                                                                                                                                                                                                                                                                                                                ",
"                                                                                                                                                                                                                                                                                                                                                                                                                                                                                                                                                                                                                                                                                                                                                                                                                                                                                                                                                                                                                                                                                                                                                                                                                                                ",
"                                                                                                                                                                                                                                                                                                                                                                                                                                                                                                                                                                                                                                                                                                                                                                                                                                                                                                                                                                                                                                                                                                                                                                                                                                                ",
"                                                                                                                                                                                                                                                                                                                                                                                                                                                                                                                                                                                                                                                                                                                                                                                                                                                                                                                                                                                                                                                                                                                                                                                                                                                ",
"                                                                                                                                                                                                                                                                                                                                                                                                                                                                                                                                                                                                                                                                                                                                                                                                                                                                                                                                                                                                                                                                                                                                                                                                                                                ",
"                                                                                                                                                                                                                                                                                                                                                                                                                                                                                                                                                                                                                                                                                                                                                                                                                                                                                                                                                                                                                                                                                                                                                                                                                                                ",
"                                                                                                                                                                                                                                                                                                                                                                                                                                                                                                                                                                                                                                                                                                                                                                                                                                                                                                                                                                                                                                                                                                                                                                                                                                                ",
"                                                                                                                                                                                                                                                                                                                                                                                                                                                                                                                                                                                                                                                                                                                                                                                                                                                                                                                                                                                                                                                                                                                                                                                                                                                ",
"                                                                                                                                                                                                                                                                                                                                                                                                                                                                                                                                                                                                                                                                                                                                                                                                                                                                                                                                                                                                                                                                                                                                                                                                                                                ",
"                                                                                                                                                                                                                                                                                                                                                                                                                                                                                                                                                                                                                                                                                                                                                                                                                                                                                                                                                                                                                                                                                                                                                                                                                                                ",
"                                                                                                                                                                                                                                                                                                                                                                                                                                                                                                                                                                                                                                                                                                                                                                                                                                                                                                                                                                                                                                                                                                                                                                                                                                                ",
"                                                                                                                                                                                                                                                                                                                                                                                                                                                                                                                                                                                                                                                                                                                                                                                                                                                                                                                                                                                                                                                                                                                                                                                                                                                ",
"                                                                                                                                                                                                                                                                                                                                                                                                                                                                                                                                                                                                                                                                                                                                                                                                                                                                                                                                                                                                                                                                                                                                                                                                                                                ",
"                                                                                                                                                                                                                                                                                                                                                                                                                                                                                                                                                                                                                                                                                                                                                                                                                                                                                                                                                                                                                                                                                                                                                                                                                                                ",
"                                                                                                                                                                                                                                                                                                                                                                                                                                                                                                                                                                                                                                                                                                                                                                                                                                                                                                                                                                                                                                                                                                                                                                                                                                                ",
"                                                                                                                                                                                                                                                                                                                                                                                                                                                                                                                                                                                                                                                                                                                                                                                                                                                                                                                                                                                                                                                                                                                                                                                                                                                ",
"                                                                                                                                                                                                                                                                                                                                                                                                                                                                                                                                                                                                                                                                                                                                                                                                                                                                                                                                                                                                                                                                                                                                                                                                                                                ",
"                                                                                                                                                                                                                                                                                                                                                                                                                                                                                                                                                                                                                                                                                                                                                                                                                                                                                                                                                                                                                                                                                                                                                                                                                                                ",
"                                                                                                                                                                                                                                                                                                                                                                                                                                                                                                                                                                                                                                                                                                                                                                                                                                                                                                                                                                                                                                                                                                                                                                                                                                                ",
"                                                                                                                                                                                                                                                                                                                                                                                                                                                                                                                                                                                                                                                                                                                                                                                                                                                                                                                                                                                                                                                                                                                                                                                                                                                ",
"                                                                                                                                                                                                                                                                                                                                                                                                                                                                                                                                                                                                                                                                                                                                                                                                                                                                                                                                                                                                                                                                                                                                                                                                                                                ",
"                                                                                                                                                                                                                                                                                                                                                                                                                                                                                                                                                                                                                                                                                                                                                                                                                                                                                                                                                                                                                                                                                                                                                                                                                                                ",
"                                                                                                                                                                                                                                                                                                                                                                                                                                                                                                                                                                                                                                                                                                                                                                                                                                                                                                                                                                                                                                                                                                                                                                                                                                                ",
"                                                                                                                                                                                                                                                                                                                                                                                                                                                                                                                                                                                                                                                                                                                                                                                                                                                                                                                                                                                                                                                                                                                                                                                                                                                ",
"                                                                                                                                                                                                                                                                                                                                                                                                                                                                                                                                                                                                                                                                                                                                                                                                                                                                                                                                                                                                                                                                                                                                                                                                                                                ",
"                                                                                                                                                                                                                                                                                                                                                                                                                                                                                                                                                                                                                                                                                                                                                                                                                                                                                                                                                                                                                                                                                                                                                                                                                                                ",
"                                                                                                                                                                                                                                                                                                                                                                                                                                                                                                                                                                                                                                                                                                                                                                                                                                                                                                                                                                                                                                                                                                                                                                                                                                                ",
"                                                                                                                                                                                                                                                                                                                                                                                                                                                                                                                                                                                                                                                                                                                                                                                                                                                                                                                                                                                                                                                                                                                                                                                                                                                ",
"                                                                                                                                                                                                                                                                                                                                                                                                                                                                                                                                                                                                                                                                                                                                                                                                                                                                                                                                                                                                                                                                                                                                                                                                                                                ",
"                                                                                                                                                                                                                                                                                                                                                                                                                                                                                                                                                                                                                                                                                                                                                                                                                                                                                                                                                                                                                                                                                                                                                                                                                                                ",
"                                                                                                                                                                                                                                                                                                                                                                                                                                                                                                                                                                                                                                                                                                                                                                                                                                                                                                                                                                                                                                                                                                                                                                                                                                                ",
"                                                                                                                                                                                                                                                                                                                                                                                                                                                                                                                                                                                                                                                                                                                                                                                                                                                                                                                                                                                                                                                                                                                                                                                                                                                ",
"                                                                                                                                                                                                                                                                                                                                                                                                                                                                                                                                                                                                                                                                                                                                                                                                                                                                                                                                                                                                                                                                                                                                                                                                                                                ",
"                                                                                                                                                                                                                                                                                                                                                                                                                                                                                                                                                                                                                                                                                                                                                                                                                                                                                                                                                                                                                                                                                                                                                                                                                                                ",
"                                                                                                                                                                                                                                                                                                                                                                                                                                                                                                                                                                                                                                                                                                                                                                                                                                                                                                                                                                                                                                                                                                                                                                                                                                                ",
"                                                                                                                                                                                                                                                                                                                                                                                                                                                                                                                                                                                                                                                                                                                                                                                                                                                                                                                                                                                                                                                                                                                                                                                                                                                ",
"                                                                                                                                                                                                                                                                                                                                                                                                                                                                                                                                                                                                                                                                                                                                                                                                                                                                                                                                                                                                                                                                                                                                                                                                                                                ",
"                                                                                                                                                                                                                                                                                                                                                                                                                                                                                                                                                                                                                                                                                                                                                                                                                                                                                                                                                                                                                                                                                                                                                                                                                                                ",
"                                                                                                                                                                                                                                                                                                                                                                                                                                                                                                                                                                                                                                                                                                                                                                                                                                                                                                                                                                                                                                                                                                                                                                                                                                                ",
"                                                                                                                                                                                                                                                                                                                                                                                                                                                                                                                                                                                                                                                                                                                                                                                                                                                                                                                                                                                                                                                                                                                                                                                                                                                ",
"                                                                                                                                                                                                                                                                                                                                                                                                                                                                                                                                                                                                                                                                                                                                                                                                                                                                                                                                                                                                                                                                                                                                                                                                                                                ",
"                                                                                                                                                                                                                                                                                                                                                                                                                                                                                                                                                                                                                                                                                                                                                                                                                                                                                                                                                                                                                                                                                                                                                                                                                                                ",
"                                                                                                                                                                                                                                                                                                                                                                                                                                                                                                                                                                                                                                                                                                                                                                                                                                                                                                                                                                                                                                                                                                                                                                                                                                                ",
"                                                                                                                                                                                                                                                                                                                                                                                                                                                                                                                                                                                                                                                                                                                                                                                                                                                                                                                                                                                                                                                                                                                                                                                                                                                ",
"                                                                                                                                                                                                                                                                                                                                                                                                                                                                                                                                                                                                                                                                                                                                                                                                                                                                                                                                                                                                                                                                                                                                                                                                                                                ",
"                                                                                                                                                                                                                                                                                                                                                                                                                                                                                                                                                                                                                                                                                                                                                                                                                                                                                                                                                                                                                                                                                                                                                                                                                                                ",
"                                                                                                                                                                                                                                                                                                                                                                                                                                                                                                                                                                                                                                                                                                                                                                                                                                                                                                                                                                                                                                                                                                                                                                                                                                                ",
"                                                                                                                                                                                                                                                                                                                                                                                                                                                                                                                                                                                                                                                                                                                                                                                                                                                                                                                                                                                                                                                                                                                                                                                                                                                ",
"                                                                                                                                                                                                                                                                                                                                                                                                                                                                                                                                                                                                                                                                                                                                                                                                                                                                                                                                                                                                                                                                                                                                                                                                                                                ",
"                                                                                                                                                                                                                                                                                                                                                                                                                                                                                                                                                                                                                                                                                                                                                                                                                                                                                                                                                                                                                                                                                                                                                                                                                                                ",
"                                                                                                                                                                                                                                                                                                                                                                                                                                                                                                                                                                                                                                                                                                                                                                                                                                                                                                                                                                                                                                                                                                                                                                                                                                                ",
"                                                                                                                                                                                                                                                                                                                                                                                                                                                                                                                                                                                                                                                                                                                                                                                                                                                                                                                                                                                                                                                                                                                                                                                                                                                "};
